P3
200 200
255
0 0 0
0 0 0
0 0 0
0 0 0
0 0 0
0 0 0
0 0 0
0 0 0
0 0 0
0 0 0
0 0 0
0 0 0
0 0 0
0 0 0
0 0 0
0 0 0
0 0 0
0 0 0
0 0 0
0 0 0
0 0 0
0 0 0
0 0 0
0 0 0
0 0 0
0 0 0
0 0 0
0 0 0
0 0 0
0 0 0
0 0 0
0 0 0
0 0 0
0 0 0
0 0 0
0 0 0
0 0 0
0 0 0
0 0 0
0 0 0
0 0 0
0 0 0
0 0 0
0 0 0
0 0 0
0 0 0
0 0 0
0 0 0
0 0 0
0 0 0
0 0 0
0 0 0
0 0 0
0 0 0
0 0 0
0 0 0
0 0 0
0 0 0
0 0 0
0 0 0
0 0 0
0 0 0
0 0 0
0 0 0
0 0 0
0 0 0
0 0 0
0 0 0
0 0 0
0 0 0
0 0 0
0 0 0
0 0 0
0 0 0
0 0 0
0 0 0
0 0 0
0 0 0
0 0 0
0 0 0
0 0 0
0 0 0
0 0 0
0 0 0
0 0 0
0 0 0
0 0 0
0 0 0
0 0 0
0 0 0
0 0 0
0 0 0
0 0 0
0 0 0
0 0 0
0 0 0
0 0 0
0 0 0
0 0 0
0 0 0
0 0 0
0 0 0
0 0 0
0 0 0
0 0 0
0 0 0
0 0 0
0 0 0
0 0 0
0 0 0
0 0 0
0 0 0
0 0 0
0 0 0
0 0 0
0 0 0
0 0 0
0 0 0
0 0 0
0 0 0
0 0 0
0 0 0
0 0 0
0 0 0
0 0 0
0 0 0
0 0 0
0 0 0
0 0 0
0 0 0
0 0 0
0 0 0
0 0 0
0 0 0
0 0 0
0 0 0
0 0 0
0 0 0
0 0 0
0 0 0
0 0 0
0 0 0
0 0 0
0 0 0
0 0 0
0 0 0
0 0 0
0 0 0
0 0 0
0 0 0
0 0 0
0 0 0
0 0 0
0 0 0
0 0 0
0 0 0
0 0 0
0 0 0
0 0 0
0 0 0
0 0 0
0 0 0
0 0 0
0 0 0
0 0 0
0 0 0
0 0 0
0 0 0
0 0 0
0 0 0
0 0 0
0 0 0
0 0 0
0 0 0
0 0 0
0 0 0
0 0 0
0 0 0
0 0 0
0 0 0
0 0 0
0 0 0
0 0 0
0 0 0
36 36 0
36 36 0
0 0 0
0 0 0
0 0 0
0 0 0
0 0 0
0 0 0
0 0 0
0 0 0
0 0 0
36 36 0
36 36 0
0 0 0
0 0 0
0 0 0
0 0 0
36 36 0
36 36 0
36 36 0
36 36 0
36 36 0
36 36 0
36 36 0
0 0 0
0 0 0
0 0 0
72 72 85
109 109 85
36 36 0
36 36 0
36 36 0
36 36 0
36 36 0
36 36 0
36 36 0
36 36 0
36 36 0
36 36 0
36 36 0
36 36 0
36 36 0
36 36 0
36 36 0
36 36 0
36 36 0
0 0 0
0 0 0
0 0 0
0 0 0
0 0 0
0 0 0
0 0 0
0 0 0
0 0 0
0 0 0
0 0 0
0 0 0
0 0 0
0 0 0
0 0 0
0 0 0
0 0 0
0 0 0
0 0 0
0 0 0
0 0 0
0 0 0
0 0 0
0 0 0
0 0 0
0 0 0
0 0 0
0 0 0
0 0 0
0 0 0
0 0 0
0 0 0
0 0 0
0 0 0
0 0 0
0 0 0
0 0 0
0 0 0
0 0 0
0 0 0
0 0 0
0 0 0
0 0 0
0 0 0
0 0 0
0 0 0
0 0 0
0 0 0
0 0 0
0 0 0
0 0 0
0 0 0
0 0 0
0 0 0
0 0 0
0 0 0
0 0 0
0 0 0
0 0 0
0 0 0
0 0 0
0 0 0
0 0 0
0 0 0
0 0 0
36 36 0
36 36 0
36 36 0
36 36 0
36 36 0
36 36 0
72 72 85
36 36 0
36 36 0
36 36 0
36 36 0
36 36 0
0 0 0
0 0 0
0 0 0
0 0 0
0 0 0
0 0 0
0 0 0
0 0 0
0 0 0
0 0 0
0 0 0
0 0 0
0 0 0
0 0 0
0 0 0
0 0 0
0 0 0
0 0 0
0 0 0
0 0 0
0 0 0
0 0 0
0 0 0
0 0 0
0 0 0
0 0 0
0 0 0
0 0 0
0 0 0
0 0 0
0 0 0
0 0 0
0 0 0
0 0 0
0 0 0
0 0 0
0 0 0
0 0 0
0 0 0
0 0 0
0 0 0
0 0 0
0 0 0
0 0 0
0 0 0
0 0 0
0 0 0
0 0 0
0 0 0
0 0 0
0 0 0
0 0 0
0 0 0
0 0 0
0 0 0
0 0 0
0 0 0
0 0 0
0 0 0
0 0 0
0 0 0
0 0 0
0 0 0
0 0 0
0 0 0
0 0 0
0 0 0
0 0 0
0 0 0
0 0 0
0 0 0
0 0 0
0 0 0
0 0 0
0 0 0
0 0 0
36 0 0
145 182 255
145 182 255
36 0 0
0 0 0
36 36 0
109 109 85
36 36 0
36 36 0
72 72 85
36 36 0
0 0 0
109 109 85
72 72 85
36 36 0
36 36 0
0 0 0
0 0 0
72 72 85
109 109 85
72 72 85
109 109 85
109 109 85
109 109 85
72 72 85
0 0 0
0 0 0
0 0 0
145 145 170
145 145 170
72 72 85
109 109 85
109 109 85
109 109 85
109 109 85
72 72 85
109 109 85
109 109 85
109 109 85
109 109 85
109 109 85
109 109 85
109 109 85
109 109 85
109 72 85
72 72 85
72 72 85
0 0 0
0 0 0
0 0 0
0 0 0
0 0 0
0 0 0
0 0 0
0 0 0
0 0 0
0 0 0
0 0 0
0 0 0
0 0 0
0 0 0
0 0 0
0 0 0
0 0 0
0 0 0
0 0 0
0 0 0
0 0 0
0 0 0
0 0 0
0 0 0
0 0 0
0 0 0
0 0 0
0 0 0
0 0 0
0 0 0
0 0 0
0 0 0
0 0 0
0 0 0
0 0 0
0 0 0
0 0 0
0 0 0
0 0 0
0 0 0
0 0 0
0 0 0
0 0 0
0 0 0
0 0 0
0 0 0
0 0 0
0 0 0
0 0 0
0 0 0
0 0 0
0 0 0
0 0 0
0 0 0
0 0 0
0 0 0
0 0 0
0 0 0
0 0 0
0 0 0
0 0 0
0 0 0
0 0 0
0 0 0
0 0 0
36 36 0
109 109 85
109 109 85
72 72 85
72 72 85
36 36 0
72 72 85
72 72 85
72 72 85
72 72 85
72 72 85
145 145 170
0 0 0
0 0 0
0 0 0
0 0 0
0 0 0
0 0 0
0 0 0
0 0 0
0 0 0
0 0 0
0 0 0
0 0 0
0 0 0
0 0 0
0 0 0
0 0 0
0 0 0
0 0 0
0 0 0
0 0 0
0 0 0
0 0 0
0 0 0
0 0 0
0 0 0
0 0 0
0 0 0
0 0 0
0 0 0
0 0 0
0 0 0
0 0 0
0 0 0
0 0 0
0 0 0
0 0 0
0 0 0
0 0 0
0 0 0
0 0 0
0 0 0
0 0 0
0 0 0
0 0 0
0 0 0
0 0 0
0 0 0
0 0 0
0 0 0
0 0 0
0 0 0
0 0 0
0 0 0
0 0 0
0 0 0
0 0 0
0 0 0
0 0 0
0 0 0
0 0 0
0 0 0
0 0 0
0 0 0
0 0 0
0 0 0
0 0 0
0 0 0
0 0 0
0 0 0
0 0 0
0 0 0
0 0 0
0 0 0
0 0 0
0 0 0
0 0 0
0 0 0
145 182 255
145 218 255
0 0 0
0 0 0
36 36 0
182 182 170
72 72 85
36 36 0
145 145 170
36 36 0
36 36 0
182 182 170
72 72 85
72 72 85
72 72 85
0 0 0
0 0 0
36 36 0
72 72 85
72 72 85
72 72 85
72 72 85
72 72 85
36 36 0
0 0 0
0 0 0
0 0 0
72 72 85
145 145 170
36 36 0
36 36 0
36 36 0
36 36 0
72 72 85
36 36 0
72 72 85
72 72 85
72 72 85
72 72 85
72 72 0
72 72 85
72 72 85
72 72 85
36 36 0
0 0 0
0 0 0
0 0 0
0 0 0
0 0 0
0 0 0
0 0 0
0 0 0
0 0 0
0 0 0
0 0 0
0 0 0
0 0 0
0 0 0
0 0 0
0 0 0
0 0 0
0 0 0
0 0 0
0 0 0
0 0 0
0 0 0
0 0 0
0 0 0
0 0 0
0 0 0
0 0 0
0 0 0
0 0 0
0 0 0
0 0 0
0 0 0
0 0 0
0 0 0
0 0 0
0 0 0
0 0 0
0 0 0
0 0 0
0 0 0
0 0 0
0 0 0
0 0 0
0 0 0
0 0 0
0 0 0
0 0 0
0 0 0
0 0 0
0 0 0
0 0 0
0 0 0
0 0 0
0 0 0
0 0 0
0 0 0
0 0 0
0 0 0
0 0 0
0 0 0
0 0 0
0 0 0
0 0 0
0 0 0
0 0 0
0 0 0
0 0 0
36 36 0
36 36 0
36 36 0
36 36 0
36 36 0
36 36 0
36 36 0
36 36 0
36 36 0
36 36 0
36 36 0
36 36 0
0 0 0
0 0 0
0 0 0
0 0 0
0 0 0
0 0 0
0 0 0
0 0 0
0 0 0
0 0 0
0 0 0
0 0 0
0 0 0
0 0 0
0 0 0
0 0 0
0 0 0
0 0 0
0 0 0
0 0 0
0 0 0
0 0 0
0 0 0
0 0 0
0 0 0
0 0 0
0 0 0
0 0 0
0 0 0
0 0 0
0 0 0
0 0 0
0 0 0
0 0 0
0 0 0
0 0 0
0 0 0
0 0 0
0 0 0
0 0 0
0 0 0
0 0 0
0 0 0
0 0 0
0 0 0
0 0 0
0 0 0
0 0 0
0 0 0
0 0 0
0 0 0
0 0 0
0 0 0
0 0 0
0 0 0
0 0 0
0 0 0
0 0 0
0 0 0
0 0 0
0 0 0
0 0 0
0 0 0
0 0 0
0 0 0
0 0 0
0 0 0
0 0 0
0 0 0
0 0 0
0 0 0
0 0 0
0 0 0
0 0 0
0 0 0
0 0 0
36 0 0
145 182 170
109 145 170
36 0 0
0 0 0
0 0 0
72 72 85
36 36 0
0 0 0
36 36 0
36 36 0
0 0 0
109 109 85
36 36 0
0 0 0
0 0 0
0 0 0
0 0 0
0 0 0
0 0 0
0 0 0
0 0 0
0 0 0
0 0 0
0 0 0
0 0 0
0 0 0
0 0 0
0 0 0
0 0 0
0 0 0
0 0 0
0 0 0
0 0 0
0 0 0
0 0 0
0 0 0
0 0 0
0 0 0
0 0 0
0 0 0
0 0 0
0 0 0
0 0 0
0 0 0
0 0 0
0 0 0
0 0 0
0 0 0
0 0 0
0 0 0
0 0 0
0 0 0
0 0 0
0 0 0
0 0 0
0 0 0
0 0 0
0 0 0
0 0 0
0 0 0
0 0 0
0 0 0
0 0 0
0 0 0
0 0 0
0 0 0
0 0 0
0 0 0
0 0 0
0 0 0
0 0 0
0 0 0
0 0 0
0 0 0
0 0 0
0 0 0
0 0 0
0 0 0
0 0 0
0 0 0
0 0 0
0 0 0
0 0 0
0 0 0
0 0 0
0 0 0
0 0 0
0 0 0
0 0 0
0 0 0
0 0 0
0 0 0
0 0 0
0 0 0
0 0 0
0 0 0
0 0 0
0 0 0
0 0 0
0 0 0
0 0 0
0 0 0
0 0 0
0 0 0
0 0 0
0 0 0
0 0 0
0 0 0
0 0 0
0 0 0
0 0 0
0 0 0
0 0 0
0 0 0
0 0 0
0 0 0
0 0 0
0 0 0
0 0 0
0 0 0
0 0 0
0 0 0
0 0 0
0 0 0
0 0 0
0 0 0
0 0 0
0 0 0
0 0 0
0 0 0
0 0 0
0 0 0
0 0 0
0 0 0
0 0 0
0 0 0
0 0 0
0 0 0
0 0 0
0 0 0
0 0 0
0 0 0
0 0 0
0 0 0
0 0 0
0 0 0
0 0 0
0 0 0
0 0 0
0 0 0
0 0 0
0 0 0
0 0 0
0 0 0
0 0 0
0 0 0
0 0 0
0 0 0
0 0 0
0 0 0
0 0 0
0 0 0
0 0 0
0 0 0
0 0 0
0 0 0
0 0 0
0 0 0
0 0 0
0 0 0
0 0 0
0 0 0
0 0 0
0 0 0
0 0 0
0 0 0
0 0 0
0 0 0
0 0 0
0 0 0
0 0 0
0 0 0
0 0 0
0 0 0
0 0 0
0 0 0
0 0 0
0 0 0
0 0 0
0 0 0
0 0 0
0 0 0
0 0 0
0 0 0
0 0 0
0 0 0
0 0 0
0 0 0
0 0 0
0 0 0
36 36 0
36 36 0
0 0 0
0 0 0
0 0 0
0 0 0
0 0 0
0 0 0
0 0 0
0 0 0
0 0 0
0 0 0
0 0 0
0 0 0
0 0 0
0 0 0
36 36 0
36 36 0
36 36 0
36 36 0
36 36 0
36 36 0
36 36 0
36 36 0
36 36 0
36 36 0
36 36 0
36 36 0
36 36 0
36 36 0
36 36 0
36 36 0
36 36 0
36 36 0
36 36 0
36 36 0
36 36 0
36 36 0
36 36 0
36 36 0
36 36 0
36 36 0
36 36 0
36 36 0
36 36 0
36 36 0
36 36 0
36 36 0
36 36 0
36 36 0
36 36 0
36 36 0
36 36 0
36 36 0
36 36 0
36 36 0
36 36 0
36 36 0
36 36 0
36 36 0
36 36 0
36 36 0
36 36 0
36 36 0
36 36 0
36 36 0
36 36 0
36 36 0
36 36 0
36 36 0
36 36 0
36 36 0
36 36 0
36 36 0
36 36 0
36 36 0
36 36 0
36 36 0
36 36 0
36 36 0
36 36 0
36 36 0
36 36 0
36 36 0
36 36 0
36 36 0
36 36 0
36 36 0
36 36 0
36 36 0
36 36 0
36 36 0
36 36 0
36 36 0
36 36 0
36 36 0
36 36 0
36 36 0
36 36 0
36 36 0
36 36 0
36 36 0
36 36 0
36 36 0
36 36 0
36 36 0
36 36 0
36 36 0
36 36 0
36 36 0
36 36 0
36 36 0
36 36 0
36 36 0
36 36 0
36 36 0
36 36 0
36 36 0
36 36 0
36 36 0
36 36 0
36 36 0
36 36 0
36 36 0
36 36 0
36 36 0
36 36 0
36 36 0
36 36 0
36 36 0
36 36 0
36 36 0
36 36 0
36 36 0
36 36 0
36 36 0
36 36 0
36 36 0
36 36 0
36 36 0
36 36 0
36 36 0
36 36 0
36 36 0
36 36 0
36 36 0
36 36 0
36 36 0
36 36 0
36 36 0
36 36 0
36 36 0
36 36 0
36 36 0
36 36 0
36 36 0
36 36 0
36 36 0
36 36 0
36 36 0
36 36 0
36 36 0
36 36 0
36 36 0
36 36 0
36 36 0
36 36 0
36 36 0
36 36 0
36 36 0
36 36 0
36 36 0
36 36 0
36 36 0
36 36 0
36 36 0
36 36 0
36 36 0
36 36 0
36 36 0
36 36 0
36 36 0
36 36 0
36 36 0
36 36 0
36 36 0
36 36 0
36 36 0
36 36 0
36 36 0
36 36 0
36 36 0
36 36 0
36 36 0
36 36 0
36 36 0
36 36 0
36 36 0
36 36 0
36 36 0
36 36 0
36 36 0
36 36 0
36 36 0
36 36 0
36 36 0
36 36 0
36 36 0
36 36 0
36 36 0
36 36 0
36 36 0
36 36 0
36 36 0
36 36 0
36 36 0
36 36 0
36 36 0
36 36 0
36 36 0
36 36 0
36 36 0
36 36 0
36 36 0
36 36 0
36 36 0
36 36 0
36 36 0
36 36 0
36 36 0
36 36 0
36 36 0
36 36 0
36 36 0
36 36 0
36 36 0
36 36 0
36 36 0
36 36 0
36 36 0
36 36 0
36 36 0
36 36 0
36 36 0
36 36 0
36 36 0
36 36 0
36 36 0
36 36 0
36 36 0
36 36 0
36 36 0
36 36 0
36 36 0
36 36 0
36 36 0
36 36 0
36 36 0
36 36 0
36 36 0
36 36 0
36 36 0
36 36 0
36 36 0
36 36 0
36 36 0
36 36 0
36 36 0
72 72 85
72 72 85
72 72 85
72 72 85
72 72 85
72 72 85
72 72 85
72 72 85
72 72 85
72 72 85
72 72 85
72 72 85
72 72 85
72 72 85
72 72 85
72 72 85
72 72 85
72 72 85
72 72 85
72 72 85
72 72 85
72 72 85
72 72 85
36 36 0
36 36 0
36 36 0
36 36 0
36 36 0
36 36 0
36 36 0
36 36 0
36 36 0
36 36 0
36 36 0
36 36 0
36 36 0
36 36 0
36 36 0
36 36 0
36 36 0
36 36 0
36 36 0
36 36 0
36 36 0
36 36 0
36 36 0
36 36 0
36 36 0
36 36 0
36 36 0
36 36 0
36 36 0
36 36 0
36 36 0
36 36 0
36 36 0
36 36 0
36 36 0
36 36 0
36 36 0
36 36 0
36 36 0
36 36 0
36 36 0
36 36 0
36 36 0
36 36 0
36 36 0
36 36 0
36 36 0
36 36 0
36 36 0
36 36 0
36 36 0
36 36 0
36 36 0
36 36 0
36 36 0
36 36 0
36 36 0
36 36 0
36 36 0
36 36 0
36 36 0
36 36 0
36 36 0
36 36 0
36 36 0
36 36 0
36 36 0
36 36 0
36 36 0
36 36 0
36 36 0
36 36 0
36 36 0
36 36 0
36 36 0
36 36 0
36 36 0
36 36 0
36 36 0
36 36 0
36 36 0
36 36 0
36 36 0
36 36 0
36 36 0
36 36 0
36 36 0
36 36 0
36 36 0
36 36 0
36 36 0
36 36 0
36 36 0
36 36 0
36 36 0
36 36 0
36 36 0
36 36 0
36 36 0
36 36 0
36 36 0
36 36 0
36 36 0
36 36 0
36 36 0
36 36 0
36 36 0
36 36 0
36 36 0
36 36 0
36 36 0
36 36 0
36 36 0
36 36 0
36 36 0
36 36 0
36 36 0
36 36 0
36 36 0
36 36 0
36 36 0
36 36 0
36 36 0
36 36 0
36 36 0
36 36 0
72 72 85
72 72 85
36 36 0
36 36 0
36 36 0
36 109 0
36 36 0
36 36 0
36 36 0
36 36 0
36 36 0
36 36 0
36 36 0
36 36 0
36 36 0
36 36 0
36 36 0
36 36 0
36 36 0
36 36 0
36 36 0
36 36 0
36 36 0
36 36 0
36 36 0
36 36 0
36 36 0
36 36 0
36 72 0
36 72 0
36 36 0
36 36 0
36 36 0
36 36 0
36 36 0
36 36 0
36 36 0
36 36 0
36 36 0
36 36 0
36 36 0
36 36 0
36 36 0
36 36 0
36 36 0
36 36 0
36 36 0
36 36 0
36 36 0
36 36 0
36 36 0
72 72 85
72 72 85
72 72 85
72 72 85
72 72 85
72 72 85
72 72 85
72 72 85
72 72 85
72 72 85
72 72 85
72 72 85
72 72 85
72 72 85
72 72 85
72 72 85
72 72 85
72 72 85
72 72 85
72 72 85
72 72 85
72 72 85
72 72 85
36 36 0
72 72 85
72 72 85
36 36 0
36 36 0
36 36 0
36 36 0
36 36 0
36 36 0
36 36 0
36 36 0
36 36 0
36 36 0
36 36 0
36 36 0
36 36 0
36 36 0
36 36 0
36 36 0
36 36 0
36 36 0
36 36 0
36 36 0
36 36 0
36 36 0
36 36 0
36 36 0
36 36 0
36 36 0
36 36 0
36 36 0
36 36 0
36 36 0
36 36 0
36 36 0
36 36 0
36 36 0
36 36 0
36 36 0
36 36 0
36 36 0
36 36 0
36 36 0
36 36 0
36 36 0
36 36 0
36 36 0
36 36 0
36 36 0
36 36 0
36 36 0
36 36 0
36 36 0
36 36 0
36 36 0
36 36 0
36 36 0
36 36 0
36 36 0
36 36 0
36 36 0
36 36 0
36 36 0
36 36 0
36 36 0
36 36 0
36 36 0
36 36 0
36 36 0
36 36 0
36 36 0
36 36 0
36 36 0
36 36 0
36 36 0
36 36 0
36 36 0
36 36 0
36 36 0
36 36 0
36 36 0
36 36 0
36 36 0
36 36 0
36 36 0
36 36 0
36 36 0
36 36 0
36 36 0
36 36 0
36 36 0
36 36 0
36 36 0
36 36 0
36 36 0
36 36 0
36 36 0
36 36 0
36 36 0
36 36 0
36 36 0
36 36 0
36 36 0
36 36 0
36 36 0
36 36 0
36 36 0
36 36 0
36 36 0
36 36 0
36 36 0
36 36 0
36 36 0
36 36 0
36 36 0
36 36 0
36 36 0
36 36 0
36 36 0
36 36 0
36 36 0
36 36 0
72 36 0
145 36 0
36 36 0
36 36 0
109 109 85
109 109 85
36 36 0
36 36 0
36 72 85
145 218 170
72 109 85
72 72 85
72 72 85
72 72 85
72 72 85
72 72 85
72 72 85
72 72 85
72 72 85
72 72 85
72 72 85
72 72 85
72 72 85
72 72 85
72 72 85
72 72 85
36 36 0
72 72 85
36 36 0
72 72 85
36 36 0
36 36 0
36 145 85
36 145 85
72 72 85
109 109 85
36 36 0
72 72 85
109 109 85
72 72 85
72 72 85
109 109 85
72 72 85
72 72 85
109 109 85
72 72 85
109 109 85
109 109 85
72 72 85
72 72 85
36 36 0
36 36 0
72 72 85
36 36 0
36 36 0
72 72 85
36 72 0
72 72 85
145 145 170
109 109 85
109 109 85
109 109 85
109 109 85
72 72 85
109 109 85
109 109 85
109 109 85
145 145 170
109 109 85
72 72 85
72 72 85
72 72 85
72 72 85
72 72 85
72 72 85
109 109 85
109 109 85
72 72 85
36 36 0
182 182 170
145 145 170
72 72 85
72 72 85
72 72 85
72 72 85
72 72 85
72 72 85
72 72 85
72 72 85
72 72 85
109 109 85
72 72 85
72 72 85
72 72 85
72 72 85
72 72 85
72 72 85
72 72 85
36 36 0
72 72 85
36 36 0
36 36 0
36 36 0
72 72 85
36 36 0
36 36 0
36 36 0
36 36 0
36 36 0
36 36 0
36 36 0
36 36 0
36 36 0
36 36 0
36 36 0
36 36 0
36 36 0
36 36 0
36 36 0
36 36 0
36 36 0
36 36 0
36 36 0
36 36 0
36 36 0
36 36 0
36 36 0
36 36 0
36 36 0
36 36 0
36 36 0
36 36 0
36 36 0
36 36 0
36 36 0
36 36 0
36 36 0
36 36 0
36 36 0
36 36 0
36 36 0
36 36 0
36 36 0
36 36 0
36 36 0
36 36 0
36 36 0
36 36 0
36 36 0
36 36 0
36 36 0
36 36 0
36 36 0
36 36 0
36 36 0
36 36 0
36 36 0
36 36 0
36 36 0
36 36 0
36 36 0
36 36 0
36 36 0
36 36 0
36 36 0
36 36 0
36 36 0
36 36 0
36 36 0
36 36 0
36 36 0
36 36 0
36 36 0
36 36 0
36 36 0
36 36 0
36 36 0
36 36 0
36 36 0
36 36 0
36 36 0
36 36 0
36 36 0
36 36 0
36 36 0
36 36 0
72 72 85
36 36 0
36 36 0
36 36 0
36 36 0
36 36 0
36 36 0
36 36 0
36 36 0
36 36 0
36 36 0
72 72 85
36 36 0
36 36 0
182 72 0
255 109 0
72 36 0
36 36 0
72 72 85
72 72 85
36 36 0
36 36 0
36 72 0
109 218 170
36 109 85
109 109 85
109 109 85
109 109 85
109 109 85
145 145 170
109 109 85
109 109 85
109 109 85
109 109 85
145 145 170
109 109 85
109 109 85
145 145 170
145 145 170
72 72 85
72 72 85
72 72 85
72 72 85
72 72 85
36 36 0
36 36 0
36 145 85
0 145 85
109 109 85
145 145 170
36 36 0
109 109 85
145 145 170
109 109 85
109 109 85
109 109 85
109 109 85
109 109 85
109 109 85
109 109 85
109 109 85
109 109 85
109 109 85
72 72 85
72 72 85
36 36 0
72 72 85
36 36 0
36 36 0
72 72 85
109 109 0
109 109 85
145 145 170
145 145 170
145 145 170
145 145 170
145 145 170
109 109 85
145 145 170
145 145 170
145 145 170
145 145 170
145 145 170
72 72 85
72 72 85
72 72 85
72 72 85
72 72 85
72 72 85
109 109 85
109 109 85
72 72 85
36 36 0
182 182 170
145 145 170
109 109 85
109 109 85
109 109 85
145 145 170
109 109 85
72 72 85
72 72 85
109 109 85
109 109 85
109 109 85
109 109 85
109 109 85
109 109 85
109 109 85
109 109 85
72 72 85
109 109 85
72 72 85
72 72 85
36 36 0
36 36 0
36 36 0
109 109 85
36 36 0
36 36 0
36 36 0
36 36 0
36 36 0
36 36 0
36 36 0
36 36 0
36 36 0
36 36 0
36 36 0
36 36 0
36 36 0
36 36 0
36 36 0
36 36 0
36 36 0
36 36 0
36 36 0
36 36 0
36 36 0
36 36 0
36 36 0
36 36 0
36 36 0
36 36 0
36 36 0
36 36 0
36 36 0
36 36 0
36 36 0
36 36 0
36 36 0
36 36 0
36 36 0
36 36 0
36 36 0
36 36 0
36 36 0
36 36 0
36 36 0
36 36 0
36 36 0
36 36 0
36 36 0
36 36 0
36 36 0
36 36 0
36 36 0
36 36 0
36 36 0
36 36 0
36 36 0
36 36 0
36 36 0
36 36 0
36 36 0
36 36 0
36 36 0
36 36 0
36 36 0
36 36 0
36 36 0
36 36 0
36 36 0
36 36 0
36 36 0
36 36 0
36 36 0
36 36 0
36 36 0
36 36 0
36 36 0
36 36 0
36 36 0
36 36 0
36 36 0
36 36 0
36 36 0
36 36 0
36 36 0
36 36 0
72 72 85
36 36 0
36 36 0
36 36 0
36 36 0
36 36 0
36 36 0
36 36 0
72 72 85
36 36 0
36 36 0
72 72 85
36 36 0
36 36 0
182 72 0
255 109 85
72 36 0
36 36 0
72 72 85
109 109 85
36 36 0
36 36 0
36 36 0
36 109 85
36 72 0
36 36 0
36 36 0
36 36 0
36 36 0
36 36 0
36 36 0
72 72 85
72 72 85
36 36 0
72 72 85
72 72 85
36 36 0
36 36 0
36 36 0
36 36 0
36 36 0
36 36 0
36 36 0
36 36 0
36 36 0
36 36 0
36 72 0
36 72 0
36 36 0
36 36 0
36 36 0
72 72 85
36 36 0
36 36 0
72 72 85
36 36 0
36 36 0
36 36 0
72 72 85
36 36 0
72 72 85
36 36 0
36 36 0
36 36 0
36 36 0
36 36 0
36 36 0
36 36 0
36 36 0
72 72 85
72 72 85
72 72 85
109 109 85
109 109 85
109 109 85
109 109 85
109 109 85
72 72 85
109 109 85
109 109 85
109 109 85
109 109 85
109 109 85
72 72 85
72 72 85
72 72 85
72 72 85
72 72 85
72 72 85
72 72 85
72 72 85
72 72 85
36 36 0
109 109 85
72 72 85
36 36 0
36 36 0
36 36 0
36 36 0
36 36 0
36 36 0
36 36 0
36 36 0
72 72 85
36 36 0
36 36 0
36 36 0
72 72 85
36 36 0
36 36 0
36 36 0
36 36 0
36 36 0
36 36 0
36 36 0
36 36 0
36 36 0
36 36 0
36 36 0
36 36 0
36 36 0
36 36 0
36 36 0
36 36 0
36 36 0
36 36 0
36 36 0
36 36 0
36 36 0
36 36 0
36 36 0
36 36 0
36 36 0
36 36 0
36 36 0
36 36 0
36 36 0
36 36 0
36 36 0
36 36 0
36 36 0
36 36 0
36 36 0
36 36 0
36 36 0
36 36 0
36 36 0
36 36 0
36 36 0
36 36 0
36 36 0
36 36 0
36 36 0
36 36 0
36 36 0
36 36 0
36 36 0
36 36 0
36 36 0
36 36 0
36 36 0
36 36 0
36 36 0
36 36 0
36 36 0
36 36 0
36 36 0
36 36 0
36 36 0
36 36 0
36 36 0
36 36 0
36 36 0
36 36 0
36 36 0
36 36 0
36 36 0
36 36 0
36 36 0
36 36 0
36 36 0
36 36 0
36 36 0
36 36 0
36 36 0
36 36 0
36 36 0
36 36 0
36 36 0
36 36 0
36 36 0
36 36 0
36 36 0
36 36 0
36 36 0
36 36 0
36 36 0
36 36 0
36 36 0
36 36 0
36 36 0
36 36 0
36 36 0
36 36 0
36 36 0
36 36 0
36 36 0
36 36 0
36 36 0
36 36 0
36 36 0
36 36 0
36 36 0
36 36 0
109 36 0
145 36 0
36 36 0
36 36 0
36 36 0
36 36 0
36 36 0
36 36 0
36 36 0
36 36 0
36 36 0
36 36 0
36 36 0
36 36 0
36 36 0
36 36 0
36 36 0
36 36 0
36 36 0
36 36 0
36 36 0
36 36 0
36 36 0
36 36 0
36 36 0
36 36 0
36 36 0
36 36 0
36 36 0
36 36 0
36 36 0
36 36 0
36 36 0
36 36 0
36 36 0
36 36 0
36 36 0
36 36 0
36 36 0
36 36 0
36 36 0
36 36 0
36 36 0
36 36 0
36 36 0
36 36 0
36 36 0
36 36 0
36 36 0
36 36 0
36 36 0
36 36 0
36 36 0
36 36 0
36 36 0
72 72 85
72 72 85
72 72 85
72 72 85
72 72 85
72 72 85
72 72 85
72 72 85
72 72 85
72 72 85
72 72 85
72 72 85
72 72 85
72 72 85
72 72 85
72 72 85
72 72 85
72 72 85
72 72 85
72 72 85
72 72 85
72 72 85
72 72 85
36 36 0
36 36 0
36 36 0
36 36 0
36 36 0
36 36 0
36 36 0
36 36 0
36 36 0
36 36 0
36 36 0
36 36 0
36 36 0
36 36 0
36 36 0
36 36 0
36 36 0
36 36 0
36 36 0
36 36 0
36 36 0
36 36 0
36 36 0
36 36 0
36 36 0
36 36 0
36 36 0
36 36 0
36 36 0
36 36 0
36 36 0
36 36 0
36 36 0
36 36 0
36 36 0
36 36 0
36 36 0
36 36 0
36 36 0
36 36 0
36 36 0
36 36 0
36 36 0
36 36 0
36 36 0
36 36 0
36 36 0
36 36 0
36 36 0
36 36 0
36 36 0
36 36 0
36 36 0
36 36 0
36 36 0
36 36 0
36 36 0
36 36 0
36 36 0
36 36 0
36 36 0
36 36 0
36 36 0
36 36 0
36 36 0
36 36 0
36 36 0
36 36 0
36 36 0
36 36 0
36 36 0
36 36 0
36 36 0
36 36 0
36 36 0
36 36 0
36 36 0
36 36 0
36 36 0
36 36 0
36 36 0
36 36 0
36 36 0
36 36 0
36 36 0
36 36 0
36 36 0
36 36 0
36 36 0
36 36 0
36 36 0
36 36 0
36 36 0
36 36 0
36 36 0
36 36 0
36 36 0
36 36 0
36 36 0
36 36 0
36 36 0
36 36 0
36 36 0
36 36 0
36 36 0
36 36 0
36 36 0
36 36 0
36 36 0
36 36 0
36 36 0
36 36 0
36 36 0
36 36 0
36 36 0
36 36 0
36 36 0
36 36 0
36 36 0
36 36 0
36 36 0
36 36 0
36 36 0
36 36 0
36 36 0
36 36 0
36 36 0
36 36 0
36 36 0
36 36 0
36 36 0
36 36 0
36 36 0
36 36 0
36 36 0
36 36 0
36 36 0
36 36 0
36 36 0
36 36 0
36 36 0
36 36 0
36 36 0
36 36 0
36 36 0
36 36 0
36 36 0
36 36 0
36 36 0
36 36 0
36 36 0
36 36 0
36 36 0
36 36 0
36 36 0
36 36 0
36 36 0
36 36 0
36 36 0
36 36 0
36 36 0
36 36 0
36 36 0
36 36 0
36 36 0
36 36 0
36 36 0
36 36 0
36 36 0
36 36 0
36 36 0
36 36 0
36 36 0
36 36 0
36 36 0
36 36 0
36 36 0
36 36 0
36 36 0
36 36 0
36 36 0
36 36 0
36 36 0
36 36 0
36 36 0
36 36 0
36 36 0
36 36 0
36 36 0
36 36 0
36 36 0
36 36 0
36 36 0
36 36 0
36 36 0
36 36 0
36 36 0
36 36 0
36 36 0
36 36 0
36 36 0
36 36 0
36 36 0
36 36 0
36 36 0
36 36 0
36 36 0
36 36 0
36 36 0
36 36 0
36 36 0
36 36 0
36 36 0
36 36 0
36 36 0
36 36 0
36 36 0
36 36 0
36 36 0
36 36 0
36 36 0
36 36 0
36 36 0
36 36 0
36 36 0
36 36 0
36 36 0
36 36 0
36 36 0
36 36 0
36 36 0
36 36 0
36 36 0
36 36 0
36 36 0
36 36 0
36 36 0
36 36 0
36 36 0
36 36 0
36 36 0
36 36 0
36 36 0
36 36 0
36 36 0
36 36 0
36 36 0
36 36 0
36 36 0
36 36 0
36 36 0
36 36 0
36 36 0
36 36 0
36 36 0
36 36 0
36 36 0
36 36 0
36 36 0
36 36 0
36 36 0
36 36 0
36 36 0
36 36 0
36 36 0
36 36 0
36 36 0
36 36 0
36 36 0
36 36 0
36 36 0
36 36 0
36 36 0
36 36 0
36 36 0
36 36 0
36 36 0
36 36 0
36 36 0
36 36 0
36 36 0
36 36 0
36 36 0
36 36 0
36 36 0
36 36 0
36 36 0
36 36 0
36 36 0
36 36 0
36 36 0
36 36 0
36 36 0
36 36 0
36 36 0
36 36 0
36 36 0
36 36 0
36 36 0
36 36 0
36 36 0
36 36 0
36 36 0
36 36 0
36 36 0
36 36 0
36 36 0
36 36 0
36 36 0
36 36 0
36 36 0
36 36 0
36 36 0
36 36 0
36 36 0
36 36 0
36 36 0
36 36 0
36 36 0
36 36 0
36 36 0
36 36 0
36 36 0
36 36 0
36 36 0
72 72 85
72 72 85
72 72 85
72 72 85
72 72 85
72 72 85
72 72 85
72 72 85
72 72 85
72 72 85
72 72 85
72 72 85
72 72 85
72 72 85
72 72 85
72 72 85
72 72 85
72 72 85
72 72 85
72 72 85
72 72 85
72 72 85
72 72 85
72 72 85
72 72 85
72 72 85
72 72 85
72 72 85
72 72 85
72 72 85
72 72 85
72 72 85
72 72 85
72 72 85
72 72 85
72 72 85
72 72 85
72 72 85
72 72 85
72 72 85
72 72 85
72 72 85
72 72 85
72 72 85
72 72 85
72 72 85
72 72 85
72 72 85
72 72 85
72 72 85
72 72 85
72 72 85
72 72 85
72 72 85
72 72 85
72 72 85
72 72 85
72 72 85
72 72 85
72 72 85
72 72 85
72 72 85
72 72 85
72 72 85
72 72 85
72 72 85
72 72 85
72 72 85
72 72 85
72 72 85
72 72 85
72 72 85
72 72 85
72 72 85
72 72 85
72 72 85
72 72 85
72 72 85
72 72 85
72 72 85
72 72 85
72 72 85
72 72 85
72 72 85
72 72 85
72 72 85
72 72 85
72 72 85
72 72 85
72 72 85
72 72 85
72 72 85
72 72 85
72 72 85
72 72 85
72 72 85
72 72 85
72 72 85
72 72 85
72 72 85
72 72 85
72 72 85
72 72 85
72 72 85
72 72 85
72 72 85
72 72 85
72 72 85
72 72 85
72 72 85
72 72 85
72 72 85
72 72 85
72 72 85
72 72 85
72 72 85
72 72 85
72 72 85
72 72 85
72 72 85
72 72 85
72 72 85
72 72 85
72 72 85
72 72 85
72 72 85
72 72 85
72 72 85
72 72 85
72 72 85
72 72 85
72 72 85
72 72 85
72 72 85
72 72 85
72 72 85
72 72 85
72 72 85
72 72 85
72 72 85
72 72 85
72 72 85
72 72 85
72 72 85
72 72 85
72 72 85
72 72 85
72 72 85
72 72 85
72 72 85
72 72 85
72 72 85
72 72 85
72 72 85
72 72 85
72 72 85
72 72 85
72 72 85
72 72 85
72 72 85
72 72 85
72 72 85
72 72 85
72 72 85
72 72 85
72 72 85
72 72 85
72 72 85
72 72 85
72 72 85
72 72 85
72 72 85
72 72 85
72 72 85
72 72 85
72 72 85
72 72 85
72 72 85
72 72 85
72 72 85
72 72 85
72 72 85
72 72 85
72 72 85
72 72 85
72 72 85
72 72 85
72 72 85
72 72 85
72 72 85
72 72 85
72 72 85
72 72 85
72 72 85
72 72 85
72 72 85
72 72 85
72 72 85
72 72 85
72 72 85
72 72 85
72 72 85
72 72 85
72 72 85
72 72 85
72 72 85
72 72 85
72 72 85
72 72 85
72 72 85
72 72 85
72 72 85
72 72 85
72 72 85
72 72 85
72 72 85
72 72 85
72 72 85
72 72 85
72 72 85
72 72 85
72 72 85
72 72 85
72 72 85
72 72 85
36 36 0
72 72 85
72 72 85
36 36 0
72 72 85
72 72 85
72 72 85
72 72 85
72 72 85
72 72 85
72 72 85
72 72 85
72 72 85
72 72 85
72 72 85
72 72 85
72 72 85
72 72 85
72 72 85
72 72 85
72 72 85
72 72 85
72 72 85
72 72 85
72 72 85
72 72 85
72 72 85
72 72 85
72 72 85
72 72 85
72 72 85
72 72 85
72 72 85
72 72 85
72 72 85
72 72 85
72 72 85
72 72 85
72 72 85
72 72 85
72 72 85
72 72 85
72 72 85
72 72 85
72 72 85
72 72 85
72 72 85
72 72 85
72 72 85
72 72 85
72 72 85
72 72 85
72 72 85
72 72 85
72 72 85
72 72 85
72 72 85
72 72 85
72 72 85
72 72 85
72 72 85
72 72 85
72 72 85
72 72 85
72 72 85
72 72 85
72 72 85
72 72 85
72 72 85
72 72 85
72 72 85
72 72 85
72 72 85
72 72 85
72 72 85
72 72 85
72 72 85
72 72 85
72 72 85
72 72 85
72 72 85
72 72 85
72 72 85
72 72 85
72 72 85
72 72 85
72 72 85
72 72 85
72 72 85
72 72 85
72 72 85
72 72 85
72 72 85
72 72 85
72 72 85
72 72 85
72 72 85
72 72 85
72 72 85
72 72 85
72 72 85
72 72 85
72 72 85
72 72 85
72 72 85
72 72 85
72 72 85
72 72 85
72 72 85
72 72 85
72 72 85
72 72 85
72 72 85
72 72 85
72 72 85
72 72 85
72 72 85
72 72 85
72 72 85
72 72 85
72 72 85
72 72 85
72 72 85
72 72 85
72 72 85
72 72 85
72 72 85
72 72 85
72 72 85
72 72 85
72 72 85
72 72 85
72 72 85
72 72 85
72 72 85
72 72 85
72 72 85
72 72 85
72 72 85
72 72 85
72 72 85
72 72 85
72 72 85
72 72 85
72 72 85
72 72 85
72 72 85
72 72 85
72 72 85
72 72 85
72 72 85
72 72 85
72 72 85
72 72 85
72 72 85
72 72 85
72 72 85
72 72 85
72 72 85
72 72 85
72 72 85
72 72 85
72 72 85
72 72 85
72 72 85
72 72 85
72 72 85
72 72 85
72 72 85
72 72 85
72 72 85
72 72 85
72 72 85
72 72 85
72 72 85
72 72 85
72 72 85
72 72 85
72 72 85
72 72 85
72 72 85
72 72 85
72 72 85
72 72 85
109 109 85
109 109 85
72 72 85
72 72 85
72 72 85
72 72 85
72 72 85
72 72 85
72 72 85
72 72 85
72 72 85
72 72 85
72 72 85
72 72 85
72 72 85
72 72 85
109 109 85
72 72 85
72 72 85
109 109 85
72 72 85
72 72 85
36 36 0
36 36 0
72 72 85
72 72 85
36 36 0
72 72 85
36 36 0
72 72 85
72 72 85
72 72 85
72 72 85
72 72 85
72 72 85
72 72 85
72 72 85
72 72 85
72 72 85
72 72 85
72 72 85
72 72 85
72 72 85
72 72 85
72 72 85
72 72 85
72 72 85
72 72 85
72 72 85
72 72 85
72 72 85
72 72 85
72 72 85
72 72 85
72 72 85
72 72 85
72 72 85
72 72 85
72 72 85
72 72 85
72 72 85
72 72 85
72 72 85
72 72 85
72 72 85
72 72 85
72 72 85
72 72 85
72 72 85
72 72 85
72 72 85
72 72 85
72 72 85
72 72 85
72 72 85
72 72 85
72 72 85
72 72 85
72 72 85
72 72 85
72 72 85
72 72 85
72 72 85
72 72 85
72 72 85
72 72 85
72 72 85
72 72 85
72 72 85
72 72 85
72 72 85
72 72 85
72 72 85
72 72 85
72 72 85
72 72 85
72 72 85
72 72 85
72 72 85
72 72 85
72 72 85
72 72 85
72 72 85
72 72 85
72 72 85
72 72 85
72 72 85
72 72 85
72 72 85
72 72 85
72 72 85
72 72 85
72 72 85
72 72 85
72 72 85
72 72 85
72 72 85
72 72 85
72 72 85
72 72 85
72 72 85
72 72 85
72 72 85
72 72 85
72 72 85
72 72 85
72 72 85
72 72 85
72 72 85
72 72 85
72 72 85
72 72 85
72 72 85
72 72 85
72 72 85
72 72 85
72 72 85
72 72 85
72 72 85
72 72 85
72 72 85
72 72 85
72 72 85
72 72 85
72 72 85
72 72 85
72 72 85
72 72 85
72 72 85
72 72 85
72 72 85
72 72 85
72 72 85
72 72 85
72 72 85
72 72 85
36 36 0
72 72 85
72 72 85
72 72 85
72 72 85
72 72 85
72 72 85
72 72 85
72 72 85
72 72 85
72 72 85
72 72 85
72 72 85
72 72 85
72 72 85
72 72 85
109 109 85
109 109 85
109 109 85
72 72 85
72 72 85
109 109 85
72 72 85
72 72 85
109 109 85
72 145 170
72 109 85
72 72 85
109 109 85
109 109 85
72 72 85
72 72 85
109 109 85
72 72 85
72 72 85
72 72 85
109 109 85
109 109 85
72 72 85
72 72 85
109 109 85
109 109 85
72 72 85
72 72 85
109 109 85
109 109 85
72 72 85
72 72 85
72 72 85
72 72 85
72 72 85
72 72 85
72 72 85
72 72 85
72 72 85
72 72 85
72 72 85
72 72 85
72 72 85
72 72 85
72 72 85
72 72 85
72 72 85
109 109 85
72 72 85
72 72 85
109 109 85
109 109 85
109 109 85
109 109 85
109 109 85
109 109 85
72 72 85
72 72 85
72 72 85
72 72 85
72 72 85
72 72 85
72 72 85
72 72 85
72 72 85
72 72 85
72 72 85
72 72 85
72 72 85
72 72 85
72 72 85
72 72 85
72 72 85
72 72 85
72 72 85
72 72 85
72 72 85
72 72 85
72 72 85
72 72 85
72 72 85
72 72 85
72 72 85
72 72 85
72 72 85
72 72 85
72 72 85
72 72 85
72 72 85
72 72 85
72 72 85
72 72 85
72 72 85
72 72 85
72 72 85
72 72 85
72 72 85
72 72 85
72 72 85
72 72 85
72 72 85
72 72 85
72 72 85
72 72 85
72 72 85
72 72 85
72 72 85
72 72 85
72 72 85
72 72 85
72 72 85
72 72 85
72 72 85
72 72 85
72 72 85
72 72 85
72 72 85
72 72 85
72 72 85
72 72 85
72 72 85
72 72 85
72 72 85
72 72 85
72 72 85
72 72 85
72 72 85
72 72 85
72 72 85
72 72 85
72 72 85
72 72 85
72 72 85
72 72 85
72 72 85
72 72 85
72 72 85
72 72 85
72 72 85
72 72 85
72 72 85
72 72 85
72 72 85
72 72 85
72 72 85
72 72 85
72 72 85
72 72 85
72 72 85
72 72 85
72 72 85
72 72 85
72 72 85
72 72 85
72 72 85
72 72 85
72 72 85
72 72 85
72 72 85
72 72 85
72 72 85
72 72 85
72 72 85
72 72 85
72 72 85
72 72 85
72 72 85
72 72 85
72 72 85
72 72 85
72 72 85
72 72 85
72 72 85
72 72 85
72 72 85
72 72 85
72 72 85
72 72 85
72 72 85
72 72 85
72 72 85
72 72 85
72 72 85
36 36 0
72 72 85
109 109 85
72 72 85
72 72 85
72 72 85
72 72 85
72 72 85
72 72 85
72 72 85
72 72 85
72 72 85
72 72 85
72 72 85
72 72 85
72 72 85
72 72 85
109 109 85
145 145 170
109 109 85
72 72 85
109 109 85
145 145 170
72 72 85
72 72 85
145 145 170
145 145 170
72 72 85
72 72 85
145 145 170
109 109 85
72 72 85
109 109 85
145 145 170
109 109 85
72 72 85
72 72 85
109 109 85
109 109 85
72 72 85
72 72 85
72 72 85
109 109 85
72 72 85
72 72 85
109 109 85
109 109 85
72 72 85
72 72 85
72 72 85
72 72 85
72 72 85
72 72 85
72 72 85
72 72 85
72 72 85
72 72 85
72 72 85
72 72 85
72 72 85
72 72 85
72 72 85
72 72 85
72 72 85
109 109 85
72 72 85
72 72 85
145 145 170
109 109 85
145 145 170
109 109 85
145 145 170
109 109 85
72 72 85
109 109 85
109 109 85
72 72 85
72 72 85
72 72 85
72 72 85
72 72 85
72 72 85
72 72 85
72 72 85
72 72 85
72 72 85
72 72 85
72 72 85
72 72 85
72 72 85
72 72 85
72 72 85
72 72 85
72 72 85
72 72 85
72 72 85
72 72 85
72 72 85
72 72 85
72 72 85
72 72 85
72 72 85
72 72 85
72 72 85
72 72 85
72 72 85
72 72 85
72 72 85
72 72 85
72 72 85
72 72 85
72 72 85
72 72 85
72 72 85
72 72 85
72 72 85
72 72 85
72 72 85
72 72 85
72 72 85
72 72 85
72 72 85
72 72 85
72 72 85
72 72 85
72 72 85
72 72 85
72 72 85
72 72 85
72 72 85
72 72 85
72 72 85
72 72 85
72 72 85
72 72 85
72 72 85
72 72 85
72 72 85
72 72 85
72 72 85
72 72 85
72 72 85
72 72 85
72 72 85
72 72 85
72 72 85
72 72 85
72 72 85
72 72 85
72 72 85
72 72 85
72 72 85
72 72 85
72 72 85
72 72 85
72 72 85
72 72 85
72 72 85
72 72 85
72 72 85
72 72 85
72 72 85
72 72 85
72 72 85
72 72 85
72 72 85
72 72 85
72 72 85
72 72 85
72 72 85
72 72 85
72 72 85
72 72 85
72 72 85
72 72 85
72 72 85
72 72 85
72 72 85
72 72 85
72 72 85
72 72 85
72 72 85
72 72 85
72 72 85
72 72 85
72 72 85
72 72 85
72 72 85
72 72 85
72 72 85
72 72 85
72 72 85
72 72 85
72 72 85
72 72 85
72 72 85
72 72 85
72 72 85
72 72 85
72 72 85
72 72 85
72 72 85
109 109 85
72 72 85
72 72 85
72 72 85
72 72 85
72 72 85
72 72 85
72 72 85
72 72 85
72 72 85
72 72 85
72 72 85
72 72 85
72 72 85
72 72 85
109 109 85
145 145 170
109 109 85
72 72 85
109 109 85
145 145 170
72 72 85
72 72 85
182 182 170
182 182 170
72 72 85
109 109 85
145 145 170
109 109 85
72 72 85
109 109 85
145 145 170
109 109 85
72 72 85
72 72 85
72 72 85
72 72 85
72 72 85
72 72 85
72 72 85
72 72 85
72 72 85
72 72 85
109 109 85
109 109 85
72 72 85
72 72 85
72 72 85
72 72 85
72 72 85
72 72 85
72 72 85
72 72 85
72 72 85
72 72 85
72 72 85
72 72 85
72 72 85
72 72 85
72 72 85
72 72 85
72 72 85
72 72 85
72 72 85
72 72 85
72 72 85
72 72 85
72 72 85
72 72 85
72 72 85
72 72 85
72 72 85
72 72 85
72 72 85
72 72 85
36 36 0
36 36 0
36 36 0
36 36 0
36 36 0
36 36 0
36 36 0
36 36 0
36 36 0
36 36 0
36 36 0
36 36 0
36 36 0
36 36 0
36 36 0
36 36 0
36 36 0
36 36 0
36 36 0
36 36 0
36 36 0
36 36 0
36 36 0
36 36 0
36 36 0
36 36 0
36 36 0
36 36 0
36 36 0
36 36 0
36 36 0
36 36 0
36 36 0
36 36 0
36 36 0
36 36 0
36 36 0
36 36 0
36 36 0
36 36 0
36 36 0
36 36 0
36 36 0
36 36 0
36 36 0
36 36 0
36 36 0
36 36 0
36 36 0
36 36 0
36 36 0
36 36 0
36 36 0
36 36 0
36 36 0
36 36 0
36 36 0
36 36 0
36 36 0
36 36 0
36 36 0
36 36 0
36 36 0
36 36 0
36 36 0
36 36 0
36 36 0
36 36 0
36 36 0
36 36 0
36 36 0
36 36 0
36 36 0
36 36 0
36 36 0
36 36 0
36 36 0
36 36 0
36 36 0
36 36 0
36 36 0
36 36 0
36 36 0
36 36 0
36 36 0
36 36 0
36 36 0
36 36 0
36 36 0
36 36 0
36 36 0
36 36 0
36 36 0
36 36 0
36 36 0
36 36 0
36 36 0
36 36 0
36 36 0
36 36 0
36 36 0
36 36 0
36 36 0
36 36 0
36 36 0
36 36 0
36 36 0
36 36 0
36 36 0
36 36 0
36 36 0
36 36 0
36 36 0
36 36 0
36 36 0
36 36 0
36 36 0
36 36 0
36 36 0
36 36 0
36 36 0
36 36 0
36 36 0
36 36 0
36 36 0
72 72 85
72 72 85
72 72 85
72 72 85
72 72 85
72 72 85
72 72 85
72 72 85
72 72 85
72 72 85
72 72 85
72 72 85
72 72 85
72 72 85
72 72 85
72 72 85
109 109 85
72 72 85
72 72 85
109 109 85
109 109 85
72 72 85
72 72 85
109 109 85
109 109 85
72 72 85
72 72 85
109 109 85
109 109 85
72 72 85
72 72 85
72 72 85
72 72 85
72 72 85
72 72 85
72 72 85
72 72 85
72 72 85
72 72 85
72 72 85
72 72 85
72 72 85
72 72 85
72 72 85
72 72 85
72 72 85
72 72 85
72 72 85
72 72 85
72 72 85
72 72 85
72 72 85
72 72 85
72 72 85
72 72 85
72 72 85
72 72 85
72 72 85
72 72 85
72 72 85
72 72 85
72 72 85
72 72 85
72 72 85
72 72 85
72 72 85
72 72 85
72 72 85
72 72 85
72 72 85
72 72 85
72 72 85
72 72 85
72 72 85
72 72 85
72 72 85
72 72 85
72 72 85
72 72 85
72 72 85
72 72 85
72 72 85
72 72 85
72 72 85
72 72 85
72 72 85
72 72 85
72 72 85
72 72 85
72 72 85
72 72 85
72 72 85
72 72 85
72 72 85
72 72 85
72 72 85
72 72 85
72 72 85
72 72 85
72 72 85
72 72 85
72 72 85
72 72 85
72 72 85
72 72 85
72 72 85
72 72 85
72 72 85
72 72 85
72 72 85
72 72 85
72 72 85
72 72 85
72 72 85
72 72 85
72 72 85
72 72 85
72 72 85
72 72 85
72 72 85
72 72 85
72 72 85
72 72 85
72 72 85
72 72 85
72 72 85
72 72 85
72 72 85
72 72 85
72 72 85
72 72 85
72 72 85
72 72 85
72 72 85
72 72 85
72 72 85
72 72 85
72 72 85
72 72 85
72 72 85
72 72 85
72 72 85
72 72 85
72 72 85
72 72 85
72 72 85
72 72 85
72 72 85
72 72 85
72 72 85
72 72 85
72 72 85
72 72 85
72 72 85
72 72 85
72 72 85
72 72 85
72 72 85
72 72 85
72 72 85
72 72 85
72 72 85
72 72 85
72 72 85
72 72 85
72 72 85
72 72 85
72 72 85
72 72 85
72 72 85
72 72 85
72 72 85
72 72 85
72 72 85
72 72 85
72 72 85
72 72 85
72 72 85
72 72 85
72 72 85
72 72 85
72 72 85
72 72 85
72 72 85
72 72 85
72 72 85
72 72 85
72 72 85
72 72 85
72 72 85
72 72 85
72 72 85
72 72 85
72 72 85
72 72 85
72 72 85
72 72 85
72 72 85
72 72 85
72 72 85
72 72 85
72 72 85
72 72 85
72 72 85
72 72 85
72 72 85
72 72 85
72 72 85
72 72 85
72 72 85
72 72 85
72 72 85
72 72 85
72 72 85
72 72 85
72 72 85
72 72 85
72 72 85
72 72 85
72 72 85
72 72 85
72 72 85
72 72 85
72 72 85
72 72 85
72 72 85
72 72 85
72 72 85
72 72 85
72 72 85
72 72 85
72 72 85
72 72 85
72 72 85
36 36 0
36 36 0
36 36 0
36 36 0
36 36 0
36 36 0
36 36 0
36 36 0
36 36 0
36 36 0
36 36 0
36 36 0
36 36 0
36 36 0
36 36 0
36 36 0
36 36 0
36 36 0
36 36 0
36 36 0
36 36 0
36 36 0
36 36 0
36 36 0
36 36 0
36 36 0
36 36 0
36 36 0
36 36 0
36 36 0
36 36 0
72 72 85
109 109 85
109 109 85
109 109 85
109 109 85
109 109 85
109 109 85
109 109 85
109 109 85
109 109 85
109 109 85
109 109 85
109 109 85
109 109 85
109 109 85
109 109 85
109 109 85
109 109 85
109 109 85
109 109 85
109 109 85
109 109 85
109 109 85
109 109 85
109 109 85
109 109 85
109 109 85
109 109 85
109 109 85
109 109 85
109 109 85
109 109 85
109 109 85
109 109 85
109 109 85
109 109 85
109 109 85
109 109 85
109 109 85
109 109 85
109 109 85
109 109 85
109 109 85
109 109 85
109 109 85
109 109 85
109 109 85
109 109 85
109 109 85
109 109 85
109 109 85
109 109 85
109 109 85
109 109 85
109 109 85
109 109 85
109 109 85
109 109 85
109 109 85
109 109 85
109 109 85
109 109 85
109 109 85
109 109 85
109 109 85
109 109 85
109 109 85
109 109 85
109 109 85
109 109 85
109 109 85
109 109 85
109 109 85
109 109 85
109 109 85
109 109 85
109 109 85
109 109 85
109 109 85
109 109 85
109 109 85
109 109 85
109 109 85
109 109 85
109 109 85
109 109 85
109 109 85
109 109 85
109 109 85
109 109 85
109 109 85
109 109 85
109 109 85
109 109 85
109 109 85
109 109 85
109 109 85
109 109 85
109 109 85
109 109 85
109 109 85
109 109 85
109 109 85
109 109 85
109 109 85
109 109 85
109 109 85
109 109 85
109 109 85
109 109 85
109 109 85
109 109 85
109 109 85
109 109 85
109 109 85
109 109 85
109 109 85
109 109 85
109 109 85
109 109 85
109 109 85
109 109 85
109 109 85
109 109 85
109 109 85
109 109 85
109 109 85
109 109 85
109 109 85
109 109 85
109 109 85
109 109 85
109 109 85
109 109 85
109 109 85
109 109 85
109 109 85
109 109 85
109 109 85
109 109 85
109 109 85
109 109 85
109 109 85
109 109 85
109 109 85
109 109 85
109 109 85
109 109 85
109 109 85
109 109 85
109 109 85
109 109 85
109 109 85
109 109 85
109 109 85
109 109 85
109 109 85
109 109 85
109 109 85
109 109 85
109 109 85
109 109 85
109 109 85
72 72 85
109 109 85
72 72 85
72 109 85
109 109 85
109 109 85
0 0 0
0 0 0
0 0 0
0 0 0
0 0 0
0 0 0
0 0 0
0 0 0
0 0 0
0 0 0
0 0 0
0 0 0
0 0 0
0 0 0
0 0 0
0 0 0
0 0 0
0 0 0
0 0 0
0 0 0
0 0 0
0 0 0
0 0 0
0 0 0
0 0 0
0 0 0
0 0 0
0 0 0
0 0 0
0 0 0
0 0 0
109 109 85
255 255 255
255 255 255
255 255 255
255 255 255
255 255 255
255 255 255
255 255 255
255 255 255
255 255 255
255 255 255
255 255 255
255 255 255
255 255 255
255 255 255
255 255 255
255 255 255
255 255 255
255 255 255
255 255 255
255 255 255
255 255 255
255 255 255
255 255 255
255 255 255
255 255 255
255 255 255
255 255 255
255 255 255
255 255 255
255 255 255
255 255 255
255 255 255
255 255 255
255 255 255
255 255 255
255 255 255
255 255 255
255 255 255
255 255 255
255 255 255
255 255 255
255 255 255
218 218 255
182 182 170
182 182 170
182 182 170
182 182 170
182 182 170
182 182 170
182 182 170
182 182 170
182 182 170
182 182 170
182 182 170
182 182 170
182 182 170
182 182 170
182 182 170
182 182 170
182 182 170
182 182 170
182 182 170
182 182 170
182 182 170
182 182 170
182 182 170
182 182 170
182 182 170
182 182 170
182 182 170
182 182 170
182 182 170
182 182 170
182 182 170
182 182 170
182 182 170
182 182 170
182 182 170
182 182 170
182 182 170
182 182 170
182 182 170
182 182 170
182 182 170
182 182 170
182 182 170
182 182 170
182 182 170
182 182 170
182 182 170
182 182 170
182 182 170
182 182 170
182 182 170
182 182 170
182 182 170
182 182 170
182 182 170
182 182 170
182 182 170
182 182 170
182 182 170
182 182 170
182 182 170
182 182 170
182 182 170
182 182 170
182 182 170
182 182 170
182 182 170
182 182 170
182 182 170
182 182 170
182 182 170
182 182 170
182 182 170
182 182 170
182 182 170
182 182 170
182 182 170
182 182 170
182 182 170
182 182 170
182 182 170
182 182 170
182 182 170
182 182 170
182 182 170
182 182 170
182 182 170
182 182 170
182 182 170
182 182 170
182 182 170
182 182 170
182 182 170
182 182 170
182 182 170
182 182 170
182 182 170
182 182 170
182 182 170
182 182 170
182 182 170
182 182 170
182 182 170
182 182 170
182 182 170
182 182 170
182 182 170
182 182 170
182 182 170
182 182 170
182 182 170
182 182 170
182 182 170
182 182 170
182 182 170
182 182 170
182 182 170
182 182 170
182 182 170
182 182 170
182 182 170
182 182 170
182 182 170
182 182 170
182 182 170
0 0 0
0 0 0
0 0 0
0 0 0
0 0 0
0 0 0
0 0 0
0 0 0
0 0 0
0 0 0
0 0 0
0 0 0
0 0 0
0 0 0
0 0 0
0 0 0
0 0 0
0 0 0
0 0 0
0 0 0
0 0 0
0 0 0
0 0 0
0 0 0
0 0 0
0 0 0
0 0 0
0 0 0
0 0 0
0 0 0
0 0 0
72 72 85
182 182 170
182 182 170
182 182 170
182 182 170
182 182 170
182 182 170
182 182 170
182 182 170
182 182 170
182 182 170
182 182 170
182 182 170
182 182 170
182 182 170
182 182 170
182 182 170
182 182 170
182 182 170
182 182 170
182 182 170
182 182 170
182 182 170
182 182 170
182 182 170
182 182 170
182 182 170
182 182 170
182 182 170
182 182 170
182 182 170
182 182 170
182 182 170
182 182 170
182 182 170
182 182 170
182 182 170
182 182 170
182 182 170
182 182 170
182 182 170
182 182 170
218 218 255
218 218 255
218 218 255
218 218 255
218 218 255
255 255 255
218 218 255
218 218 255
255 255 255
218 218 255
255 255 255
255 255 255
218 218 255
218 218 255
218 218 255
255 255 255
255 255 255
255 255 255
255 255 255
255 255 255
255 255 255
255 255 255
255 255 255
255 255 255
255 255 255
255 255 255
255 255 255
255 255 255
255 255 255
255 255 255
255 255 255
255 255 255
255 255 255
255 255 255
255 255 255
255 255 255
255 255 255
255 255 255
255 255 255
255 255 255
255 255 255
255 255 255
255 255 255
255 255 255
255 255 255
255 255 255
255 255 255
255 255 255
255 255 255
255 255 255
255 255 255
255 255 255
255 255 255
255 255 255
255 255 255
255 255 255
255 255 255
255 255 255
255 255 255
255 255 255
255 255 255
255 255 255
255 255 255
255 255 255
255 255 255
255 255 255
255 255 255
255 255 255
255 255 255
255 255 255
255 255 255
255 255 255
255 255 255
255 255 255
255 255 255
255 255 255
255 255 255
255 255 255
255 255 255
255 255 255
255 255 255
255 255 255
255 255 255
255 255 255
255 255 255
255 255 255
255 255 255
255 255 255
255 255 255
255 255 255
255 255 255
255 255 255
255 255 255
255 255 255
255 255 255
255 255 255
255 255 255
255 255 255
255 255 255
255 255 255
255 255 255
255 255 255
255 255 255
255 255 255
255 255 255
255 255 255
255 255 255
255 255 255
255 255 255
255 255 255
255 255 255
255 255 255
255 255 255
255 255 255
255 255 255
255 255 255
255 255 255
255 255 255
255 255 255
255 255 255
255 255 255
255 255 255
255 255 255
255 255 255
255 255 255
255 255 255
218 218 255
0 0 0
0 0 0
0 0 0
0 0 0
0 0 0
0 0 0
0 0 0
0 0 0
0 0 0
0 0 0
0 0 0
0 0 0
0 0 0
0 0 0
0 0 0
0 0 0
0 0 0
0 0 0
0 0 0
0 0 0
0 0 0
0 0 0
0 0 0
0 0 0
0 0 0
0 0 0
0 0 0
0 0 0
0 0 0
0 0 0
0 0 0
36 36 0
72 72 85
72 72 85
72 72 85
72 72 85
72 72 85
72 72 85
72 72 85
72 72 85
72 72 85
72 72 85
72 72 85
72 72 85
72 72 85
72 72 85
72 72 85
72 72 85
72 72 85
72 72 85
72 72 85
72 72 85
72 72 85
72 72 85
72 72 85
72 72 85
72 72 85
72 72 85
72 72 85
72 72 85
72 72 85
72 72 85
72 72 85
72 72 85
72 72 85
72 72 85
72 72 85
72 72 85
72 72 85
72 72 85
72 72 85
72 72 85
72 72 85
182 182 170
218 218 255
218 218 255
182 182 170
145 145 170
255 255 255
218 218 255
145 182 170
182 182 170
145 145 170
218 218 255
255 255 255
182 182 170
145 145 170
182 182 170
255 255 255
255 255 255
255 255 255
255 255 255
255 255 255
255 255 255
255 255 255
255 255 255
255 255 255
255 255 255
255 255 255
255 255 255
255 255 255
255 255 255
255 255 255
255 255 255
255 255 255
255 255 255
255 255 255
255 255 255
255 255 255
255 255 255
255 255 255
255 255 255
255 255 255
255 255 255
255 255 255
255 255 255
255 255 255
255 255 255
255 255 255
255 255 255
255 255 255
255 255 255
255 255 255
255 255 255
255 255 255
255 255 255
255 255 255
255 255 255
255 255 255
255 255 255
255 255 255
255 255 255
255 255 255
255 255 255
255 255 255
255 255 255
255 255 255
255 255 255
255 255 255
255 255 255
255 255 255
255 255 255
255 255 255
255 255 255
255 255 255
255 255 255
255 255 255
255 255 255
255 255 255
255 255 255
255 255 255
255 255 255
255 255 255
255 255 255
255 255 255
255 255 255
255 255 255
255 255 255
255 255 255
255 255 255
255 255 255
255 255 255
255 255 255
255 255 255
255 255 255
255 255 255
255 255 255
255 255 255
255 255 255
255 255 255
255 255 255
255 255 255
255 255 255
255 255 255
255 255 255
255 255 255
255 255 255
255 255 255
255 255 255
255 255 255
255 255 255
255 255 255
255 255 255
255 255 255
255 255 255
255 255 255
255 255 255
255 255 255
255 255 255
255 255 255
255 255 255
255 255 255
255 255 255
255 255 255
255 255 255
255 255 255
255 255 255
255 255 255
255 255 255
218 218 255
0 0 0
0 0 0
0 0 0
0 0 0
0 0 0
0 0 0
0 0 0
0 0 0
0 0 0
0 0 0
0 0 0
0 0 0
0 0 0
0 0 0
0 0 0
0 0 0
0 0 0
0 0 0
0 0 0
0 0 0
0 0 0
0 0 0
0 0 0
0 0 0
0 0 0
0 0 0
0 0 0
0 0 0
0 0 0
0 0 0
0 0 0
36 36 0
109 109 85
109 109 85
109 109 85
109 109 85
109 109 85
109 109 85
109 109 85
109 109 85
109 109 85
109 109 85
109 109 85
109 109 85
109 109 85
109 109 85
109 109 85
109 109 85
109 109 85
109 109 85
109 109 85
109 109 85
109 109 85
109 109 85
109 109 85
109 109 85
109 109 85
109 109 85
109 109 85
109 109 85
109 109 85
109 109 85
109 109 85
109 109 85
109 109 85
109 109 85
109 109 85
109 109 85
109 109 85
109 109 85
109 109 85
109 109 85
109 109 85
218 218 255
255 218 255
218 218 255
218 218 255
218 218 255
255 255 255
218 218 255
182 182 170
218 218 255
218 218 255
218 218 255
255 255 255
182 182 170
182 182 170
182 182 170
255 255 255
255 255 255
255 255 255
255 255 255
255 255 255
255 255 255
255 255 255
255 255 255
255 255 255
255 255 255
255 255 255
255 255 255
255 255 255
255 255 255
255 255 255
255 255 255
255 255 255
255 255 255
255 255 255
255 255 255
255 255 255
255 255 255
255 255 255
255 255 255
255 255 255
255 255 255
255 255 255
255 255 255
255 255 255
255 255 255
255 255 255
255 255 255
255 255 255
255 255 255
255 255 255
255 255 255
255 255 255
255 255 255
255 255 255
255 255 255
255 255 255
255 255 255
255 255 255
255 255 255
255 255 255
255 255 255
255 255 255
255 255 255
255 255 255
255 255 255
255 255 255
255 255 255
255 255 255
255 255 255
255 255 255
255 255 255
255 255 255
255 255 255
255 255 255
255 255 255
255 255 255
255 255 255
255 255 255
255 255 255
255 255 255
255 255 255
255 255 255
255 255 255
255 255 255
255 255 255
255 255 255
255 255 255
255 255 255
255 255 255
255 255 255
255 255 255
255 255 255
255 255 255
255 255 255
255 255 255
255 255 255
255 255 255
255 255 255
255 255 255
255 255 255
255 255 255
255 255 255
255 255 255
255 255 255
255 255 255
255 255 255
255 255 255
255 255 255
255 255 255
255 255 255
255 255 255
255 255 255
255 255 255
255 255 255
255 255 255
255 255 255
255 255 255
255 255 255
255 255 255
255 255 255
255 255 255
255 255 255
255 255 255
255 255 255
255 255 255
255 255 255
218 218 255
0 0 0
0 0 0
0 0 0
0 0 0
0 0 0
0 0 0
0 0 0
0 0 0
0 0 0
0 0 0
0 0 0
0 0 0
0 0 0
0 0 0
0 0 0
0 0 0
0 0 0
0 0 0
0 0 0
0 0 0
0 0 0
0 0 0
0 0 0
0 0 0
0 0 0
0 0 0
0 0 0
0 0 0
0 0 0
0 0 0
0 0 0
36 36 0
109 109 85
218 218 255
218 218 255
109 109 85
72 109 85
72 109 85
182 182 170
218 218 255
109 109 85
72 109 85
72 109 85
145 145 170
255 255 255
145 145 170
72 109 85
109 109 85
109 109 85
218 218 255
145 145 170
72 109 85
109 109 85
109 109 85
109 109 85
109 109 85
109 109 85
109 109 85
109 109 85
109 109 85
109 109 85
109 109 85
109 109 85
109 109 85
109 109 85
109 109 85
109 109 85
109 109 85
72 109 85
182 182 170
145 145 170
109 109 85
109 109 85
218 218 255
255 218 255
255 255 255
255 255 255
255 255 255
255 255 255
255 255 255
255 255 255
255 255 255
255 255 255
255 255 255
255 255 255
255 255 255
255 255 255
255 255 255
255 255 255
255 255 255
255 255 255
255 255 255
255 255 255
255 255 255
255 255 255
255 255 255
255 255 255
255 255 255
255 255 255
255 255 255
255 255 255
255 255 255
255 255 255
255 255 255
255 255 255
255 255 255
255 255 255
255 255 255
255 255 255
255 255 255
255 255 255
255 255 255
255 255 255
255 255 255
255 255 255
255 255 255
255 255 255
255 255 255
255 255 255
255 255 255
255 255 255
255 255 255
255 255 255
255 255 255
255 255 255
255 255 255
255 255 255
255 255 255
255 255 255
255 255 255
255 255 255
255 255 255
255 255 255
255 255 255
255 255 255
255 255 255
255 255 255
255 255 255
255 255 255
255 255 255
255 255 255
255 255 255
255 255 255
255 255 255
255 255 255
255 255 255
255 255 255
255 255 255
255 255 255
255 255 255
255 255 255
255 255 255
255 255 255
255 255 255
255 255 255
255 255 255
255 255 255
255 255 255
255 255 255
255 255 255
255 255 255
255 255 255
255 255 255
255 255 255
255 255 255
255 255 255
255 255 255
255 255 255
255 255 255
255 255 255
255 255 255
255 255 255
255 255 255
255 255 255
255 255 255
255 255 255
255 255 255
255 255 255
255 255 255
255 255 255
255 255 255
255 255 255
255 255 255
255 255 255
255 255 255
255 255 255
255 255 255
255 255 255
255 255 255
255 255 255
255 255 255
255 255 255
255 255 255
255 255 255
255 255 255
255 255 255
255 255 255
255 255 255
255 255 255
218 218 255
0 0 0
0 0 0
0 0 0
0 0 0
0 0 0
0 0 0
0 0 0
0 0 0
0 0 0
0 0 0
0 0 0
0 0 0
0 0 0
0 0 0
0 0 0
0 0 0
0 0 0
0 0 0
0 0 0
0 0 0
0 0 0
0 0 0
0 0 0
0 0 0
0 0 0
0 0 0
0 0 0
0 0 0
0 0 0
0 0 0
0 0 0
36 36 0
145 145 170
218 218 255
218 218 255
145 145 170
72 109 85
109 109 85
218 218 255
218 218 255
145 145 170
72 109 85
72 109 85
182 182 170
218 218 255
145 145 170
72 109 85
109 109 85
109 109 85
218 218 255
145 145 170
72 109 85
109 109 85
109 109 85
218 218 255
182 182 170
109 109 85
109 109 85
109 109 85
145 145 170
182 182 170
109 109 85
109 109 85
109 109 85
145 145 170
109 109 85
109 109 85
109 109 85
72 109 85
182 182 170
182 182 170
109 109 85
109 109 85
218 218 255
255 218 255
255 255 255
255 255 255
255 218 255
255 218 255
255 218 255
255 218 255
255 218 255
255 218 255
255 218 255
255 218 255
255 255 255
255 255 255
255 255 255
255 255 255
255 255 255
255 255 255
255 255 255
255 255 255
255 255 255
255 255 255
255 255 255
255 255 255
255 255 255
255 255 255
255 255 255
255 255 255
255 255 255
255 255 255
255 255 255
255 255 255
255 255 255
255 255 255
255 255 255
255 255 255
255 255 255
255 255 255
255 255 255
255 255 255
255 255 255
255 255 255
255 255 255
255 255 255
255 255 255
255 255 255
255 255 255
255 255 255
255 255 255
255 255 255
255 255 255
255 255 255
255 255 255
255 255 255
255 255 255
255 255 255
255 255 255
255 255 255
255 255 255
255 255 255
255 255 255
255 255 255
255 255 255
255 255 255
255 255 255
255 255 255
255 255 255
255 255 255
255 255 255
255 255 255
255 255 255
255 255 255
255 255 255
255 255 255
255 255 255
255 255 255
255 255 255
255 255 255
255 255 255
255 255 255
255 255 255
255 255 255
255 255 255
255 255 255
255 255 255
255 255 255
255 255 255
255 255 255
255 255 255
255 255 255
255 255 255
255 255 255
255 255 255
255 255 255
255 255 255
255 255 255
255 255 255
255 255 255
255 255 255
255 255 255
255 255 255
255 255 255
255 255 255
255 255 255
255 255 255
255 255 255
255 255 255
255 255 255
255 255 255
255 255 255
255 255 255
255 255 255
255 255 255
255 255 255
255 255 255
255 255 255
255 255 255
255 255 255
255 255 255
255 255 255
255 255 255
255 255 255
255 255 255
255 255 255
255 255 255
255 255 255
255 255 255
0 0 0
0 0 0
0 0 0
0 0 0
0 0 0
0 0 0
0 0 0
0 0 0
0 0 0
0 0 0
0 0 0
0 0 0
0 0 0
0 0 0
0 0 0
0 0 0
0 0 0
0 0 0
0 0 0
0 0 0
0 0 0
0 0 0
0 0 0
0 0 0
0 0 0
0 0 0
0 0 0
0 0 0
0 0 0
0 0 0
0 0 0
36 36 0
145 145 170
218 218 255
218 218 255
145 145 170
72 109 85
109 109 85
218 218 255
218 218 255
145 145 170
72 109 85
72 109 85
182 182 170
218 218 255
145 145 170
72 109 85
109 109 85
109 109 85
218 218 255
145 145 170
72 109 85
109 109 85
109 109 85
182 182 170
145 145 170
109 109 85
109 109 85
109 109 85
145 145 170
182 182 170
109 109 85
109 109 85
109 109 85
109 145 85
145 145 170
109 109 85
109 109 85
109 109 85
109 109 85
109 109 85
109 109 85
72 109 85
218 218 255
255 218 255
255 255 255
218 218 255
218 218 255
255 218 255
255 218 255
255 218 255
255 218 255
255 218 255
218 218 255
218 218 255
255 255 255
255 255 255
255 255 255
255 255 255
255 255 255
255 255 255
255 255 255
255 255 255
255 255 255
255 255 255
255 255 255
255 255 255
255 255 255
255 255 255
255 255 255
255 255 255
255 255 255
255 255 255
255 255 255
255 255 255
255 255 255
255 255 255
255 255 255
255 255 255
255 255 255
255 255 255
255 255 255
255 255 255
255 255 255
255 255 255
255 255 255
255 255 255
255 255 255
255 255 255
255 255 255
255 255 255
255 255 255
255 255 255
255 255 255
255 255 255
255 255 255
255 255 255
255 255 255
255 255 255
255 255 255
255 255 255
255 255 255
255 255 255
255 255 255
255 255 255
255 255 255
255 255 255
255 255 255
255 255 255
255 255 255
255 255 255
255 255 255
255 255 255
255 255 255
255 255 255
255 255 255
255 255 255
255 255 255
255 255 255
255 255 255
255 255 255
255 255 255
255 255 255
255 255 255
255 255 255
255 255 255
255 255 255
255 255 255
255 255 255
255 255 255
255 255 255
255 255 255
255 255 255
255 255 255
255 255 255
255 255 255
255 255 255
255 255 255
255 255 255
255 255 255
255 255 255
255 255 255
255 255 255
255 255 255
255 255 255
255 255 255
255 255 255
255 255 255
255 255 255
255 255 255
255 255 255
255 255 255
255 255 255
255 255 255
255 255 255
255 255 255
255 255 255
255 255 255
255 255 255
255 255 255
255 255 255
255 255 255
255 255 255
255 255 255
255 255 255
255 255 255
255 255 255
255 255 255
255 255 255
255 255 255
0 0 0
0 0 0
0 0 0
0 0 0
0 0 0
0 0 0
0 0 0
0 0 0
0 0 0
0 0 0
0 0 0
0 0 0
0 0 0
0 0 0
0 0 0
0 0 0
0 0 0
0 0 0
0 0 0
0 0 0
0 0 0
0 0 0
0 0 0
0 0 0
0 0 0
0 0 0
0 0 0
0 0 0
0 0 0
0 0 0
0 0 0
36 36 0
109 109 85
218 218 255
218 218 255
109 109 85
72 109 85
109 109 85
182 182 170
218 218 255
109 109 85
72 109 85
72 109 85
145 145 170
218 218 255
145 145 170
72 109 85
109 109 85
109 109 85
182 182 170
109 109 85
109 109 85
109 109 85
109 109 85
109 109 85
109 109 85
109 109 85
109 109 85
109 109 85
109 109 85
109 109 85
109 109 85
109 109 85
109 109 85
109 109 85
145 145 170
109 109 85
109 109 85
109 109 85
109 109 85
109 109 85
109 109 85
72 109 85
218 218 255
255 218 255
255 255 255
218 218 255
182 182 170
218 218 255
218 218 255
218 218 255
218 218 255
218 218 255
218 218 255
255 218 255
218 218 255
182 182 170
218 218 255
218 218 255
255 255 255
255 255 255
218 218 255
255 255 255
255 255 255
255 255 255
255 255 255
255 255 255
255 255 255
255 255 170
255 255 170
218 218 255
218 218 255
255 255 255
255 255 255
255 255 255
255 255 255
218 218 255
182 218 255
255 255 255
255 255 255
255 255 255
218 255 255
218 218 255
255 255 255
255 255 255
255 255 255
255 255 255
255 255 255
255 255 255
255 255 255
255 255 255
255 255 255
255 255 255
255 255 255
255 255 255
255 255 255
255 255 255
255 255 255
255 255 255
255 255 255
255 255 255
255 255 255
255 255 255
255 255 255
255 255 255
255 255 255
255 255 255
255 255 255
255 255 255
255 255 255
255 255 255
255 255 255
255 255 255
255 255 255
255 255 255
255 255 255
255 255 255
255 255 255
255 255 255
255 255 255
255 255 255
255 255 255
255 255 255
255 255 255
255 255 255
255 255 255
255 255 255
255 255 255
255 255 255
255 255 255
255 255 255
255 255 255
255 255 255
255 255 255
255 255 255
255 255 255
255 255 255
255 255 255
255 255 255
255 255 255
255 255 255
255 255 255
255 255 255
255 255 255
255 255 255
255 255 255
255 255 255
255 255 255
255 255 255
255 255 255
255 255 255
255 255 255
255 255 255
255 255 255
255 255 255
255 255 255
255 255 255
255 255 255
255 255 255
255 255 255
255 255 255
255 255 255
255 255 255
255 255 255
255 255 255
255 255 255
255 255 255
255 255 255
255 255 255
255 255 255
0 0 0
0 0 0
0 0 0
0 0 0
0 0 0
0 0 0
0 0 0
0 0 0
0 0 0
0 0 0
0 0 0
0 0 0
0 0 0
0 0 0
0 0 0
0 0 0
0 0 0
0 0 0
0 0 0
0 0 0
0 0 0
0 0 0
0 0 0
0 0 0
0 0 0
0 0 0
0 0 0
0 0 0
0 0 0
0 0 0
0 0 0
36 36 0
109 109 85
109 109 85
109 109 85
109 109 85
109 109 85
109 109 85
109 109 85
109 109 85
109 109 85
109 109 85
109 109 85
109 109 85
109 109 85
109 109 85
109 109 85
109 109 85
109 109 85
109 109 85
109 109 85
109 109 85
109 109 85
109 109 85
109 109 85
109 109 85
109 109 85
109 109 85
109 109 85
109 109 85
109 109 85
109 109 85
109 109 85
109 109 85
109 109 85
109 109 85
109 109 85
109 109 85
109 109 85
109 109 85
109 109 85
109 109 85
109 109 85
218 218 255
255 218 255
255 255 255
218 218 255
255 255 255
182 182 170
145 145 170
145 145 170
145 145 170
182 182 170
218 218 255
218 218 255
218 218 255
218 218 255
182 182 170
145 145 170
182 182 170
182 182 170
182 182 170
182 182 170
182 182 170
182 182 170
218 218 255
255 255 255
255 255 255
255 255 170
218 218 170
182 182 170
182 182 170
182 182 170
218 218 255
255 255 255
255 255 255
218 218 255
182 218 255
255 255 255
255 255 255
255 255 255
218 218 255
218 218 255
255 255 255
255 255 255
255 255 255
255 255 255
255 255 255
255 255 255
255 255 255
255 255 255
255 255 255
255 255 255
255 255 255
255 255 255
255 255 255
255 255 255
255 255 255
255 255 255
255 255 255
255 255 255
255 255 255
255 255 255
255 255 255
255 255 255
255 255 255
255 255 255
255 255 255
255 255 255
255 255 255
255 255 255
255 255 255
255 255 255
255 255 255
255 255 255
255 255 255
255 255 255
255 255 255
255 255 255
255 255 255
255 255 255
255 255 255
255 255 255
255 255 255
255 255 255
255 255 255
255 255 255
255 255 255
255 255 255
255 255 255
255 255 255
255 255 255
255 255 255
255 255 255
255 255 255
255 255 255
255 255 255
255 255 255
255 255 255
255 255 255
255 255 255
255 255 255
255 255 255
255 255 255
255 255 255
255 255 255
255 255 255
255 255 255
255 255 255
255 255 255
255 255 255
255 255 255
255 255 255
255 255 255
255 255 255
255 255 255
255 255 255
255 255 255
255 255 255
255 255 255
255 255 255
255 255 255
255 255 255
255 255 255
255 255 255
255 255 255
255 255 255
255 255 255
255 255 255
255 255 255
0 0 0
0 0 0
0 0 0
0 0 0
0 0 0
0 0 0
0 0 0
0 0 0
0 0 0
0 0 0
0 0 0
0 0 0
0 0 0
0 0 0
0 0 0
0 0 0
0 0 0
0 0 0
0 0 0
0 0 0
0 0 0
0 0 0
0 0 0
0 0 0
0 0 0
0 0 0
0 0 0
0 0 0
0 0 0
0 0 0
0 0 0
36 36 0
109 109 85
72 109 85
109 109 85
109 109 85
109 109 85
109 109 85
109 109 85
72 109 85
109 109 85
109 109 85
109 109 85
109 109 85
72 109 85
109 109 85
109 109 85
109 109 85
109 109 85
109 109 85
109 109 85
109 109 85
109 109 85
109 109 85
109 109 85
109 109 85
109 109 85
109 109 85
109 109 85
109 109 85
109 109 85
109 109 85
109 109 85
109 109 85
109 109 85
109 109 85
109 109 85
109 109 85
109 109 85
109 109 85
109 109 85
109 109 85
109 109 85
218 218 255
255 218 255
255 255 255
218 218 255
182 182 170
218 218 255
218 218 255
218 218 255
218 218 255
218 218 255
218 218 255
218 218 255
255 255 255
255 255 255
255 255 255
255 255 255
255 255 255
255 255 255
255 255 255
255 255 255
255 255 255
255 255 255
255 255 255
255 255 255
255 255 255
255 255 255
218 218 255
255 255 255
255 255 255
255 255 255
255 255 255
255 255 255
255 255 255
255 255 255
255 255 255
255 255 255
255 255 255
255 255 255
255 255 255
255 255 255
255 255 255
255 255 255
255 255 255
255 255 255
255 255 255
255 255 255
255 255 255
255 255 255
255 255 255
255 255 255
255 255 255
255 255 255
255 255 255
255 255 255
255 255 255
255 255 255
255 255 255
255 255 255
255 255 255
255 255 255
255 255 255
255 255 255
255 255 255
255 255 255
255 255 255
255 255 255
255 255 255
255 255 255
255 255 255
255 255 255
255 255 255
255 255 255
255 255 255
255 255 255
255 255 255
255 255 255
255 255 255
255 255 255
255 255 255
255 255 255
255 255 255
255 255 255
255 255 255
255 255 255
255 255 255
255 255 255
255 255 255
255 255 255
255 255 255
255 255 255
255 255 255
255 255 255
255 255 255
255 255 255
255 255 255
255 255 255
255 255 255
255 255 255
255 255 255
255 255 255
255 255 255
255 255 255
255 255 255
255 255 255
255 255 255
255 255 255
255 255 255
255 255 255
255 255 255
255 255 255
255 255 255
255 255 255
255 255 255
255 255 255
255 255 255
255 255 255
255 255 255
255 255 255
255 255 255
255 255 255
255 255 255
255 255 255
255 255 255
255 255 255
255 255 255
255 255 255
255 255 255
0 0 0
0 0 0
0 0 0
0 0 0
0 0 0
0 0 0
0 0 0
0 0 0
0 0 0
0 0 0
0 0 0
0 0 0
0 0 0
0 0 0
0 0 0
0 0 0
0 0 0
0 0 0
0 0 0
0 0 0
0 0 0
0 0 0
0 0 0
0 0 0
0 0 0
0 0 0
0 0 0
0 0 0
0 0 0
0 0 0
0 0 0
36 36 0
109 109 85
109 109 85
109 109 85
109 109 85
109 109 85
109 109 85
109 109 85
109 109 85
109 109 85
109 109 85
109 109 85
109 109 85
109 109 85
109 109 85
109 109 85
109 109 85
109 109 85
109 109 85
109 109 85
109 109 85
109 109 85
109 109 85
109 109 85
109 109 85
109 109 85
109 109 85
109 109 85
109 109 85
109 109 85
109 109 85
109 109 85
109 109 85
109 109 85
109 109 85
109 109 85
109 109 85
109 109 85
109 109 85
109 109 85
109 109 85
109 109 85
218 218 255
255 218 255
255 255 255
255 218 255
218 218 255
218 218 255
218 218 255
218 218 255
218 218 255
218 218 255
218 218 255
218 218 255
255 255 255
255 255 255
255 255 255
255 255 255
255 255 255
255 255 255
255 255 255
255 255 255
255 255 255
255 255 255
255 255 255
255 255 255
255 255 255
255 255 255
255 255 255
255 255 255
255 255 255
255 255 255
255 255 255
255 255 255
255 255 255
255 255 255
255 255 255
255 255 255
255 255 255
255 255 255
255 255 255
255 255 255
255 255 255
255 255 255
255 255 255
255 255 255
255 255 255
255 255 255
255 255 255
255 255 255
255 255 255
255 255 255
255 255 255
255 255 255
255 255 255
255 255 255
255 255 255
255 255 255
255 255 255
255 255 255
255 255 255
255 255 255
255 255 255
255 255 255
255 255 255
255 255 255
255 255 255
255 255 255
255 255 255
255 255 255
255 255 255
255 255 255
255 255 255
255 255 255
255 255 255
255 255 255
255 255 255
255 255 255
255 255 255
255 255 255
255 255 255
255 255 255
255 255 255
255 255 255
255 255 255
255 255 255
255 255 255
255 255 255
255 255 255
255 255 255
255 255 255
255 255 255
255 255 255
255 255 255
255 255 255
255 255 255
255 255 255
255 255 255
255 255 255
255 255 255
255 255 255
255 255 255
255 255 255
255 255 255
255 255 255
255 255 255
255 255 255
255 255 255
255 255 255
255 255 255
255 255 255
255 255 255
255 255 255
255 255 255
255 255 255
255 255 255
255 255 255
255 255 255
255 255 255
255 255 255
255 255 255
255 255 255
255 255 255
255 255 255
255 255 255
255 255 255
255 255 255
255 255 255
255 255 255
0 0 0
0 0 0
0 0 0
0 0 0
0 0 0
0 0 0
0 0 0
0 0 0
0 0 0
0 0 0
0 0 0
0 0 0
0 0 0
0 0 0
0 0 0
0 0 0
0 0 0
0 0 0
0 0 0
0 0 0
0 0 0
0 0 0
0 0 0
0 0 0
0 0 0
0 0 0
0 0 0
0 0 0
0 0 0
0 0 0
0 0 0
36 36 0
109 109 85
109 109 85
109 109 85
109 109 85
109 109 85
109 109 85
109 109 85
109 109 85
109 109 85
109 109 85
109 109 85
109 109 85
109 109 85
109 109 85
109 109 85
109 109 85
109 109 85
109 109 85
109 109 85
109 109 85
109 109 85
109 109 85
109 109 85
109 109 85
109 109 85
109 109 85
109 109 85
109 109 85
109 109 85
109 109 85
109 109 85
109 109 85
109 109 85
109 109 85
109 109 85
109 109 85
109 109 85
109 109 85
109 109 85
109 109 85
109 109 85
218 218 255
218 218 255
218 218 255
218 218 255
218 218 255
218 218 255
218 218 255
218 218 255
218 218 255
218 218 255
218 218 255
218 218 255
218 218 255
218 218 255
218 218 255
218 218 255
218 218 255
218 218 255
218 218 255
218 218 255
218 218 255
218 218 255
218 218 255
218 218 255
218 218 255
218 218 255
218 218 255
218 218 255
218 218 255
218 218 255
218 218 255
218 218 255
218 218 255
218 218 255
218 218 255
218 218 255
218 218 255
218 218 255
218 218 255
218 218 255
218 218 255
218 218 255
218 218 255
218 218 255
218 218 255
218 218 255
218 218 255
218 218 255
218 218 255
218 218 255
218 218 255
218 218 255
218 218 255
218 218 255
218 218 255
218 218 255
218 218 255
218 218 255
218 218 255
218 218 255
218 218 255
218 218 255
218 218 255
218 218 255
218 218 255
218 218 255
218 218 255
218 218 255
218 218 255
218 218 255
218 218 255
218 218 255
218 218 255
218 218 255
255 255 255
255 255 255
255 255 255
255 255 255
255 255 255
255 255 255
255 255 255
255 255 255
255 255 255
255 255 255
255 255 255
255 255 255
255 255 255
255 255 255
255 255 255
255 255 255
255 255 255
255 255 255
255 255 255
255 255 255
255 255 255
255 255 255
255 255 255
255 255 255
255 255 255
255 255 255
255 255 255
255 255 255
255 255 255
255 255 255
255 255 255
255 255 255
255 255 255
255 255 255
255 255 255
255 255 255
255 255 255
255 255 255
255 255 255
255 255 255
255 255 255
255 255 255
255 255 255
255 255 255
255 255 255
255 255 255
255 255 255
255 255 255
255 255 255
255 255 255
255 255 255
255 255 255
218 218 255
0 0 0
0 0 0
0 0 0
0 0 0
0 0 0
0 0 0
0 0 0
0 0 0
0 0 0
0 0 0
0 0 0
0 0 0
0 0 0
0 0 0
0 0 0
0 0 0
0 0 0
0 0 0
0 0 0
0 0 0
0 0 0
0 0 0
0 0 0
0 0 0
0 0 0
0 0 0
0 0 0
0 0 0
0 0 0
0 0 0
0 0 0
36 36 0
109 109 85
109 109 85
109 109 85
109 109 85
109 109 85
109 109 85
109 109 85
109 109 85
109 109 85
109 109 85
109 109 85
109 109 85
109 109 85
109 109 85
109 109 85
109 109 85
109 109 85
109 109 85
109 109 85
109 109 85
109 109 85
109 109 85
109 109 85
109 109 85
109 109 85
109 109 85
109 109 85
109 109 85
109 109 85
109 109 85
109 109 85
109 109 85
109 109 85
109 109 85
109 109 85
109 109 85
109 109 85
109 109 85
109 109 85
109 109 85
109 109 85
218 218 255
218 218 255
145 145 170
145 145 170
182 182 170
182 182 170
182 182 170
182 182 170
218 182 255
182 182 170
182 182 170
182 182 170
182 182 170
182 182 170
182 182 170
182 182 170
182 182 170
182 182 170
182 182 170
182 182 170
182 182 170
182 182 170
182 182 170
182 182 170
182 182 170
182 182 170
182 182 170
182 182 170
182 182 170
182 182 170
182 182 170
182 182 170
182 182 170
182 182 170
182 182 170
182 182 170
182 182 170
182 182 170
182 182 170
182 182 170
182 182 170
182 182 170
182 182 170
182 182 170
182 182 170
182 182 170
182 182 170
182 182 170
182 182 170
182 182 170
182 182 170
182 182 170
182 182 170
182 182 170
182 182 170
182 182 170
182 182 170
182 182 170
182 182 170
182 182 170
182 182 170
182 182 170
182 182 170
182 182 170
182 182 170
182 182 170
182 182 170
182 182 170
182 182 170
182 182 170
182 182 170
182 182 170
218 182 170
218 218 255
255 255 255
255 255 255
255 255 255
255 255 255
255 255 255
255 255 255
255 255 255
255 255 255
255 255 255
255 255 255
255 255 255
255 255 255
255 255 255
255 255 255
255 255 255
255 255 255
255 255 255
255 255 255
255 255 255
255 255 255
255 255 255
255 255 255
255 255 255
255 255 255
255 255 255
255 255 255
255 255 255
255 255 255
255 255 255
255 255 255
255 255 255
255 255 255
255 255 255
255 255 255
255 255 255
255 255 255
255 255 255
255 255 255
255 255 255
255 255 255
255 255 255
255 255 255
255 255 255
255 255 255
255 255 255
255 255 255
255 255 255
255 255 255
255 255 255
255 255 255
255 255 255
255 255 255
218 218 255
0 0 0
0 0 0
0 0 0
0 0 0
0 0 0
0 0 0
0 0 0
0 0 0
0 0 0
0 0 0
0 0 0
0 0 0
0 0 0
0 0 0
0 0 0
0 0 0
0 0 0
0 0 0
0 0 0
0 0 0
0 0 0
0 0 0
0 0 0
0 0 0
0 0 0
0 0 0
0 0 0
0 0 0
0 0 0
0 0 0
0 0 0
36 36 0
109 109 85
109 145 85
109 109 85
109 109 85
109 109 85
109 109 85
109 109 85
145 145 170
109 109 85
109 109 85
109 109 85
109 109 85
145 145 170
109 109 85
109 109 85
109 109 85
109 109 85
109 109 85
109 109 85
109 109 85
109 109 85
145 145 170
218 218 255
218 218 255
145 145 170
109 109 85
109 109 85
145 145 170
109 109 85
109 109 85
109 109 85
109 109 85
145 145 170
145 145 170
109 109 85
109 109 85
109 109 85
145 145 170
182 182 170
109 109 85
109 109 85
218 218 255
218 218 255
145 145 85
145 182 170
145 145 170
145 145 170
145 145 170
145 145 170
145 145 170
145 145 170
182 182 170
182 182 170
182 182 170
182 182 170
182 182 170
182 182 170
182 182 170
182 182 170
182 182 170
182 182 170
182 182 170
182 182 170
182 182 170
182 182 170
182 182 170
182 182 170
182 182 170
182 182 170
182 182 170
182 182 170
182 182 170
182 182 170
182 182 170
182 182 170
182 182 170
182 182 170
182 182 170
182 182 170
182 182 170
182 182 170
182 182 170
182 182 170
182 182 170
182 182 170
182 182 170
182 182 170
182 182 170
182 182 170
182 182 170
182 182 170
182 182 170
182 182 170
182 182 170
182 182 170
182 182 170
182 182 170
182 182 170
182 182 170
182 182 170
182 182 170
182 182 170
182 182 170
182 182 170
182 182 170
182 182 170
182 182 170
182 182 170
182 182 170
182 182 170
182 182 170
182 182 170
182 182 255
218 145 170
218 182 170
255 255 255
255 255 255
255 255 255
145 145 170
145 145 170
145 145 170
145 145 170
145 145 170
145 145 170
145 145 170
145 145 170
145 145 170
145 145 170
145 145 170
145 145 170
145 145 170
145 145 170
145 145 170
145 145 170
145 145 170
145 145 170
145 145 170
145 145 170
145 145 170
145 145 170
145 145 170
145 145 170
145 145 170
145 145 170
145 145 170
145 145 170
145 145 170
145 145 170
145 145 170
145 145 170
145 145 170
145 145 170
145 145 170
145 145 170
145 145 170
145 145 170
145 145 170
145 145 170
145 145 170
145 145 170
145 145 170
145 145 170
145 145 170
145 145 170
145 145 170
218 218 255
255 255 255
218 218 255
0 0 0
0 0 0
0 0 0
0 0 0
0 0 0
0 0 0
0 0 0
0 0 0
0 0 0
0 0 0
0 0 0
0 0 0
0 0 0
0 0 0
0 0 0
0 0 0
0 0 0
0 0 0
0 0 0
0 0 0
0 0 0
0 0 0
0 0 0
0 0 0
0 0 0
0 0 0
0 0 0
0 0 0
0 0 0
0 0 0
0 0 0
36 36 0
109 109 85
182 182 170
182 182 170
109 109 85
109 109 85
109 109 85
145 145 170
182 182 170
109 109 85
109 109 85
109 109 85
145 145 170
145 145 170
145 145 170
109 109 85
109 109 85
109 109 85
109 109 85
109 109 85
109 109 85
109 109 85
145 145 170
255 255 255
255 255 255
145 145 170
109 109 85
145 145 170
218 218 255
182 182 170
145 145 170
109 109 85
109 109 85
182 182 170
218 218 255
145 145 170
109 109 85
109 109 85
145 145 170
218 218 255
182 182 170
109 109 85
218 218 255
218 218 255
145 145 85
109 145 170
182 145 170
145 145 170
109 109 85
145 145 170
109 109 85
145 145 170
182 182 170
182 182 170
182 182 170
182 182 170
182 182 170
182 182 170
182 182 170
182 182 170
182 182 170
182 182 170
182 182 170
182 182 170
182 182 170
182 182 170
182 182 170
182 182 170
182 182 170
182 182 170
182 182 170
182 182 170
182 182 170
182 182 170
182 182 170
182 182 170
182 182 170
182 182 170
182 182 170
182 182 170
182 182 170
182 182 170
182 182 170
182 182 170
182 182 170
182 182 170
182 182 170
182 182 170
182 182 170
182 182 170
182 182 170
182 182 170
182 182 170
182 182 170
182 182 170
182 182 170
182 182 170
182 182 170
182 182 170
182 182 170
182 182 170
182 182 170
182 182 170
182 182 170
182 182 170
182 182 170
182 182 170
182 182 170
182 182 170
182 182 170
182 182 170
182 182 170
182 182 170
182 182 255
218 182 170
218 182 170
255 255 255
255 255 255
255 255 255
72 72 85
36 36 0
36 36 0
36 36 0
36 36 0
36 36 0
36 36 0
36 36 0
36 36 0
36 36 0
36 36 0
36 36 0
36 36 0
36 36 0
36 36 0
36 36 0
36 36 0
36 36 0
36 36 0
36 36 0
36 36 0
36 36 0
36 36 0
36 36 0
36 36 0
36 36 0
36 36 0
36 36 0
36 36 0
36 36 0
36 36 0
36 36 0
36 36 0
36 36 0
36 36 0
36 36 0
36 36 0
36 36 0
36 36 0
36 36 0
36 36 0
36 36 0
36 36 0
36 36 0
36 36 0
36 36 0
36 36 0
182 182 170
255 255 255
218 218 255
0 0 0
0 0 0
0 0 0
0 0 0
0 0 0
0 0 0
0 0 0
0 0 0
0 0 0
0 0 0
0 0 0
0 0 0
0 0 0
0 0 0
0 0 0
0 0 0
0 0 0
0 0 0
0 0 0
0 0 0
0 0 0
0 0 0
0 0 0
0 0 0
0 0 0
0 0 0
0 0 0
0 0 0
0 0 0
0 0 0
0 0 0
36 36 0
109 109 85
145 145 170
182 182 170
109 109 85
109 109 85
109 109 85
182 182 170
182 182 170
145 145 170
109 109 85
109 109 85
145 145 170
109 109 85
145 145 170
109 109 85
109 109 85
72 109 170
72 109 170
109 109 170
109 109 85
109 109 85
145 145 170
255 255 255
255 255 255
145 145 170
109 109 85
145 145 170
218 218 255
182 182 170
182 182 170
109 109 85
109 109 85
182 182 170
255 255 255
145 145 170
109 109 85
109 109 85
145 145 170
218 218 255
182 182 170
109 109 85
218 218 255
218 218 255
182 182 170
145 145 170
218 218 255
218 218 255
182 182 170
218 218 255
182 182 170
182 182 255
218 182 255
218 182 255
218 182 255
218 182 255
218 182 255
218 182 255
218 182 255
218 182 255
218 182 255
218 182 255
218 182 255
218 182 255
218 182 255
218 182 255
218 182 255
218 182 255
218 182 255
218 182 255
218 182 255
218 182 255
218 182 255
218 182 255
218 182 255
218 182 255
218 182 255
218 182 255
218 182 255
218 182 255
218 182 255
218 182 255
218 182 255
218 182 255
218 182 255
218 182 255
218 182 255
218 182 255
218 182 255
218 182 255
218 182 255
218 182 255
218 182 255
218 182 255
218 182 255
218 182 255
218 182 255
218 182 255
218 182 255
218 182 255
218 182 255
218 182 255
218 182 255
218 182 255
218 182 255
218 182 255
218 182 255
218 182 255
218 182 255
218 182 255
218 182 255
218 182 255
218 182 255
218 182 255
182 218 255
218 218 255
255 255 255
255 255 255
255 255 255
72 72 85
36 36 0
36 36 0
36 36 0
36 36 0
36 36 0
36 36 0
36 36 0
36 36 0
36 36 0
36 36 0
36 36 0
36 36 0
36 36 0
36 36 0
36 36 0
36 36 0
36 36 0
36 36 0
36 36 0
36 36 0
36 36 0
36 36 0
36 36 0
36 36 0
36 36 0
36 36 0
36 36 0
36 36 0
36 36 0
36 36 0
36 36 0
36 36 0
36 36 0
36 36 0
36 36 0
36 36 0
36 36 0
36 36 0
36 36 0
36 36 0
36 36 0
36 36 0
36 36 0
36 36 0
36 36 0
36 36 0
182 182 170
255 255 255
218 218 255
0 0 0
0 0 0
0 0 0
0 0 0
0 0 0
0 0 0
0 0 0
0 0 0
0 0 0
0 0 0
0 0 0
0 0 0
0 0 0
0 0 0
0 0 0
0 0 0
0 0 0
0 0 0
0 0 0
0 0 0
0 0 0
0 0 0
0 0 0
0 0 0
0 0 0
0 0 0
0 0 0
0 0 0
0 0 0
0 0 0
0 0 0
36 36 0
109 109 85
109 109 85
145 145 170
145 145 170
109 109 85
109 109 85
145 145 170
182 182 170
109 109 85
109 109 85
109 109 85
109 109 85
145 182 170
145 145 170
109 109 85
109 109 85
72 109 85
72 109 170
109 109 85
109 109 85
109 109 85
145 145 170
255 255 255
218 218 255
145 145 170
109 109 85
145 145 170
218 218 255
218 218 255
182 182 170
109 109 85
109 109 85
182 182 170
255 218 255
145 145 170
109 109 85
109 109 85
145 145 170
218 218 255
182 182 170
109 109 85
218 218 255
218 218 255
255 255 255
255 255 255
218 255 255
218 218 255
255 255 255
255 255 255
255 255 255
255 255 255
255 255 255
255 255 255
255 255 255
255 255 255
255 255 255
255 255 255
255 255 255
255 255 255
255 255 255
255 255 255
255 255 255
255 255 255
255 255 255
255 255 255
255 255 255
255 255 255
255 255 255
255 255 255
255 255 255
255 255 255
255 255 255
255 255 255
255 255 255
255 255 255
255 255 255
255 255 255
255 255 255
255 255 255
255 255 255
255 255 255
255 255 255
255 255 255
255 255 255
255 255 255
255 255 255
255 255 255
255 255 255
255 255 255
255 255 255
255 255 255
255 255 255
255 255 255
255 255 255
255 255 255
255 255 255
255 255 255
255 255 255
255 255 255
255 255 255
255 255 255
255 255 255
255 255 255
255 255 255
255 255 255
255 255 255
255 255 255
255 255 255
255 255 255
255 255 255
255 255 255
255 255 255
255 255 255
255 255 255
255 255 255
255 255 255
255 255 255
255 255 255
72 72 85
36 36 0
36 36 0
36 36 0
36 36 0
36 36 0
36 36 0
36 36 0
36 36 0
36 36 0
36 36 0
36 36 0
36 36 0
36 36 0
36 36 0
36 36 0
36 36 0
36 36 0
36 36 0
36 36 0
36 36 0
36 36 0
36 36 0
36 36 0
36 36 0
36 36 0
36 36 0
36 36 0
36 36 0
36 36 0
36 36 0
36 36 0
36 36 0
36 36 0
36 36 0
36 36 0
36 36 0
36 36 0
36 36 0
36 36 0
36 36 0
36 36 0
36 36 0
36 36 0
36 36 0
36 36 0
36 36 0
182 182 170
255 255 255
218 218 255
0 0 0
0 0 0
0 0 0
0 0 0
0 0 0
0 0 0
0 0 0
0 0 0
0 0 0
0 0 0
0 0 0
0 0 0
0 0 0
0 0 0
0 0 0
0 0 0
0 0 0
0 0 0
0 0 0
0 0 0
0 0 0
0 0 0
0 0 0
0 0 0
0 0 0
0 0 0
0 0 0
0 0 0
0 0 0
0 0 0
0 0 0
36 36 0
109 109 85
109 109 85
109 109 85
109 109 85
109 109 85
109 109 85
109 109 85
145 145 85
109 109 85
109 109 85
109 109 85
109 109 85
145 145 170
109 109 85
109 109 85
109 109 85
109 109 85
109 109 85
109 109 85
109 109 85
109 109 85
109 109 85
145 145 170
145 145 170
109 109 85
109 109 85
145 145 170
182 182 170
182 182 170
145 145 170
109 109 85
109 109 85
109 109 85
145 145 170
109 109 85
109 109 85
109 109 85
109 109 85
145 145 170
145 145 170
109 109 85
218 218 255
218 218 255
218 218 255
255 255 255
182 218 255
145 182 255
255 255 255
182 182 170
182 182 170
182 182 170
218 218 255
182 218 170
182 182 170
182 182 170
182 182 170
218 218 255
255 255 255
255 255 255
255 255 255
255 255 255
255 255 255
255 255 255
255 255 255
255 255 255
255 255 255
255 255 255
255 255 255
255 255 255
255 255 255
255 255 255
255 255 255
255 255 255
255 255 255
255 255 255
255 255 255
255 255 255
255 255 255
255 255 255
255 255 255
255 255 255
255 255 255
255 255 255
255 255 255
255 255 255
255 255 255
255 255 255
255 255 255
255 255 255
255 255 255
255 255 255
255 255 255
255 255 255
255 255 255
255 255 255
255 255 255
255 255 255
255 255 255
255 255 255
255 255 255
255 255 255
255 255 255
255 255 255
255 255 255
255 255 255
255 255 255
255 255 255
255 255 255
255 255 255
255 255 255
255 255 255
255 255 255
255 255 255
255 255 255
218 218 255
255 255 255
255 255 255
255 255 255
72 72 85
36 36 0
36 36 0
36 36 0
36 36 0
36 36 0
36 36 0
36 36 0
36 36 0
36 36 0
36 36 0
36 36 0
36 36 0
36 36 0
36 36 0
36 36 0
36 36 0
36 36 0
36 36 0
36 36 0
36 36 0
36 36 0
36 36 0
36 36 0
36 36 0
36 36 0
36 36 0
36 36 0
36 36 0
36 36 0
36 36 0
36 36 0
36 36 0
36 36 0
36 36 0
36 36 0
36 36 0
36 36 0
36 36 0
36 36 0
36 36 0
36 36 0
36 36 0
36 36 0
36 36 0
36 36 0
36 36 0
182 182 170
255 255 255
218 218 255
0 0 0
0 0 0
0 0 0
0 0 0
0 0 0
0 0 0
0 0 0
0 0 0
0 0 0
0 0 0
0 0 0
0 0 0
0 0 0
0 0 0
0 0 0
0 0 0
0 0 0
0 0 0
0 0 0
0 0 0
0 0 0
0 0 0
0 0 0
0 0 0
0 0 0
0 0 0
0 0 0
0 0 0
0 0 0
0 0 0
0 0 0
36 36 0
109 109 85
109 109 85
109 109 85
109 109 85
109 109 85
109 109 85
109 109 85
109 109 85
109 109 85
109 109 85
109 109 85
109 109 85
109 109 85
109 109 85
109 109 85
109 109 85
109 109 85
109 109 85
109 109 85
109 109 85
109 109 85
109 109 85
109 109 85
109 109 85
109 109 85
109 109 85
109 109 85
109 109 85
109 109 85
109 109 85
109 109 85
109 109 85
109 109 85
109 109 85
109 109 85
109 109 85
109 109 85
109 109 85
109 109 85
109 109 85
109 109 85
218 218 255
218 218 255
255 255 255
255 255 255
218 255 255
182 218 255
255 255 255
218 218 255
182 218 170
182 182 170
218 218 255
218 218 255
182 182 170
218 218 255
218 218 255
218 218 255
255 255 255
255 255 255
255 255 255
255 255 255
255 255 255
255 255 255
255 255 255
255 255 255
255 255 255
255 255 255
255 255 255
255 255 255
255 255 255
255 255 255
255 255 255
255 255 255
255 255 255
255 255 255
255 255 255
255 255 255
255 255 255
255 255 255
255 255 255
255 255 255
255 255 255
255 255 255
255 255 255
255 255 255
255 255 255
255 255 255
255 255 255
255 255 255
255 255 255
255 255 255
255 255 255
255 255 255
255 255 255
255 255 255
255 255 255
255 255 255
255 255 255
255 255 255
255 255 255
255 255 255
255 255 255
255 255 255
255 255 255
255 255 255
255 255 255
255 255 255
255 255 255
255 255 255
255 255 255
255 255 255
255 255 255
255 255 255
255 255 255
255 255 255
255 255 255
255 255 255
255 255 255
72 72 85
36 36 0
36 36 0
36 36 0
36 36 0
36 36 0
36 36 0
36 36 0
36 36 0
36 36 0
36 36 0
36 36 0
36 36 0
36 36 0
36 36 0
36 36 0
36 36 0
36 36 0
36 36 0
36 36 0
36 36 0
36 36 0
36 36 0
36 36 0
36 36 0
36 36 0
36 36 0
36 36 0
36 36 0
36 36 0
36 36 0
36 36 0
36 36 0
36 36 0
36 36 0
36 36 0
36 36 0
36 36 0
36 36 0
36 36 0
36 36 0
36 36 0
36 36 0
36 36 0
36 36 0
36 36 0
36 36 0
182 182 170
255 255 255
218 218 255
0 0 0
0 0 0
0 0 0
0 0 0
0 0 0
0 0 0
0 0 0
0 0 0
0 0 0
0 0 0
0 0 0
0 0 0
0 0 0
0 0 0
0 0 0
0 0 0
0 0 0
0 0 0
0 0 0
0 0 0
0 0 0
0 0 0
0 0 0
0 0 0
0 0 0
0 0 0
0 0 0
0 0 0
0 0 0
0 0 0
0 0 0
36 36 0
109 109 85
109 109 85
109 109 85
109 109 85
109 109 85
109 109 85
109 109 85
109 109 85
109 109 85
109 109 85
109 109 85
109 109 85
109 109 85
109 109 85
109 109 85
109 109 85
109 109 85
109 109 85
109 109 85
109 109 85
109 109 85
109 109 85
109 109 85
109 109 85
109 109 85
109 109 85
109 109 85
109 109 85
109 109 85
109 109 85
109 109 85
109 109 85
109 109 85
109 109 85
109 109 85
109 109 85
109 109 85
109 109 85
109 109 85
109 109 85
109 109 85
218 218 255
218 218 255
255 255 255
255 255 255
255 255 255
255 255 255
255 255 255
255 255 255
255 255 255
255 255 255
255 255 255
255 255 255
255 255 255
255 255 255
255 255 255
255 255 255
255 255 255
255 255 255
255 255 255
255 255 255
255 255 255
255 255 255
255 255 255
255 255 255
255 255 255
255 255 255
255 255 255
255 255 255
255 255 255
255 255 255
255 255 255
255 255 255
255 255 255
255 255 255
255 255 255
255 255 255
255 255 255
255 255 255
255 255 255
255 255 255
255 255 255
255 255 255
255 255 255
255 255 255
255 255 255
255 255 255
255 255 255
255 255 255
255 255 255
255 255 255
255 255 255
255 255 255
255 255 255
255 255 255
255 255 255
255 255 255
255 255 255
255 255 255
255 255 255
255 255 255
255 255 255
255 255 255
255 255 255
255 255 255
255 255 255
255 255 255
255 255 255
255 255 255
255 255 255
255 255 255
255 255 255
255 255 255
255 255 255
255 255 255
255 255 255
255 255 255
255 255 255
72 72 85
36 36 0
36 36 0
36 36 0
36 36 0
36 36 0
36 36 0
36 36 0
36 36 0
36 36 0
36 36 0
36 36 0
36 36 0
36 36 0
36 36 0
36 36 0
36 36 0
36 36 0
36 36 0
36 36 0
36 36 0
36 36 0
36 36 0
36 36 0
36 36 0
36 36 0
36 36 0
36 36 0
36 36 0
36 36 0
36 36 0
36 36 0
36 36 0
36 36 0
36 36 0
36 36 0
36 36 0
36 36 0
36 36 0
36 36 0
36 36 0
36 36 0
36 36 0
36 36 0
36 36 0
36 36 0
36 36 0
182 182 170
255 255 255
218 218 255
0 0 0
0 0 0
0 0 0
0 0 0
0 0 0
0 0 0
0 0 0
0 0 0
0 0 0
0 0 0
0 0 0
0 0 0
0 0 0
0 0 0
0 0 0
0 0 0
0 0 0
0 0 0
0 0 0
0 0 0
0 0 0
0 0 0
0 0 0
0 0 0
0 0 0
0 0 0
0 0 0
0 0 0
0 0 0
0 0 0
0 0 0
72 72 85
255 255 255
218 218 255
218 218 255
218 218 255
218 218 255
218 218 255
218 218 255
218 218 255
218 218 255
218 218 255
218 218 255
218 218 255
218 218 255
218 218 255
218 218 255
218 218 255
218 218 255
218 218 255
218 218 255
218 218 255
218 218 255
218 218 255
218 218 255
218 218 255
218 218 255
218 218 255
218 218 255
218 218 255
218 218 255
218 218 255
218 218 255
218 218 255
218 218 255
218 218 255
218 218 255
218 218 255
218 218 255
218 218 255
218 218 255
218 218 255
218 218 255
255 255 255
218 218 255
255 255 255
255 255 255
255 255 255
218 255 255
255 255 255
218 218 255
218 218 255
218 218 255
218 218 255
218 218 255
218 218 255
218 218 255
255 255 255
255 255 255
182 182 170
255 255 255
255 255 255
255 255 255
255 255 255
255 255 255
255 255 255
255 255 255
255 255 255
255 255 255
255 255 255
255 255 255
255 255 255
255 255 255
255 255 255
255 255 255
255 255 255
255 255 255
255 255 255
255 255 255
255 255 255
255 255 255
255 255 255
255 255 255
255 255 255
255 255 255
255 255 255
255 255 255
255 255 255
255 255 255
255 255 255
255 255 255
255 255 255
255 255 255
255 255 255
255 255 255
255 255 255
255 255 255
255 255 255
255 255 255
255 255 255
255 255 255
255 255 255
255 255 255
255 255 255
255 255 255
255 255 255
255 255 255
255 255 255
255 255 255
255 255 255
255 255 255
255 255 255
255 255 255
255 255 255
255 255 255
255 255 255
255 255 255
255 255 255
255 255 255
255 255 255
72 72 85
36 36 0
36 36 0
36 36 0
36 36 0
36 36 0
36 36 0
36 36 0
36 36 0
36 36 0
36 36 0
36 36 0
36 36 0
36 36 0
36 36 0
36 36 0
36 36 0
36 36 0
36 36 0
36 36 0
36 36 0
36 36 0
36 36 0
36 36 0
36 36 0
36 36 0
36 36 0
36 36 0
36 36 0
36 36 0
36 36 0
36 36 0
36 36 0
36 36 0
36 36 0
36 36 0
36 36 0
36 36 0
36 36 0
36 36 0
36 36 0
36 36 0
36 36 0
36 36 0
36 36 0
36 36 0
36 36 0
182 182 170
255 255 255
218 218 255
0 0 0
0 0 0
0 0 0
0 0 0
0 0 0
0 0 0
0 0 0
0 0 0
0 0 0
0 0 0
0 0 0
0 0 0
0 0 0
0 0 0
0 0 0
0 0 0
0 0 0
0 0 0
0 0 0
0 0 0
0 0 0
0 0 0
0 0 0
0 0 0
0 0 0
0 0 0
0 0 0
0 0 0
0 0 0
0 0 0
0 0 0
109 109 85
255 255 255
255 255 255
255 255 255
255 255 255
255 255 255
255 255 255
255 255 255
255 255 255
255 255 255
255 255 255
255 255 255
255 255 255
255 255 255
255 255 255
255 255 255
255 255 255
255 255 255
255 255 255
255 255 255
255 255 255
255 255 255
255 255 255
255 255 255
255 255 255
255 255 255
255 255 255
255 255 255
255 255 255
255 255 255
255 255 255
255 255 255
255 255 255
255 255 255
255 255 255
255 255 255
255 255 255
255 255 255
255 255 255
255 255 255
255 255 255
255 255 255
255 255 255
218 218 255
255 255 255
255 255 255
218 218 255
218 255 255
255 255 255
182 182 170
182 182 170
182 182 170
218 218 255
182 218 170
182 182 170
182 182 170
182 182 170
218 218 255
182 182 170
218 218 255
255 255 255
255 255 255
255 255 255
255 255 255
255 255 255
255 255 255
255 255 255
255 255 255
255 255 255
255 255 255
255 255 255
255 255 255
255 255 255
255 255 255
255 255 255
255 255 255
255 255 255
255 255 255
255 255 255
255 255 255
255 255 255
255 255 255
255 255 255
255 255 255
255 255 255
255 255 255
255 255 255
255 255 255
255 255 255
255 255 255
255 255 255
255 255 255
255 255 255
255 255 255
255 255 255
255 255 255
255 255 255
255 255 255
255 255 255
255 255 255
255 255 255
255 255 255
255 255 255
255 255 255
255 255 255
255 255 255
255 255 255
255 255 255
255 255 255
255 255 255
255 255 255
255 255 255
255 255 255
255 255 255
255 255 255
255 255 255
255 255 255
255 255 255
255 255 255
72 72 85
36 36 0
36 36 0
36 36 0
36 36 0
36 36 0
36 36 0
36 36 0
36 36 0
36 36 0
36 36 0
36 36 0
36 36 0
36 36 0
36 36 0
36 36 0
36 36 0
36 36 0
36 36 0
36 36 0
36 36 0
36 36 0
36 36 0
36 36 0
36 36 0
36 36 0
36 36 0
36 36 0
36 36 0
36 36 0
36 36 0
36 36 0
36 36 0
36 36 0
36 36 0
36 36 0
36 36 0
36 36 0
36 36 0
36 36 0
36 36 0
36 36 0
36 36 0
36 36 0
36 36 0
36 36 0
36 36 0
182 182 170
255 255 255
218 218 255
0 0 0
0 0 0
0 0 0
0 0 0
0 0 0
0 0 0
0 0 0
0 0 0
0 0 0
0 0 0
0 0 0
0 0 0
0 0 0
0 0 0
0 0 0
0 0 0
0 0 0
0 0 0
0 0 0
0 0 0
0 0 0
0 0 0
0 0 0
0 0 0
0 0 0
0 0 0
0 0 0
0 0 0
0 0 0
0 0 0
0 0 0
109 72 85
255 255 255
255 255 255
255 255 255
255 255 255
255 255 255
255 255 255
255 255 255
255 255 255
255 255 255
255 255 255
255 255 255
255 255 255
255 255 255
255 255 255
255 255 255
255 255 255
255 255 255
255 255 255
255 255 255
255 255 255
255 255 255
255 255 255
255 255 255
255 255 255
255 255 255
255 255 255
255 255 255
255 255 255
255 255 255
255 255 255
255 255 255
255 255 255
255 255 255
255 255 255
255 255 255
255 255 255
255 255 255
255 255 255
255 255 255
255 255 255
255 255 255
255 255 255
218 218 255
255 255 255
255 255 255
255 255 255
255 255 255
255 255 255
255 255 255
255 255 255
255 255 255
255 255 255
255 255 255
255 255 255
255 255 255
255 255 255
255 255 255
255 255 255
255 255 255
255 255 255
255 255 255
255 255 255
255 255 255
255 255 255
255 255 255
255 255 255
255 255 255
255 255 255
255 255 255
255 255 255
255 255 255
255 255 255
255 255 255
255 255 255
255 255 255
255 255 255
255 255 255
255 255 255
255 255 255
255 255 255
255 255 255
255 255 255
255 255 255
255 255 255
255 255 255
255 255 255
255 255 255
255 255 255
255 255 255
255 255 255
255 255 255
255 255 255
255 255 255
255 255 255
255 255 255
255 255 255
255 255 255
255 255 255
255 255 255
255 255 255
255 255 255
255 255 255
255 255 255
255 255 255
255 255 255
255 255 255
255 255 255
255 255 255
255 255 255
255 255 255
255 255 255
255 255 255
255 255 255
255 255 255
255 255 255
255 255 255
255 255 255
255 255 255
72 72 85
36 36 0
36 36 0
36 36 0
36 36 0
36 36 0
36 36 0
36 36 0
36 36 0
36 36 0
36 36 0
36 36 0
72 36 0
72 72 0
72 72 0
72 72 0
72 72 0
36 36 0
36 36 0
36 36 0
36 36 0
36 36 0
36 36 0
36 36 0
36 36 0
36 36 0
36 36 0
36 36 0
36 36 0
36 36 0
36 36 0
36 36 0
36 36 0
36 36 0
36 36 0
36 36 0
36 36 0
36 36 0
36 36 0
36 36 0
36 36 0
36 36 0
36 36 0
36 36 0
36 36 0
36 36 0
36 36 0
182 182 170
255 255 255
218 218 255
0 0 0
0 0 0
0 0 0
0 0 0
0 0 0
0 0 0
0 0 0
0 0 0
0 0 0
0 0 0
0 0 0
0 0 0
0 0 0
0 0 0
0 0 0
0 0 0
0 0 0
0 0 0
0 0 0
0 0 0
0 0 0
0 0 0
0 0 0
0 0 0
0 0 0
0 0 0
0 0 0
0 0 0
0 0 0
0 0 0
0 0 0
109 72 85
255 255 255
255 255 255
255 255 255
255 255 255
255 255 255
255 255 255
255 255 255
255 255 255
255 255 255
255 255 255
255 255 255
255 255 255
255 255 255
255 255 255
255 255 255
255 255 255
255 255 255
255 255 255
255 255 255
255 255 255
255 255 255
255 255 255
255 255 255
255 255 255
255 255 255
255 255 255
255 255 255
255 255 255
255 255 255
255 255 255
255 255 255
255 255 255
255 255 255
255 255 255
255 255 255
255 255 255
255 255 255
255 255 255
255 255 255
255 255 255
255 255 255
255 255 255
218 218 255
255 255 255
255 255 255
255 255 255
218 218 255
255 255 255
218 255 255
255 255 255
255 255 255
255 255 255
255 255 255
255 255 255
255 255 255
255 255 255
255 255 255
255 255 255
255 255 255
255 255 255
255 255 255
255 255 255
255 255 255
255 255 255
255 255 255
255 255 255
255 255 255
255 255 255
255 255 255
255 255 255
255 255 255
255 255 255
255 255 255
255 255 255
255 255 255
255 255 255
255 255 255
255 255 255
255 255 255
255 255 255
255 255 255
255 255 255
255 255 255
255 255 255
255 255 255
255 255 255
255 255 255
255 255 255
255 255 255
255 255 255
255 255 255
255 255 255
255 255 255
255 255 255
255 255 255
255 255 255
255 255 255
255 255 255
255 255 255
255 255 255
255 255 255
255 255 255
255 255 255
255 255 255
255 255 255
255 255 255
255 255 255
255 255 255
255 255 255
255 255 255
255 255 255
255 255 255
255 255 255
255 255 255
255 255 255
255 255 255
255 255 255
255 255 255
72 72 85
36 36 0
36 36 0
36 36 0
36 36 0
36 36 0
36 36 0
36 36 0
36 36 0
36 36 0
72 72 0
109 72 0
109 72 0
109 72 0
109 72 0
109 72 0
109 72 0
109 72 0
72 36 0
36 36 0
36 36 0
36 36 0
36 36 0
36 36 0
36 36 0
72 36 0
109 72 0
109 72 0
72 72 0
36 36 0
36 36 0
36 36 0
36 36 0
36 36 0
36 36 0
36 36 0
36 36 0
36 36 0
36 36 0
36 36 0
36 36 0
36 36 0
36 36 0
36 36 0
36 36 0
36 36 0
36 36 0
182 182 170
255 255 255
218 218 255
0 0 0
0 0 0
0 0 0
0 0 0
0 0 0
0 0 0
0 0 0
0 0 0
0 0 0
0 0 0
0 0 0
0 0 0
0 0 0
0 0 0
0 0 0
0 0 0
0 0 0
0 0 0
0 0 0
0 0 0
0 0 0
0 0 0
0 0 0
0 0 0
0 0 0
0 0 0
0 0 0
0 0 0
0 0 0
0 0 0
0 0 0
109 72 85
255 255 255
255 255 255
255 255 255
255 255 255
255 255 255
255 255 255
255 255 255
255 255 255
255 255 255
255 255 255
255 255 255
255 255 255
255 255 255
255 255 255
255 255 255
255 255 255
255 255 255
255 255 255
255 255 255
255 255 255
255 255 255
255 255 255
255 255 255
255 255 255
255 255 255
255 255 255
255 255 255
255 255 255
255 255 255
255 255 255
255 255 255
255 255 255
255 255 255
255 255 255
255 255 255
255 255 255
255 255 255
255 255 255
255 255 255
255 255 255
255 255 255
255 255 255
218 218 255
218 218 255
255 255 255
218 218 255
182 182 170
218 255 255
145 182 255
145 182 255
182 218 255
255 255 255
255 255 255
255 255 255
255 255 255
255 255 255
255 255 255
255 255 255
255 255 255
255 255 255
255 255 255
255 255 255
255 255 255
255 255 255
255 255 255
255 255 255
255 255 255
255 255 255
255 255 255
255 255 255
255 255 255
255 255 255
255 255 255
255 255 255
255 255 255
255 255 255
255 255 255
255 255 255
255 255 255
218 218 255
218 218 255
255 255 255
255 255 255
255 255 255
255 255 255
255 255 255
255 255 255
255 255 255
255 255 255
255 255 255
255 255 255
255 255 255
255 255 255
255 255 255
255 255 255
255 255 255
255 255 255
255 255 255
255 255 255
255 255 255
255 255 255
255 255 255
255 255 255
255 255 255
255 255 255
255 255 255
255 255 255
255 255 255
255 255 255
255 255 255
255 255 255
255 255 255
255 255 255
255 255 255
255 255 255
255 255 255
255 255 255
255 255 255
72 72 85
36 36 0
36 36 0
36 36 0
36 36 0
36 36 0
36 36 0
36 36 0
72 36 0
109 72 0
109 72 0
109 72 0
109 72 0
109 72 0
109 72 0
109 72 0
109 72 0
109 72 0
72 36 0
36 36 0
72 36 0
72 36 0
72 36 0
109 36 0
72 36 0
72 36 0
72 36 0
109 72 0
145 72 0
72 72 0
36 36 0
36 36 0
36 36 0
36 36 0
36 36 0
36 36 0
36 36 0
36 36 0
36 36 0
36 36 0
36 36 0
36 36 0
36 36 0
36 36 0
36 36 0
36 36 0
36 36 0
182 182 170
255 255 255
218 218 255
0 0 0
0 0 0
0 0 0
0 0 0
0 0 0
0 0 0
0 0 0
0 0 0
0 0 0
0 0 0
0 0 0
0 0 0
0 0 0
0 0 0
0 0 0
0 0 0
0 0 0
0 0 0
0 0 0
0 0 0
0 0 0
0 0 0
0 0 0
0 0 0
0 0 0
0 0 0
0 0 0
0 0 0
0 0 0
0 0 0
0 0 0
109 72 85
255 255 255
255 255 255
255 255 255
255 255 255
255 255 255
255 255 255
255 255 255
255 255 255
255 255 255
255 255 255
255 255 255
255 255 255
255 255 255
255 255 255
255 255 255
255 255 255
255 255 255
255 255 255
255 255 255
255 255 255
255 255 255
255 255 255
255 255 255
255 255 255
255 255 255
255 255 255
255 255 255
255 255 255
255 255 255
255 255 255
255 255 255
255 255 255
255 255 255
255 255 255
255 255 255
255 255 255
255 255 255
255 255 255
255 255 255
255 255 255
255 255 255
255 255 255
218 218 255
255 255 255
255 255 255
255 255 255
255 255 255
255 255 255
218 255 255
255 255 255
255 255 255
255 255 255
255 255 255
255 255 255
255 255 255
255 255 255
255 255 255
255 255 255
255 255 255
255 255 255
255 255 255
255 255 255
255 255 255
255 255 255
255 255 255
255 255 255
255 255 255
255 255 255
255 255 255
255 255 255
255 255 255
255 255 255
255 255 255
255 255 255
255 255 255
255 255 255
255 255 255
255 255 255
255 255 255
255 255 255
255 255 255
255 255 255
255 255 255
255 255 255
255 255 255
255 255 255
255 255 255
255 255 255
255 255 255
255 255 255
255 255 255
255 255 255
255 255 255
255 255 255
255 255 255
255 255 255
255 255 255
255 255 255
255 255 255
255 255 255
255 255 255
255 255 255
255 255 255
255 255 255
255 255 255
255 255 255
255 255 255
255 255 255
255 255 255
255 255 255
255 255 255
255 255 255
255 255 255
255 255 255
255 255 255
255 255 255
255 255 255
255 255 255
72 72 85
36 36 0
36 36 0
36 36 0
36 36 0
36 36 0
36 36 0
36 36 0
109 72 0
109 72 0
109 72 0
109 72 0
109 72 0
109 72 0
109 72 0
145 109 85
145 109 85
109 72 0
72 36 0
109 36 0
145 72 0
145 72 0
109 72 0
109 72 0
109 36 0
109 36 0
72 36 0
109 72 0
145 72 0
145 109 0
36 36 0
36 36 0
36 36 0
36 36 0
36 36 0
36 36 0
36 36 0
36 36 0
36 36 0
36 36 0
36 36 0
36 36 0
36 36 0
36 36 0
36 36 0
36 36 0
36 36 0
182 182 170
255 255 255
218 218 255
0 0 0
0 0 0
0 0 0
0 0 0
0 0 0
0 0 0
0 0 0
0 0 0
0 0 0
0 0 0
0 0 0
0 0 0
0 0 0
0 0 0
0 0 0
0 0 0
0 0 0
0 0 0
0 0 0
0 0 0
0 0 0
0 0 0
0 0 0
0 0 0
0 0 0
0 0 0
0 0 0
0 0 0
0 0 0
0 0 0
0 0 0
109 72 85
255 255 255
255 255 255
255 255 255
255 255 255
255 255 255
255 255 255
255 255 255
255 255 255
255 255 255
255 255 255
255 255 255
255 255 255
255 255 255
255 255 255
255 255 255
255 255 255
255 255 255
255 255 255
255 255 255
255 255 255
255 255 255
255 255 255
255 255 255
255 255 255
255 255 255
255 255 255
255 255 255
255 255 255
255 255 255
255 255 255
255 255 255
255 255 255
255 255 255
255 255 255
255 255 255
255 255 255
255 255 255
255 255 255
255 255 255
255 255 255
255 255 255
255 255 255
218 218 255
255 255 255
255 255 255
255 255 255
218 255 255
255 255 255
255 255 255
255 255 255
255 255 255
255 255 255
255 255 255
255 255 255
255 255 255
255 255 255
255 255 255
255 255 255
255 255 255
255 255 255
255 255 255
255 255 255
255 255 255
255 255 255
255 255 255
255 255 255
255 255 255
255 255 255
255 255 255
255 255 255
255 255 255
255 255 255
255 255 255
255 255 255
255 255 255
255 255 255
255 255 255
255 255 255
255 255 255
255 255 255
255 255 255
255 255 255
255 255 255
255 255 255
255 255 255
255 255 255
255 255 255
255 255 255
255 255 255
255 255 255
255 255 255
255 255 255
255 255 255
255 255 255
255 255 255
255 255 255
255 255 255
255 255 255
255 255 255
255 255 255
255 255 255
255 255 255
255 255 255
255 255 255
255 255 255
255 255 255
255 255 255
255 255 255
255 255 255
255 255 255
255 255 255
255 255 255
255 255 255
255 255 255
255 255 255
255 255 255
255 255 255
255 255 255
72 72 85
36 36 0
36 36 0
36 36 0
36 36 0
36 36 0
36 36 0
72 36 0
109 109 85
145 109 85
145 109 85
145 109 85
145 109 85
182 145 85
182 145 85
145 109 85
145 109 85
72 72 0
72 36 0
109 36 0
182 72 0
145 72 0
145 72 0
109 72 0
109 72 0
109 36 0
182 109 0
218 145 0
218 109 0
182 109 0
109 72 85
36 36 0
36 36 0
36 36 0
36 36 0
36 36 0
36 36 0
36 36 0
36 36 0
36 36 0
36 36 0
36 36 0
36 36 0
36 36 0
36 36 0
36 36 0
36 36 0
182 182 170
255 255 255
218 218 255
0 0 0
0 0 0
0 0 0
0 0 0
0 0 0
0 0 0
0 0 0
0 0 0
0 0 0
0 0 0
0 0 0
0 0 0
0 0 0
0 0 0
0 0 0
0 0 0
0 0 0
0 0 0
0 0 0
0 0 0
0 0 0
0 0 0
0 0 0
0 0 0
0 0 0
0 0 0
0 0 0
0 0 0
0 0 0
0 0 0
0 0 0
109 72 85
255 255 255
255 255 255
255 255 255
255 255 255
255 255 255
255 255 255
255 255 255
255 255 255
255 255 255
255 255 255
255 255 255
255 255 255
255 255 255
255 255 255
255 255 255
255 255 255
255 255 255
255 255 255
255 255 255
255 255 255
255 255 255
255 255 255
255 255 255
255 255 255
255 255 255
255 255 255
255 255 255
255 255 255
255 255 255
255 255 255
255 255 255
255 255 255
255 255 255
255 255 255
255 255 255
255 255 255
255 255 255
255 255 255
255 255 255
255 255 255
255 255 255
255 255 255
218 218 255
218 218 255
255 255 255
255 255 255
145 218 255
218 255 255
109 182 255
145 218 255
145 218 255
182 218 255
145 182 255
145 182 255
182 218 255
182 218 255
182 218 255
182 218 255
218 218 255
255 255 255
255 255 255
255 255 255
255 255 255
255 255 255
255 255 255
255 255 255
255 255 255
255 255 255
255 255 255
255 255 255
255 255 255
255 255 255
255 255 255
255 255 255
255 255 255
255 255 255
255 255 255
255 255 255
255 255 255
218 218 255
218 218 255
255 255 255
255 255 255
255 255 255
255 255 255
255 255 255
255 255 255
255 255 255
255 255 255
255 255 255
255 255 255
255 255 255
255 255 255
255 255 255
255 255 255
255 255 255
255 255 255
255 255 255
255 255 255
255 255 255
255 255 255
255 255 255
255 255 255
255 255 255
255 255 255
255 255 255
255 255 255
255 255 255
255 255 255
255 255 255
255 255 255
255 255 255
255 255 255
255 255 255
255 255 255
255 255 255
255 255 255
255 255 255
72 72 85
36 36 0
36 36 0
36 36 0
36 36 0
36 36 0
36 36 0
72 36 0
145 109 85
145 109 85
145 109 85
182 145 85
182 145 85
182 145 85
182 145 85
145 109 85
109 109 85
109 72 0
72 36 0
109 72 0
109 36 0
145 72 0
145 72 0
109 72 0
109 36 0
182 109 0
255 182 85
218 145 85
218 145 85
182 109 0
109 72 0
36 36 0
36 36 0
36 36 0
36 36 0
36 36 0
36 36 0
36 36 0
36 36 0
36 36 0
36 36 0
36 36 0
36 36 0
36 36 0
36 36 0
36 36 0
36 36 0
182 182 170
255 255 255
218 218 255
0 0 0
0 0 0
0 0 0
0 0 0
0 0 0
0 0 0
0 0 0
0 0 0
0 0 0
0 0 0
0 0 0
0 0 0
0 0 0
0 0 0
0 0 0
0 0 0
0 0 0
0 0 0
0 0 0
0 0 0
0 0 0
0 0 0
0 0 0
0 0 0
0 0 0
0 0 0
0 0 0
0 0 0
0 0 0
0 0 0
0 0 0
109 72 85
255 255 255
255 255 255
255 255 255
255 255 255
255 255 255
255 255 255
255 255 255
255 255 255
255 255 255
255 255 255
255 255 255
255 255 255
255 255 255
255 255 255
255 255 255
255 255 255
255 255 255
255 255 255
255 255 255
255 255 255
255 255 255
255 255 255
255 255 255
255 255 255
255 255 255
255 255 255
255 255 255
255 255 255
255 255 255
255 255 255
255 255 255
255 255 255
255 255 255
255 255 255
255 255 255
255 255 255
255 255 255
255 255 255
255 255 255
255 255 255
255 255 255
255 255 255
218 218 255
255 255 255
255 255 255
255 255 255
182 218 255
255 255 255
182 218 255
182 218 255
182 218 255
182 218 255
182 218 255
218 218 255
182 218 255
182 218 255
182 218 255
182 218 255
182 218 255
255 255 255
255 255 255
255 255 255
255 255 255
255 255 255
255 255 255
255 255 255
255 255 255
255 255 255
255 255 255
255 255 255
255 255 255
255 255 255
255 255 255
255 255 255
255 255 255
255 255 255
255 255 255
255 255 255
255 255 255
218 218 255
255 255 255
255 255 255
255 255 255
255 255 255
255 255 255
255 255 255
255 255 255
255 255 255
255 255 255
255 255 255
255 255 255
255 255 255
255 255 255
255 255 255
255 255 255
255 255 255
255 255 255
255 255 255
255 255 255
255 255 255
255 255 255
255 255 255
255 255 255
255 255 255
255 255 255
255 255 255
255 255 255
255 255 255
255 255 255
255 255 255
255 255 255
255 255 255
255 255 255
255 255 255
255 255 255
255 255 255
255 255 255
255 255 255
72 72 85
36 36 0
36 36 0
36 36 0
36 36 0
36 36 0
36 36 0
72 36 0
109 109 0
145 109 85
182 109 85
182 145 85
182 145 85
182 145 85
182 145 85
145 109 85
145 109 85
109 72 0
72 36 0
145 72 0
109 36 0
145 72 0
145 72 0
109 72 0
109 72 0
255 182 85
255 182 85
218 145 85
182 109 0
145 109 0
109 72 0
36 36 0
36 36 0
36 36 0
36 36 0
72 72 85
72 72 85
36 36 0
36 36 0
36 36 0
36 36 0
36 36 0
36 36 0
36 36 0
36 36 0
36 36 0
36 36 0
182 182 170
255 255 255
218 218 255
0 0 0
0 0 0
0 0 0
0 0 0
0 0 0
0 0 0
0 0 0
0 0 0
0 0 0
0 0 0
0 0 0
0 0 0
0 0 0
0 0 0
0 0 0
0 0 0
0 0 0
0 0 0
0 0 0
0 0 0
0 0 0
0 0 0
0 0 0
0 0 0
0 0 0
0 0 0
0 0 0
0 0 0
0 0 0
0 0 0
0 0 0
109 72 85
255 255 255
255 255 255
255 255 255
255 255 255
255 255 255
255 255 255
255 255 255
255 255 255
255 255 255
255 255 255
255 255 255
255 255 255
255 255 255
255 255 255
255 255 255
255 255 255
255 255 255
255 255 255
255 255 255
255 255 255
255 255 255
255 255 255
255 255 255
255 255 255
255 255 255
255 255 255
255 255 255
255 255 255
255 255 255
255 255 255
255 255 255
255 255 255
255 255 255
255 255 255
255 255 255
255 255 255
255 255 255
255 255 255
255 255 255
255 255 255
255 255 255
255 255 255
218 218 255
255 255 255
255 255 255
255 255 255
255 255 255
255 255 255
255 255 255
255 255 255
255 255 255
255 255 255
255 255 255
255 255 255
255 255 255
255 255 255
255 255 255
255 255 255
255 255 255
218 218 255
218 218 255
182 218 255
182 182 255
182 182 255
182 182 255
182 182 255
182 182 255
182 182 255
182 182 255
182 182 255
182 182 255
182 182 255
182 182 255
182 182 255
182 182 255
182 182 255
182 182 255
182 182 255
182 182 255
182 182 170
182 182 170
218 218 255
218 218 255
218 218 255
218 218 255
182 182 170
255 255 255
255 255 255
255 255 255
255 255 255
255 255 255
255 255 255
255 255 255
255 255 255
255 255 255
255 255 255
255 255 255
255 255 255
255 255 255
255 255 255
255 255 255
255 255 255
255 255 255
255 255 255
255 255 255
255 255 255
255 255 255
255 255 255
255 255 255
255 255 255
255 255 255
255 255 255
255 255 255
255 255 255
255 255 255
255 255 255
255 255 255
255 255 255
72 72 85
36 36 0
36 36 0
36 36 0
36 36 0
36 36 0
36 36 0
36 36 0
109 72 0
145 109 85
182 145 85
182 145 85
182 145 85
182 145 85
182 145 85
145 109 85
145 109 85
72 36 0
72 36 0
145 72 0
109 72 0
145 72 0
145 72 0
109 72 0
182 109 0
255 182 85
255 182 85
182 145 85
145 72 0
145 72 0
109 72 0
72 72 0
36 36 0
36 36 0
36 36 0
36 36 0
36 36 0
36 36 0
36 36 0
36 36 0
36 36 0
36 36 0
36 36 0
36 36 0
36 36 0
36 36 0
36 36 0
182 182 170
255 255 255
218 218 255
0 0 0
0 0 0
0 0 0
0 0 0
0 0 0
0 0 0
0 0 0
0 0 0
0 0 0
0 0 0
0 0 0
0 0 0
0 0 0
0 0 0
0 0 0
0 0 0
0 0 0
0 0 0
0 0 0
0 0 0
0 0 0
0 0 0
0 0 0
0 0 0
0 0 0
0 0 0
0 0 0
0 0 0
0 0 0
0 0 0
0 0 0
109 72 85
255 255 255
255 255 255
255 255 255
255 255 255
255 255 255
255 255 255
255 255 255
255 255 255
255 255 255
255 255 255
255 255 255
255 255 255
255 255 255
255 255 255
255 255 255
255 255 255
255 255 255
255 255 255
255 255 255
255 255 255
255 255 255
255 255 255
255 255 255
255 255 255
255 255 255
255 255 255
255 255 255
255 255 255
255 255 255
255 255 255
255 255 255
255 255 255
255 255 255
255 255 255
255 255 255
255 255 255
255 255 255
255 255 255
255 255 255
255 255 255
255 255 255
255 255 255
218 218 255
255 255 255
255 255 255
255 255 255
255 255 255
255 255 255
218 255 255
255 255 255
218 218 255
218 218 255
218 218 255
255 255 255
255 255 255
182 182 170
255 255 255
255 255 255
255 255 255
218 218 255
218 218 255
218 218 255
145 182 255
109 145 255
109 145 255
109 145 255
109 145 255
109 145 255
109 145 255
109 145 255
109 145 255
109 145 255
109 145 255
109 145 255
109 145 255
109 145 255
109 145 255
109 145 255
109 145 255
145 182 255
218 255 255
218 218 255
182 182 170
182 182 170
218 218 255
218 218 255
218 218 255
255 255 255
255 255 255
255 255 255
255 255 255
255 255 255
255 255 255
255 255 255
255 255 255
255 255 255
255 255 255
255 255 255
255 255 255
255 255 255
255 255 255
255 255 255
255 255 255
255 255 255
255 255 255
255 255 255
255 255 255
255 255 255
255 255 255
255 255 255
255 255 255
255 255 255
255 255 255
255 255 255
255 255 255
255 255 255
255 255 255
255 255 255
109 109 85
36 36 0
36 36 0
36 36 0
36 36 0
36 36 0
36 36 0
36 36 0
109 72 0
145 109 85
145 145 85
182 145 85
182 145 85
182 145 85
182 145 85
145 109 85
109 72 0
72 36 0
109 36 0
145 72 0
109 72 0
145 72 0
145 72 0
145 72 0
218 145 85
255 182 85
218 145 85
145 109 85
145 109 0
145 72 0
145 72 0
145 72 0
109 72 0
72 36 0
36 36 0
36 36 0
36 36 0
36 36 0
36 36 0
36 36 0
36 36 0
36 36 0
36 36 0
36 36 0
36 36 0
36 36 0
36 36 0
182 182 170
255 255 255
218 218 255
0 0 0
0 0 0
0 0 0
0 0 0
0 0 0
0 0 0
0 0 0
0 0 0
0 0 0
0 0 0
0 0 0
0 0 0
0 0 0
0 0 0
0 0 0
0 0 0
0 0 0
0 0 0
0 0 0
0 0 0
0 0 0
0 0 0
0 0 0
0 0 0
0 0 0
0 0 0
0 0 0
0 0 0
0 0 0
0 0 0
0 0 0
109 72 85
255 255 255
255 255 255
255 255 255
255 255 255
255 255 255
255 255 255
255 255 255
255 255 255
255 255 255
255 255 255
255 255 255
255 255 255
255 255 255
255 255 255
255 255 255
255 255 255
255 255 255
255 255 255
255 255 255
255 255 255
255 255 255
255 255 255
255 255 255
255 255 255
255 255 255
255 255 255
255 255 255
255 255 255
255 255 255
255 255 255
255 255 255
255 255 255
255 255 255
255 255 255
255 255 255
255 255 255
255 255 255
255 255 255
255 255 255
255 255 255
255 255 255
255 255 255
218 218 255
255 255 255
255 255 255
255 255 255
255 255 255
218 255 255
218 255 255
255 255 255
182 182 170
182 182 170
182 182 170
182 182 170
218 218 255
182 182 170
255 255 255
255 255 255
255 255 255
218 218 255
182 182 170
218 218 255
145 182 255
145 182 255
145 182 255
145 182 255
145 182 255
145 182 255
145 182 255
145 182 255
145 182 255
145 182 255
145 182 255
72 109 255
72 109 255
72 109 255
72 109 255
72 109 255
72 109 255
109 145 255
218 218 255
218 218 255
182 182 170
182 182 170
182 182 170
182 182 170
218 218 255
255 255 255
255 255 255
255 255 255
255 255 255
255 255 255
255 255 255
255 255 255
255 255 255
255 255 255
255 255 255
255 255 255
255 255 255
255 255 255
255 255 255
255 255 255
255 255 255
255 255 255
255 255 255
255 255 255
255 255 255
255 255 255
255 255 255
255 255 255
255 255 255
255 255 255
255 255 255
255 255 255
255 255 255
255 255 255
255 255 255
255 255 255
109 109 85
36 36 0
36 36 0
36 36 0
36 36 0
36 36 0
36 36 0
72 36 0
109 72 0
145 109 85
145 145 85
182 145 85
182 145 85
182 145 85
145 109 85
109 72 0
109 36 0
72 36 0
109 72 0
145 72 0
109 72 0
109 72 0
145 72 0
145 72 0
255 145 85
255 145 85
218 145 85
182 109 0
145 109 0
145 109 85
145 109 0
145 109 0
145 72 0
145 72 0
109 72 0
72 72 0
36 36 0
36 36 0
36 36 0
36 36 0
36 36 0
36 36 0
36 36 0
36 36 0
36 36 0
36 36 0
36 36 0
182 182 170
255 255 255
218 218 255
0 0 0
0 0 0
0 0 0
0 0 0
0 0 0
0 0 0
0 0 0
0 0 0
0 0 0
0 0 0
0 0 0
0 0 0
0 0 0
0 0 0
0 0 0
0 0 0
0 0 0
0 0 0
0 0 0
0 0 0
0 0 0
0 0 0
0 0 0
0 0 0
0 0 0
0 0 0
0 0 0
0 0 0
0 0 0
0 0 0
0 0 0
109 72 85
255 255 255
255 255 255
255 255 255
255 255 255
255 255 255
255 255 255
255 255 255
255 255 255
255 255 255
255 255 255
255 255 255
255 255 255
255 255 255
255 255 255
255 255 255
255 255 255
255 255 255
255 255 255
255 255 255
255 255 255
255 255 255
255 255 255
255 255 255
255 255 255
255 255 255
255 255 255
255 255 255
255 255 255
255 255 255
255 255 255
255 255 255
255 255 255
255 255 255
255 255 255
255 255 255
255 255 255
255 255 255
255 255 255
255 255 255
255 255 255
255 255 255
255 255 255
218 218 255
255 255 255
255 255 255
255 255 255
255 255 255
255 255 255
255 255 255
255 255 255
255 255 255
255 255 255
255 255 255
255 255 255
255 255 255
255 255 255
255 255 255
255 255 255
255 255 255
218 218 255
182 182 170
182 218 255
109 145 255
72 109 170
109 145 255
109 145 255
109 145 255
109 145 255
109 145 255
72 109 170
109 145 255
109 145 255
109 145 255
72 109 170
72 109 170
72 109 170
72 109 170
72 109 170
36 109 170
109 145 170
145 145 170
145 145 170
182 182 170
145 145 170
182 182 170
145 145 170
218 218 255
255 255 255
255 255 255
255 255 255
255 255 255
255 255 255
255 255 255
255 255 255
255 255 255
255 255 255
255 255 255
255 255 255
255 255 255
255 255 255
255 255 255
255 255 255
255 255 255
255 255 255
255 255 255
255 255 255
255 255 255
255 255 255
255 255 255
255 255 255
255 255 255
255 255 255
255 255 255
255 255 255
255 255 255
255 255 255
255 255 255
255 255 255
72 72 85
36 36 0
36 36 0
36 36 0
36 36 0
36 36 0
36 36 0
72 36 0
109 109 0
145 109 85
182 145 85
182 145 85
182 145 85
145 109 0
145 72 0
109 72 0
109 36 0
72 36 0
109 72 0
145 72 0
145 72 0
109 72 0
109 72 0
145 72 0
255 182 85
255 145 0
182 109 85
182 109 85
182 109 85
182 109 85
182 109 0
145 109 85
145 109 85
145 109 0
145 72 0
145 72 0
145 72 0
109 72 0
72 36 0
36 36 0
36 36 0
36 36 0
36 36 0
36 36 0
36 36 0
36 36 0
36 36 0
182 182 170
255 255 255
218 218 255
0 0 0
0 0 0
0 0 0
0 0 0
0 0 0
0 0 0
0 0 0
0 0 0
0 0 0
0 0 0
0 0 0
0 0 0
0 0 0
0 0 0
0 0 0
0 0 0
0 0 0
0 0 0
0 0 0
0 0 0
0 0 0
0 0 0
0 0 0
0 0 0
0 0 0
0 0 0
0 0 0
0 0 0
0 0 0
0 0 0
0 0 0
109 72 85
255 255 255
255 255 255
255 255 255
255 255 255
255 255 255
255 255 255
255 255 255
255 255 255
255 255 255
255 255 255
255 255 255
255 255 255
255 255 255
255 255 255
255 255 255
255 255 255
255 255 255
255 255 255
255 255 255
255 255 255
255 255 255
255 255 255
255 255 255
255 255 255
255 255 255
255 255 255
255 255 255
255 255 255
255 255 255
255 255 255
255 255 255
255 255 255
255 255 255
255 255 255
255 255 255
255 255 255
255 255 255
255 255 255
255 255 255
255 255 255
255 255 255
255 255 255
218 218 255
255 255 255
255 255 255
255 255 255
255 255 255
255 255 255
255 255 255
255 255 255
255 255 255
255 255 255
255 255 255
255 255 255
255 255 255
255 255 255
255 255 255
255 255 255
255 255 255
182 182 170
109 109 170
145 145 170
109 109 170
109 109 170
109 109 170
109 109 170
109 109 170
109 109 170
109 109 170
109 109 170
109 109 170
109 109 170
109 109 170
109 109 170
109 109 170
109 109 170
109 109 170
109 109 170
109 109 170
109 109 170
109 109 85
109 109 170
145 145 170
182 182 170
182 182 170
182 182 170
218 218 255
255 255 255
255 255 255
255 255 255
255 255 255
255 255 255
255 255 255
255 255 255
255 255 255
255 255 255
255 255 255
255 255 255
255 255 255
255 255 255
255 255 255
255 255 255
255 255 255
255 255 255
255 255 255
255 255 255
255 255 255
255 255 255
255 255 255
255 255 255
255 255 255
255 255 255
255 255 255
255 255 255
255 255 255
255 255 255
255 255 255
255 255 255
72 72 85
36 36 0
36 36 0
36 36 0
36 36 0
36 36 0
36 36 0
36 36 0
109 72 0
145 109 85
145 109 85
145 109 0
145 72 0
145 72 0
145 72 0
109 72 0
109 72 0
109 72 0
109 72 0
145 72 0
109 72 0
109 72 0
145 72 0
182 72 0
255 182 85
218 145 85
145 109 85
145 109 85
182 109 85
182 109 85
182 109 85
182 109 85
182 109 85
145 109 0
145 109 85
145 109 0
145 109 0
145 72 0
145 72 0
109 72 0
72 36 0
72 72 0
72 72 85
72 72 85
72 72 85
72 72 85
36 36 0
182 182 170
255 255 255
218 218 255
0 0 0
0 0 0
0 0 0
0 0 0
0 0 0
0 0 0
0 0 0
0 0 0
0 0 0
0 0 0
0 0 0
0 0 0
0 0 0
0 0 0
0 0 0
0 0 0
0 0 0
0 0 0
0 0 0
0 0 0
0 0 0
0 0 0
0 0 0
0 0 0
0 0 0
0 0 0
0 0 0
0 0 0
0 0 0
0 0 0
0 0 0
109 72 85
255 255 255
255 255 255
255 255 255
255 255 255
255 255 255
255 255 255
255 255 255
255 255 255
255 255 255
255 255 255
255 255 255
255 255 255
255 255 255
255 255 255
255 255 255
255 255 255
255 255 255
255 255 255
255 255 255
255 255 255
255 255 255
255 255 255
255 255 255
255 255 255
255 255 255
255 255 255
255 255 255
255 255 255
255 255 255
255 255 255
255 255 255
255 255 255
255 255 255
255 255 255
255 255 255
255 255 255
255 255 255
255 255 255
255 255 255
255 255 255
255 255 255
255 255 255
218 218 255
255 255 255
255 255 255
255 255 255
255 255 255
218 218 255
145 145 170
182 182 170
182 182 170
182 218 170
182 182 170
182 182 170
182 182 170
182 182 170
145 145 170
182 182 170
182 182 170
72 72 85
0 0 0
0 0 0
0 0 0
0 0 0
0 0 0
0 0 0
0 0 0
0 0 0
0 0 0
0 0 0
0 0 0
0 0 0
0 0 0
0 0 0
0 0 0
0 0 0
0 0 0
0 0 0
0 0 0
0 0 0
0 0 0
0 0 0
0 0 0
218 218 255
255 255 255
255 255 255
255 255 255
255 255 255
255 255 255
255 255 255
255 255 255
255 255 255
255 255 255
255 255 255
255 255 255
255 255 255
255 255 255
255 255 255
255 255 255
255 255 255
255 255 255
255 255 255
255 255 255
255 255 255
255 255 255
255 255 255
255 255 255
255 255 255
255 255 255
255 255 255
255 255 255
255 255 255
255 255 255
255 255 255
255 255 255
255 255 255
255 255 255
255 255 255
72 72 85
36 36 0
36 36 0
36 36 0
36 36 0
36 36 0
36 36 0
36 36 0
72 36 0
109 72 0
145 72 0
145 72 0
145 72 0
145 72 0
145 72 0
109 72 0
109 72 0
109 72 0
145 72 0
145 72 0
109 72 0
109 36 0
109 72 0
182 109 0
255 145 85
182 145 85
145 109 85
145 109 85
145 109 85
145 109 85
182 109 85
182 109 85
182 109 85
182 109 85
182 109 85
145 109 85
145 109 0
145 109 0
145 109 0
145 72 0
145 72 0
109 72 0
109 72 0
72 72 85
72 72 85
72 72 85
72 72 85
182 182 170
255 255 255
218 218 255
0 0 0
0 0 0
0 0 0
0 0 0
0 0 0
0 0 0
0 0 0
0 0 0
0 0 0
0 0 0
0 0 0
0 0 0
0 0 0
0 0 0
0 0 0
0 0 0
0 0 0
0 0 0
0 0 0
0 0 0
0 0 0
0 0 0
0 0 0
0 0 0
0 0 0
0 0 0
0 0 0
0 0 0
0 0 0
0 0 0
0 0 0
109 72 85
255 255 255
255 255 255
255 255 255
255 255 255
255 255 255
255 255 255
255 255 255
255 255 255
255 255 255
255 255 255
255 255 255
255 255 255
255 255 255
255 255 255
255 255 255
255 255 255
255 255 255
255 255 255
255 255 255
255 255 255
255 255 255
255 255 255
255 255 255
255 255 255
255 255 255
255 255 255
255 255 255
255 255 255
255 255 255
255 255 255
255 255 255
255 255 255
255 255 255
255 255 255
255 255 255
255 255 255
255 255 255
255 255 255
255 255 255
255 255 255
255 255 255
255 255 255
218 218 255
255 255 255
255 255 255
255 255 255
255 255 255
255 255 255
255 255 255
255 255 255
255 255 255
255 255 255
255 255 255
218 218 255
218 218 255
255 255 255
218 218 255
255 255 255
255 255 255
109 109 85
0 0 0
0 0 0
0 0 0
0 0 0
0 0 0
0 0 0
0 0 0
0 0 0
0 0 0
0 0 0
0 0 0
0 0 0
0 0 0
0 0 0
0 0 0
0 0 0
0 0 0
0 0 0
0 0 0
0 0 0
0 0 0
0 0 0
0 0 0
218 218 255
255 255 255
255 255 255
255 255 255
255 255 255
255 255 255
255 255 255
255 255 255
255 255 255
255 255 255
255 255 255
255 255 255
255 255 255
255 255 255
255 255 255
255 255 255
255 255 255
255 255 255
255 255 255
255 255 255
255 255 255
255 255 255
255 255 255
255 255 255
255 255 255
255 255 255
255 255 255
255 255 255
255 255 255
255 255 255
255 255 255
255 255 255
255 255 255
255 255 255
255 255 255
72 72 85
36 36 0
36 36 0
36 36 0
36 36 0
36 36 0
36 36 0
36 36 0
72 36 0
109 72 0
145 72 0
145 72 0
145 72 0
145 72 0
145 72 0
109 72 0
109 72 0
109 72 0
109 72 0
109 72 0
109 72 0
109 36 0
109 36 0
182 109 85
218 145 85
182 109 0
145 109 0
145 109 85
145 109 85
145 109 85
145 109 85
145 109 85
182 109 85
182 109 85
182 109 85
182 109 85
182 109 85
145 109 85
145 109 0
145 109 0
145 109 0
145 109 0
145 72 0
145 72 0
109 72 0
72 72 0
72 72 85
182 218 255
255 255 255
218 218 255
0 0 0
0 0 0
0 0 0
0 0 0
0 0 0
0 0 0
0 0 0
0 0 0
0 0 0
0 0 0
0 0 0
0 0 0
0 0 0
0 0 0
0 0 0
0 0 0
0 0 0
0 0 0
0 0 0
0 0 0
0 0 0
0 0 0
0 0 0
0 0 0
0 0 0
0 0 0
0 0 0
0 0 0
0 0 0
0 0 0
0 0 0
109 72 85
255 255 255
255 255 255
255 255 255
255 255 255
255 255 255
255 255 255
255 255 255
255 255 255
255 255 255
255 255 255
255 255 255
255 255 255
255 255 255
255 255 255
255 255 255
255 255 255
255 255 255
255 255 255
255 255 255
255 255 255
255 255 255
255 255 255
255 255 255
255 255 255
255 255 255
255 255 255
255 255 255
255 255 255
255 255 255
255 255 255
255 255 255
255 255 255
255 255 255
255 255 255
255 255 255
255 255 255
255 255 255
255 255 255
255 255 255
255 255 255
255 255 255
255 255 255
218 218 255
255 255 255
255 255 255
255 255 255
255 255 255
255 255 255
255 255 255
255 255 255
255 255 255
255 255 255
255 255 255
255 255 255
255 255 255
255 255 255
255 255 255
255 255 255
255 255 255
109 109 85
0 0 0
0 0 0
0 0 0
0 0 0
0 0 0
0 0 0
0 0 0
0 0 0
0 0 0
0 0 0
0 0 0
0 0 0
0 0 0
0 0 0
0 0 0
0 0 0
0 0 0
0 0 0
0 0 0
0 0 0
0 0 0
0 0 0
0 0 0
218 218 255
255 255 255
255 255 255
255 255 255
255 255 255
255 255 255
255 255 255
255 255 255
255 255 255
255 255 255
255 255 255
255 255 255
255 255 255
255 255 255
255 255 255
255 255 255
255 255 255
255 255 255
255 255 255
255 255 255
255 255 255
255 255 255
255 255 255
255 255 255
255 255 255
255 255 255
255 255 255
255 255 255
255 255 255
255 255 255
255 255 255
255 255 255
255 255 255
255 255 255
255 255 255
72 72 85
36 36 0
36 36 0
36 36 0
36 36 0
36 36 0
36 36 0
36 36 0
72 36 0
109 72 0
145 72 0
145 72 0
145 72 0
145 72 0
145 72 0
109 72 0
109 72 0
109 72 0
109 72 0
109 72 0
109 72 0
109 36 0
72 36 0
182 109 85
218 145 85
182 109 0
145 109 0
145 109 0
145 109 0
145 109 85
145 109 85
145 109 85
145 109 85
145 109 85
182 109 85
182 109 85
182 109 85
182 109 85
182 109 85
182 109 85
145 109 85
145 109 85
145 109 0
145 109 0
145 72 0
145 72 0
109 72 0
218 182 170
255 255 255
218 218 255
0 0 0
0 0 0
0 0 0
0 0 0
0 0 0
0 0 0
0 0 0
0 0 0
0 0 0
0 0 0
0 0 0
0 0 0
0 0 0
0 0 0
0 0 0
0 0 0
0 0 0
0 0 0
0 0 0
0 0 0
0 0 0
0 0 0
0 0 0
0 0 0
0 0 0
0 0 0
0 0 0
0 0 0
0 0 0
0 0 0
0 0 0
109 72 85
255 255 255
255 255 255
255 255 255
255 255 255
255 255 255
255 255 255
255 255 255
255 255 255
255 255 255
255 255 255
255 255 255
255 255 255
255 255 255
255 255 255
255 255 255
255 255 255
255 255 255
255 255 255
255 255 255
255 255 255
255 255 255
255 255 255
255 255 255
255 255 255
255 255 255
255 255 255
255 255 255
255 255 255
255 255 255
255 255 255
255 255 255
255 255 255
255 255 255
255 255 255
255 255 255
255 255 255
255 255 255
255 255 255
255 255 255
255 255 255
255 255 255
255 255 255
218 218 255
255 255 255
255 255 255
255 255 255
255 255 255
218 218 255
182 182 170
182 182 170
182 182 170
218 218 255
182 182 170
182 182 170
218 218 255
182 182 170
182 182 170
182 182 170
255 255 255
109 109 85
0 0 0
0 0 0
0 0 0
0 0 0
0 0 0
0 0 0
0 0 0
0 0 0
0 0 0
0 0 0
0 0 0
0 0 0
0 0 0
0 0 0
0 0 0
0 0 0
36 36 0
218 218 255
218 218 255
218 218 255
218 218 255
218 218 255
218 218 255
255 255 255
255 255 255
255 255 255
182 218 170
182 182 170
182 182 170
182 182 170
255 255 255
255 255 255
255 255 255
255 255 255
255 255 255
255 255 255
255 255 255
255 255 255
255 255 255
255 255 255
255 255 255
255 255 255
255 255 255
255 255 255
255 255 255
255 255 255
255 255 255
255 255 255
255 255 255
255 255 255
255 255 255
255 255 255
255 255 255
255 255 255
255 255 255
255 255 255
255 255 255
255 255 255
109 109 85
36 36 0
36 36 0
36 36 0
36 36 0
36 36 0
36 36 0
36 36 0
72 36 0
109 72 0
145 72 0
145 72 0
145 72 0
145 72 0
145 72 0
109 72 0
109 72 0
109 72 0
109 72 0
109 72 0
109 72 0
72 36 0
72 36 0
145 109 0
218 145 85
145 109 0
109 72 0
145 72 0
145 109 0
145 109 0
145 109 0
145 109 85
145 109 85
145 109 85
145 109 85
145 109 85
182 109 85
182 109 85
182 109 0
182 109 85
182 109 85
182 109 85
182 109 0
145 109 0
145 109 0
145 109 0
145 72 0
218 182 170
255 255 255
218 218 255
0 0 0
0 0 0
0 0 0
0 0 0
0 0 0
0 0 0
0 0 0
0 0 0
0 0 0
0 0 0
0 0 0
0 0 0
0 0 0
0 0 0
0 0 0
0 0 0
0 0 0
0 0 0
0 0 0
0 0 0
0 0 0
0 0 0
0 0 0
0 0 0
0 0 0
0 0 0
0 0 0
0 0 0
0 0 0
0 0 0
0 0 0
109 72 85
255 255 255
255 255 255
255 255 255
255 255 255
255 255 255
255 255 255
255 255 255
255 255 255
255 255 255
255 255 255
255 255 255
255 255 255
255 255 255
255 255 255
255 255 255
255 255 255
255 255 255
255 255 255
255 255 255
255 255 255
255 255 255
255 255 255
255 255 255
255 255 255
255 255 255
255 255 255
255 255 255
255 255 255
255 255 255
255 255 255
255 255 255
255 255 255
255 255 255
255 255 255
255 255 255
255 255 255
255 255 255
255 255 255
255 255 255
255 255 255
255 255 255
255 255 255
218 218 255
255 255 255
255 255 255
255 255 255
255 255 255
255 255 255
182 182 170
182 182 170
218 218 255
218 218 255
182 218 170
182 218 170
218 218 255
182 182 170
218 218 255
218 218 255
255 255 255
109 109 85
0 0 0
0 0 0
0 0 0
0 0 0
0 0 0
0 0 0
0 0 0
0 0 0
0 0 0
0 0 0
0 0 0
0 0 0
0 0 0
0 0 0
0 0 0
0 0 0
36 36 0
255 255 255
255 255 255
255 255 255
255 255 255
255 255 255
255 255 255
255 255 255
255 255 255
255 255 255
218 218 255
182 182 170
218 218 255
218 218 255
255 255 255
255 255 255
255 255 255
255 255 255
255 255 255
255 255 255
255 255 255
255 255 255
255 255 255
255 255 255
255 255 255
255 255 255
255 255 255
255 255 255
255 255 255
255 255 255
255 255 255
255 255 255
255 255 255
255 255 255
255 255 255
255 255 255
255 255 255
255 255 255
255 255 255
255 255 255
255 255 255
255 255 255
72 72 85
36 36 0
36 36 0
36 36 0
36 36 0
36 36 0
36 36 0
36 36 0
72 36 0
109 72 0
145 72 0
145 72 0
145 72 0
145 72 0
145 72 0
109 72 0
109 72 0
109 72 0
109 72 0
109 36 0
109 36 0
72 36 0
72 36 0
145 109 0
182 145 85
145 72 0
109 36 0
109 72 0
109 72 0
145 72 0
145 109 0
145 109 0
145 109 0
145 109 85
145 109 85
145 109 85
145 109 85
182 109 0
182 109 85
182 109 85
182 109 85
182 109 85
182 109 85
182 109 85
145 109 85
145 109 85
145 109 0
218 218 170
255 255 255
218 218 255
0 0 0
0 0 0
0 0 0
0 0 0
0 0 0
0 0 0
0 0 0
0 0 0
0 0 0
0 0 0
0 0 0
0 0 0
0 0 0
0 0 0
0 0 0
0 0 0
0 0 0
0 0 0
0 0 0
0 0 0
0 0 0
0 0 0
0 0 0
0 0 0
0 0 0
0 0 0
0 0 0
0 0 0
0 0 0
0 0 0
0 0 0
109 72 85
255 255 255
255 255 255
255 255 255
255 255 255
255 255 255
255 255 255
255 255 255
255 255 255
255 255 255
255 255 255
255 255 255
255 255 255
255 255 255
255 255 255
255 255 255
255 255 255
255 255 255
255 255 255
255 255 255
255 255 255
255 255 255
255 255 255
255 255 255
255 255 255
255 255 255
255 255 255
255 255 255
255 255 255
255 255 255
255 255 255
255 255 255
255 255 255
255 255 255
255 255 255
255 255 255
255 255 255
255 255 255
255 255 255
255 255 255
255 255 255
255 255 255
255 255 255
218 218 255
255 255 255
255 255 255
255 255 255
255 255 255
255 255 255
255 255 255
255 255 255
255 255 255
255 255 255
255 255 255
255 255 255
255 255 255
255 255 255
255 255 255
255 255 255
255 255 255
109 109 85
0 0 0
0 0 0
0 0 0
0 0 0
0 0 0
0 0 0
0 0 0
0 0 0
0 0 0
0 0 0
0 0 0
0 0 0
0 0 0
0 0 0
0 0 0
0 0 0
36 36 0
255 255 255
255 255 255
255 255 255
255 255 255
255 255 255
255 255 255
255 255 255
255 255 255
255 255 255
255 255 255
255 255 255
255 255 255
255 255 255
255 255 255
255 255 255
255 255 255
255 255 255
255 255 255
255 255 255
255 255 255
255 255 255
255 255 255
255 255 255
255 255 255
255 255 255
255 255 255
255 255 255
255 255 255
255 255 255
255 255 255
255 255 255
255 255 255
255 255 255
255 255 255
255 255 255
255 255 255
255 255 255
255 255 255
255 255 255
255 255 255
255 255 255
72 72 85
36 36 0
36 36 0
36 36 0
36 36 0
36 36 0
36 36 0
36 36 0
72 36 0
109 72 0
145 72 0
145 72 0
145 72 0
145 72 0
145 72 0
109 72 0
109 72 0
109 36 0
72 36 0
72 36 0
72 36 0
72 36 0
72 36 0
109 72 0
182 145 85
109 72 0
72 36 0
72 72 0
109 72 0
109 72 0
109 72 0
145 72 0
145 72 0
145 109 0
145 109 85
145 109 85
145 109 85
145 109 85
145 109 85
145 109 85
182 109 85
182 109 85
182 109 85
182 109 85
182 109 85
182 109 85
145 109 0
218 218 170
255 255 255
218 218 255
0 0 0
0 0 0
0 0 0
0 0 0
0 0 0
0 0 0
0 0 0
0 0 0
0 0 0
0 0 0
0 0 0
0 0 0
0 0 0
0 0 0
0 0 0
0 0 0
0 0 0
0 0 0
0 0 0
0 0 0
0 0 0
0 0 0
0 0 0
0 0 0
0 0 0
0 0 0
0 0 0
0 0 0
0 0 0
0 0 0
0 0 0
109 72 85
255 255 255
255 255 255
255 255 255
255 255 255
255 255 255
255 255 255
255 255 255
255 255 255
255 255 255
255 255 255
255 255 255
255 255 255
255 255 255
255 255 255
255 255 255
255 255 255
255 255 255
255 255 255
255 255 255
255 255 255
255 255 255
255 255 255
255 255 255
255 255 255
255 255 255
255 255 255
255 255 255
255 255 255
255 255 255
255 255 255
255 255 255
255 255 255
255 255 255
255 255 255
255 255 255
255 255 255
255 255 255
255 255 255
255 255 255
255 255 255
255 255 255
255 255 255
218 218 255
255 255 255
255 255 255
255 255 255
255 255 255
218 218 255
218 218 255
218 218 255
218 218 255
218 218 255
255 255 255
218 218 255
218 218 255
218 218 255
218 218 255
218 218 255
218 218 255
109 109 85
0 0 0
0 0 0
0 0 0
0 0 0
0 0 0
0 0 0
0 0 0
0 0 0
0 0 0
0 0 0
0 0 0
0 0 0
0 0 0
0 0 0
0 0 0
0 0 0
36 36 0
255 255 255
255 255 255
255 255 255
255 255 255
255 255 255
255 255 255
255 255 255
255 255 255
255 255 255
218 218 255
218 218 255
218 218 255
218 218 255
218 218 255
255 255 255
255 255 255
218 218 255
218 218 255
218 218 255
255 255 255
255 255 255
255 255 255
255 255 255
255 255 255
255 255 255
255 255 255
255 255 255
255 255 255
255 255 255
255 255 255
255 255 255
255 255 255
255 255 255
255 255 255
255 255 255
255 255 255
255 255 255
255 255 255
255 255 255
255 255 255
255 255 255
72 72 85
36 36 0
36 36 0
36 36 0
36 36 0
36 36 0
36 36 0
36 36 0
72 36 0
109 72 0
145 72 0
145 72 0
145 72 0
145 72 0
145 72 0
109 72 0
109 72 0
72 36 0
72 36 0
72 36 0
72 36 0
36 36 0
36 36 0
72 36 0
182 109 85
109 72 0
36 36 0
72 36 0
72 36 0
72 72 0
109 72 0
109 72 0
109 72 0
145 72 0
145 109 0
145 109 0
145 109 85
145 109 85
145 109 85
145 109 85
145 109 85
145 109 85
145 109 85
182 109 85
182 109 85
182 109 85
182 109 85
218 218 170
255 255 255
218 218 255
0 0 0
0 0 0
0 0 0
0 0 0
0 0 0
0 0 0
0 0 0
0 0 0
0 0 0
0 0 0
0 0 0
0 0 0
0 0 0
0 0 0
0 0 0
0 0 0
0 0 0
0 0 0
0 0 0
0 0 0
0 0 0
0 0 0
0 0 0
0 0 0
0 0 0
0 0 0
0 0 0
0 0 0
0 0 0
0 0 0
0 0 0
109 72 85
255 255 255
255 255 255
255 255 255
255 255 255
255 255 255
255 255 255
255 255 255
255 255 255
255 255 255
255 255 255
255 255 255
255 255 255
255 255 255
255 255 255
255 255 255
255 255 255
255 255 255
255 255 255
255 255 255
255 255 255
255 255 255
255 255 255
255 255 255
255 255 255
255 255 255
255 255 255
255 255 255
255 255 255
255 255 255
255 255 255
255 255 255
255 255 255
255 255 255
255 255 255
255 255 255
255 255 255
255 255 255
255 255 255
255 255 255
255 255 255
255 255 255
255 255 255
218 218 255
255 255 255
255 255 255
255 255 255
255 255 255
218 218 255
182 182 170
182 182 170
182 182 170
182 182 170
182 182 170
218 218 255
182 182 170
182 182 170
182 182 170
218 218 255
182 182 170
72 72 85
0 0 0
0 0 0
0 0 0
0 0 0
0 0 0
0 0 0
0 0 0
0 0 0
0 0 0
0 0 0
0 0 0
0 0 0
0 0 0
0 0 0
0 0 0
0 0 0
36 36 0
255 255 255
255 255 255
255 255 255
255 255 255
255 255 255
255 255 255
255 255 255
255 255 255
255 255 255
182 182 170
182 182 170
182 182 170
182 182 170
182 182 170
182 182 170
218 218 255
182 182 170
182 182 170
182 182 170
255 255 255
255 255 255
255 255 255
255 255 255
255 255 255
255 255 255
255 255 255
255 255 255
255 255 255
255 255 255
255 255 255
255 255 255
255 255 255
255 255 255
255 255 255
255 255 255
255 255 255
255 255 255
255 255 255
255 255 255
255 255 255
255 255 255
72 72 85
36 36 0
36 36 0
36 36 0
36 36 0
36 36 0
36 36 0
36 36 0
72 36 0
109 72 0
145 72 0
145 72 0
145 72 0
145 72 0
145 72 0
109 72 0
109 72 0
72 36 0
72 36 0
36 36 0
36 36 0
36 0 0
36 0 0
36 36 0
145 109 85
109 72 0
36 0 0
36 0 0
36 36 0
72 36 0
72 72 0
72 72 0
109 72 0
109 72 0
109 72 0
145 72 0
145 109 0
145 109 85
145 109 85
145 109 85
145 109 85
145 109 85
145 109 85
145 109 85
182 109 85
182 109 85
182 109 85
218 218 170
255 255 255
218 218 255
0 0 0
0 0 0
0 0 0
0 0 0
0 0 0
0 0 0
0 0 0
0 0 0
0 0 0
0 0 0
0 0 0
0 0 0
0 0 0
0 0 0
0 0 0
0 0 0
0 0 0
0 0 0
0 0 0
0 0 0
0 0 0
0 0 0
0 0 0
0 0 0
0 0 0
0 0 0
0 0 0
0 0 0
0 0 0
0 0 0
0 0 0
109 72 85
255 255 255
255 255 255
255 255 255
255 255 255
255 255 255
255 255 255
255 255 255
255 255 255
255 255 255
255 255 255
255 255 255
255 255 255
255 255 255
255 255 255
255 255 255
255 255 255
255 255 255
255 255 255
255 255 255
255 255 255
255 255 255
255 255 255
255 255 255
255 255 255
255 255 255
255 255 255
255 255 255
255 255 255
255 255 255
255 255 255
255 255 255
255 255 255
255 255 255
255 255 255
255 255 255
255 255 255
255 255 255
255 255 255
255 255 255
255 255 255
255 255 255
255 255 255
218 218 255
255 255 255
255 255 255
255 255 255
255 255 255
255 255 255
255 255 255
255 255 255
255 255 255
255 255 255
255 255 255
255 255 255
255 255 255
255 255 255
255 255 255
255 255 255
255 255 255
109 109 85
0 0 0
0 0 0
0 0 0
0 0 0
0 0 0
0 0 0
0 0 0
0 0 0
0 0 0
0 0 0
0 0 0
0 0 0
0 0 0
0 0 0
0 0 0
0 0 0
36 36 0
255 255 255
255 255 255
255 255 255
255 255 255
255 255 255
255 255 255
255 255 255
255 255 255
255 255 255
218 218 255
255 255 255
255 255 255
255 255 255
255 255 255
218 218 255
255 255 255
255 255 255
255 255 255
255 255 255
255 255 255
255 255 255
255 255 255
255 255 255
255 255 255
255 255 255
255 255 255
255 255 255
255 255 255
255 255 255
255 255 255
255 255 255
255 255 255
255 255 255
255 255 255
255 255 255
255 255 255
255 255 255
255 255 255
255 255 255
255 255 255
255 255 255
72 72 85
36 36 0
36 36 0
36 36 0
36 36 0
36 36 0
36 36 0
36 36 0
72 36 0
109 72 0
145 72 0
145 72 0
145 72 0
145 72 0
145 72 0
109 72 0
109 72 0
72 36 0
36 36 0
36 0 0
36 0 0
0 0 0
0 0 0
0 0 0
109 72 0
109 72 0
36 36 0
0 0 0
0 0 0
36 36 0
72 36 0
72 36 0
72 72 0
109 72 0
109 72 0
109 72 0
109 72 0
145 72 0
145 109 0
145 109 85
145 109 85
145 109 85
145 109 85
145 109 85
145 109 85
145 109 85
145 109 85
218 218 170
255 255 255
218 218 255
0 0 0
0 0 0
0 0 0
0 0 0
0 0 0
0 0 0
0 0 0
0 0 0
0 0 0
0 0 0
0 0 0
0 0 0
0 0 0
0 0 0
0 0 0
0 0 0
0 0 0
0 0 0
0 0 0
0 0 0
0 0 0
0 0 0
0 0 0
0 0 0
0 0 0
0 0 0
0 0 0
0 0 0
0 0 0
0 0 0
0 0 0
109 72 85
255 255 255
255 255 255
255 255 255
255 255 255
255 255 255
255 255 255
255 255 255
255 255 255
255 255 255
255 255 255
255 255 255
255 255 255
255 255 255
255 255 255
255 255 255
255 255 255
255 255 255
255 255 255
255 255 255
255 255 255
255 255 255
255 255 255
255 255 255
255 255 255
255 255 255
255 255 255
255 255 255
255 255 255
255 255 255
255 255 255
255 255 255
255 255 255
255 255 255
255 255 255
255 255 255
255 255 255
255 255 255
255 255 255
255 255 255
255 255 255
255 255 255
255 255 255
218 218 255
255 255 255
255 255 255
255 255 255
255 255 255
255 255 255
255 255 255
255 255 255
255 255 255
255 255 255
255 255 255
255 255 255
255 255 255
255 255 255
255 255 255
255 255 255
255 255 255
109 109 85
0 0 0
0 0 0
0 0 0
0 0 0
0 0 0
0 0 0
0 0 0
0 0 0
0 0 0
0 0 0
0 0 0
0 0 0
0 0 0
0 0 0
0 0 0
0 0 0
36 36 0
255 255 255
255 255 255
255 255 255
255 255 255
255 255 255
255 255 255
255 255 255
255 255 255
255 255 255
255 255 255
255 255 255
255 255 255
255 255 255
255 255 255
255 255 255
255 255 255
255 255 255
255 255 255
255 255 255
255 255 255
255 255 255
255 255 255
255 255 255
255 255 255
255 255 255
255 255 255
255 255 255
255 255 255
255 255 255
255 255 255
255 255 255
255 255 255
255 255 255
255 255 255
255 255 255
255 255 255
255 255 255
255 255 255
255 255 255
255 255 255
255 255 255
72 72 85
36 36 0
36 36 0
36 36 0
36 36 0
36 36 0
36 36 0
36 36 0
72 36 0
109 72 0
145 72 0
145 72 0
145 72 0
145 72 0
145 72 0
109 72 0
109 72 0
72 36 0
36 0 0
0 0 0
0 0 0
0 0 0
36 36 0
36 36 0
36 36 0
109 72 0
72 36 0
0 0 0
0 0 0
0 0 0
36 0 0
36 36 0
72 36 0
72 36 0
72 72 0
109 72 0
109 72 0
109 72 0
109 72 0
145 72 0
145 109 0
145 109 85
145 109 85
145 109 85
145 109 85
145 109 85
145 109 0
218 218 170
255 255 255
218 218 255
0 0 0
0 0 0
0 0 0
0 0 0
0 0 0
0 0 0
0 0 0
0 0 0
0 0 0
0 0 0
0 0 0
0 0 0
0 0 0
0 0 0
0 0 0
0 0 0
0 0 0
0 0 0
0 0 0
0 0 0
0 0 0
0 0 0
0 0 0
0 0 0
0 0 0
0 0 0
0 0 0
0 0 0
0 0 0
0 0 0
0 0 0
109 72 85
255 255 255
255 255 255
255 255 255
255 255 255
255 255 255
255 255 255
255 255 255
255 255 255
255 255 255
255 255 255
255 255 255
255 255 255
255 255 255
255 255 255
255 255 255
255 255 255
255 255 255
255 255 255
255 255 255
255 255 255
255 255 255
255 255 255
255 255 255
255 255 255
255 255 255
255 255 255
255 255 255
255 255 255
255 255 255
255 255 255
255 255 255
255 255 255
255 255 255
255 255 255
255 255 255
255 255 255
255 255 255
255 255 255
255 255 255
255 255 255
255 255 255
255 255 255
218 218 255
255 255 255
255 255 255
255 255 255
255 255 255
218 218 255
182 182 170
182 182 170
182 182 170
218 218 255
182 182 170
182 182 170
182 182 170
182 182 170
182 182 170
218 218 255
255 255 255
109 109 85
0 0 0
0 0 0
0 0 0
0 0 0
0 0 0
109 109 85
218 218 255
218 218 255
218 218 255
218 218 255
218 218 255
218 218 255
218 218 255
218 218 255
218 218 255
218 218 255
218 218 255
255 255 255
255 255 255
255 255 255
255 255 255
255 255 255
255 255 255
255 255 255
255 255 255
255 255 255
255 255 255
255 255 255
255 255 255
255 255 255
255 255 255
255 255 255
255 255 255
255 255 255
255 255 255
255 255 255
255 255 255
255 255 255
255 255 255
255 255 255
255 255 255
255 255 255
255 255 255
255 255 255
255 255 255
255 255 255
255 255 255
255 255 255
255 255 255
255 255 255
255 255 255
255 255 255
255 255 255
255 255 255
218 218 255
255 255 255
255 255 255
255 255 255
72 72 85
36 36 0
36 36 0
36 36 0
72 72 85
72 72 85
72 72 85
72 72 85
72 36 0
109 72 0
145 72 0
145 72 0
145 72 0
145 72 0
145 72 0
109 72 0
109 72 0
72 36 0
36 0 0
36 36 0
72 72 85
72 72 85
72 72 85
72 72 85
72 72 85
72 72 0
72 36 0
36 0 0
36 36 0
36 36 0
0 0 0
0 0 0
36 0 0
36 36 0
72 36 0
72 36 0
72 72 0
109 72 0
109 72 0
109 72 0
145 72 0
145 109 0
145 109 0
145 109 85
145 109 85
145 109 85
145 109 0
218 218 170
255 255 255
218 218 255
0 0 0
0 0 0
0 0 0
0 0 0
0 0 0
0 0 0
0 0 0
0 0 0
0 0 0
0 0 0
0 0 0
0 0 0
0 0 0
0 0 0
0 0 0
0 0 0
0 0 0
0 0 0
0 0 0
0 0 0
0 0 0
0 0 0
0 0 0
0 0 0
0 0 0
0 0 0
0 0 0
0 0 0
0 0 0
0 0 0
0 0 0
109 72 85
255 255 255
255 255 255
255 255 255
255 255 255
255 255 255
255 255 255
255 255 255
255 255 255
255 255 255
255 255 255
255 255 255
255 255 255
255 255 255
255 255 255
255 255 255
255 255 255
255 255 255
255 255 255
255 255 255
255 255 255
255 255 255
255 255 255
255 255 255
255 255 255
255 255 255
255 255 255
255 255 255
255 255 255
255 255 255
255 255 255
255 255 255
255 255 255
255 255 255
255 255 255
255 255 255
255 255 255
255 255 255
255 255 255
255 255 255
255 255 255
255 255 255
255 255 255
218 218 255
255 255 255
255 255 255
255 255 255
255 255 255
255 255 255
218 218 255
218 218 255
218 218 255
255 255 255
218 218 255
218 218 255
255 255 255
218 218 255
218 218 255
218 218 255
255 255 255
109 109 85
0 0 0
0 0 0
0 0 0
0 0 0
0 0 0
145 145 170
255 255 255
255 255 255
255 255 255
255 255 255
255 255 255
255 255 255
255 255 255
255 255 255
255 255 255
255 255 255
255 255 255
255 255 255
255 255 255
255 255 255
255 255 255
255 255 255
255 255 255
255 255 255
255 255 255
255 255 255
255 255 255
255 255 255
255 255 255
255 255 255
255 255 255
255 255 255
255 255 255
255 255 255
255 255 255
255 255 255
255 255 255
255 255 255
255 255 255
255 255 255
255 255 255
255 255 255
255 255 255
255 255 255
255 255 255
255 255 255
255 255 255
255 255 255
255 255 255
255 255 255
255 255 255
255 255 255
255 255 255
255 255 255
255 255 255
255 255 255
255 255 255
255 255 255
72 72 85
36 36 0
36 36 0
36 36 0
72 72 85
72 72 85
72 72 85
72 72 85
72 36 0
109 72 0
145 72 0
145 72 0
145 72 0
145 72 0
145 72 0
109 72 0
109 72 0
72 36 0
36 36 0
72 72 85
72 72 85
72 72 85
72 72 85
72 72 85
72 72 85
72 72 85
72 72 85
72 72 85
72 72 85
72 72 85
72 72 85
36 36 0
0 0 0
0 0 0
36 36 0
36 36 0
72 36 0
72 36 0
72 72 0
109 72 0
109 72 0
109 72 0
145 72 0
145 72 0
145 109 0
145 109 85
145 109 0
218 218 170
255 255 255
218 218 255
0 0 0
0 0 0
0 0 0
0 0 0
0 0 0
0 0 0
0 0 0
0 0 0
0 0 0
0 0 0
0 0 0
0 0 0
0 0 0
0 0 0
0 0 0
0 0 0
0 0 0
0 0 0
0 0 0
0 0 0
0 0 0
0 0 0
0 0 0
0 0 0
0 0 0
0 0 0
0 0 0
0 0 0
0 0 0
0 0 0
0 0 0
109 72 85
255 255 255
255 255 255
255 255 255
255 255 255
255 255 255
255 255 255
255 255 255
255 255 255
255 255 255
255 255 255
255 255 255
255 255 255
255 255 255
255 255 255
255 255 255
255 255 255
255 255 255
255 255 255
255 255 255
255 255 255
255 255 255
255 255 255
255 255 255
255 255 255
255 255 255
255 255 255
255 255 255
255 255 255
255 255 255
255 255 255
255 255 255
255 255 255
255 255 255
255 255 255
255 255 255
255 255 255
255 255 255
255 255 255
255 255 255
255 255 255
255 255 255
255 255 255
218 218 255
218 218 255
255 255 255
255 255 255
255 255 255
255 255 255
255 255 255
255 255 255
255 255 255
255 255 255
255 255 255
255 255 255
255 255 255
255 255 255
255 255 255
255 255 255
255 255 255
109 109 85
0 0 0
0 0 0
0 0 0
0 0 0
0 0 0
145 145 170
255 255 255
255 255 255
255 255 255
255 255 255
255 255 255
255 255 255
255 255 255
255 255 255
255 255 255
255 255 255
255 255 255
255 255 255
255 255 255
255 255 255
255 255 255
255 255 255
255 255 255
255 255 255
255 255 255
255 255 255
218 218 255
255 255 255
255 255 255
255 255 255
255 255 255
255 255 255
255 255 255
255 255 255
255 255 255
255 255 255
255 255 255
255 255 255
255 255 255
255 255 255
255 255 255
255 255 255
255 255 255
255 255 255
255 255 255
255 255 255
255 255 255
255 255 255
255 255 255
255 255 255
255 255 255
255 255 255
255 255 255
255 255 255
255 255 255
255 255 255
255 255 255
255 255 255
72 72 85
36 36 0
36 36 0
36 36 0
72 72 85
72 72 85
72 72 85
72 72 85
72 36 0
109 72 0
145 72 0
145 72 0
145 72 0
145 72 0
145 72 0
109 72 0
109 72 0
72 36 0
36 36 0
72 72 85
72 72 85
72 72 85
72 72 85
72 72 85
72 72 85
72 72 85
72 72 85
72 72 85
72 72 85
72 72 85
72 72 85
72 72 85
36 72 85
0 0 0
0 0 0
36 0 0
36 36 0
72 36 0
72 36 0
72 72 0
72 72 0
109 72 0
109 72 0
109 72 0
145 72 0
145 72 0
145 109 0
218 218 170
255 255 255
218 218 255
0 0 0
0 0 0
0 0 0
0 0 0
0 0 0
0 0 0
0 0 0
0 0 0
0 0 0
0 0 0
0 0 0
0 0 0
0 0 0
0 0 0
0 0 0
0 0 0
0 0 0
0 0 0
0 0 0
0 0 0
0 0 0
0 0 0
0 0 0
0 0 0
0 0 0
0 0 0
0 0 0
0 0 0
0 0 0
0 0 0
0 0 0
109 72 85
255 255 255
255 255 255
255 255 255
255 255 255
255 255 255
255 255 255
255 255 255
255 255 255
255 255 255
255 255 255
255 255 255
255 255 255
255 255 255
255 255 255
255 255 255
255 255 255
255 255 255
255 255 255
255 255 255
255 255 255
255 255 255
255 255 255
255 255 255
255 255 255
255 255 255
255 255 255
255 255 255
255 255 255
255 255 255
255 255 255
255 255 255
255 255 255
255 255 255
255 255 255
255 255 255
255 255 255
255 255 255
255 255 255
255 255 255
255 255 255
255 255 255
255 255 255
218 218 255
255 255 255
255 255 255
255 255 255
255 255 255
255 255 255
255 255 255
255 255 255
255 255 255
255 255 255
255 255 255
255 255 255
255 255 255
255 255 255
255 255 255
255 255 255
255 255 255
109 109 85
0 0 0
0 0 0
0 0 0
0 0 0
0 0 0
145 145 170
255 255 255
255 255 255
255 255 255
255 255 255
255 255 255
255 255 255
255 255 255
255 255 255
255 255 255
255 255 255
255 255 255
255 255 255
255 255 255
255 255 255
255 255 255
255 255 255
255 255 255
255 255 255
255 255 255
255 255 255
255 255 255
255 255 255
255 255 255
255 255 255
255 255 255
255 255 255
255 255 255
255 255 255
255 255 255
255 255 255
255 255 255
255 255 255
255 255 255
255 255 255
255 255 255
255 255 255
255 255 255
255 255 255
255 255 255
255 255 255
255 255 255
255 255 255
255 255 255
255 255 255
255 255 255
255 255 255
255 255 255
255 255 255
255 255 255
255 255 255
255 255 255
255 255 255
109 109 85
36 36 0
36 36 0
36 36 0
72 72 85
72 72 85
72 72 85
72 72 85
72 36 0
109 72 0
109 72 0
145 72 0
145 72 0
145 72 0
145 72 0
145 72 0
109 72 0
72 36 0
36 36 0
72 72 85
72 72 85
72 72 85
72 72 85
72 72 85
72 72 85
72 72 85
72 72 85
72 72 85
72 72 85
72 72 85
72 72 85
72 72 85
72 72 85
72 72 85
36 36 0
0 0 0
0 0 0
36 0 0
36 36 0
72 36 0
72 36 0
72 72 0
72 72 0
109 72 0
109 72 0
145 72 0
109 72 0
218 182 170
255 255 255
218 218 255
0 0 0
0 0 0
0 0 0
0 0 0
0 0 0
0 0 0
0 0 0
0 0 0
0 0 0
0 0 0
0 0 0
0 0 0
0 0 0
0 0 0
0 0 0
0 0 0
0 0 0
0 0 0
0 0 0
0 0 0
0 0 0
0 0 0
0 0 0
0 0 0
0 0 0
0 0 0
0 0 0
0 0 0
0 0 0
0 0 0
0 0 0
109 72 85
255 255 255
255 255 255
255 255 255
255 255 255
255 255 255
255 255 255
255 255 255
255 255 255
255 255 255
255 255 255
255 255 255
255 255 255
255 255 255
255 255 255
255 255 255
255 255 255
255 255 255
255 255 255
255 255 255
255 255 255
255 255 255
255 255 255
255 255 255
255 255 255
218 218 255
218 218 255
218 218 255
218 218 255
218 218 255
218 218 255
218 218 255
218 218 255
218 218 255
218 218 255
218 218 255
218 218 255
218 218 255
218 218 255
218 218 255
218 218 255
218 218 255
218 218 255
182 182 170
218 218 255
218 218 255
218 218 255
218 218 255
218 218 255
218 218 255
218 218 255
218 218 255
255 255 255
255 255 255
255 255 255
255 255 255
255 255 255
255 255 255
255 255 255
255 255 255
109 109 85
0 0 0
0 0 0
0 0 0
0 0 0
0 0 0
145 145 170
255 255 255
255 255 255
255 255 255
255 255 255
255 255 255
255 255 255
255 255 255
255 255 255
255 255 255
255 255 255
255 255 255
255 255 255
255 255 255
255 255 255
255 255 255
255 255 255
255 255 255
255 255 255
255 255 255
255 255 255
255 255 255
255 255 255
255 255 255
255 255 255
255 255 255
255 255 255
255 255 255
255 255 255
255 255 255
255 255 255
255 255 255
255 255 255
255 255 255
255 255 255
255 255 255
255 255 255
255 255 255
255 255 255
255 255 255
255 255 255
255 255 255
255 255 255
255 255 255
255 255 255
255 255 255
255 255 255
255 255 255
255 255 255
255 255 255
255 255 255
255 255 255
255 255 255
72 72 85
36 36 0
36 36 0
36 36 0
72 72 85
72 72 85
72 72 85
72 72 85
36 0 0
72 36 0
109 72 0
145 72 0
145 72 0
145 72 0
145 72 0
145 72 0
72 36 0
36 0 0
0 0 0
72 72 85
72 72 85
72 72 85
72 72 85
72 72 85
72 72 85
72 72 85
72 72 85
72 72 85
72 72 85
72 72 85
72 72 85
72 72 85
72 72 85
72 72 85
72 72 85
72 72 85
36 36 0
0 0 0
0 0 0
36 0 0
36 36 0
72 36 0
72 36 0
72 72 0
109 72 0
109 72 0
109 36 0
182 182 170
255 255 255
218 218 255
0 0 0
0 0 0
0 0 0
0 0 0
0 0 0
0 0 0
0 0 0
0 0 0
0 0 0
0 0 0
0 0 0
0 0 0
0 0 0
0 0 0
0 0 0
0 0 0
0 0 0
0 0 0
0 0 0
0 0 0
0 0 0
0 0 0
0 0 0
0 0 0
0 0 0
0 0 0
0 0 0
0 0 0
0 0 0
0 0 0
0 0 0
109 72 85
255 255 255
255 255 255
255 255 255
255 255 255
255 255 255
255 255 255
255 255 255
255 255 255
255 255 255
255 255 255
255 255 255
255 255 255
255 255 255
255 255 255
255 255 255
255 255 255
255 255 255
255 255 255
255 255 255
255 255 255
255 255 255
255 255 255
255 255 255
255 255 255
218 218 255
218 218 255
218 218 255
182 182 170
182 182 170
182 182 170
182 182 170
182 182 170
182 182 170
182 182 170
182 182 170
182 182 170
182 182 170
182 182 170
182 182 170
182 182 170
182 182 170
182 182 170
182 182 170
182 182 170
182 182 170
218 218 255
218 218 255
182 182 170
182 182 170
218 218 255
218 218 255
255 255 255
255 255 255
255 255 255
255 255 255
255 255 255
255 255 255
255 255 255
255 255 255
109 109 85
0 0 0
0 0 0
0 0 0
0 0 0
0 0 0
145 145 170
255 255 255
255 255 255
255 255 255
255 255 255
255 255 255
255 255 255
255 255 255
255 255 255
255 255 255
255 255 255
255 255 255
255 255 255
255 255 255
255 255 255
255 255 255
255 255 255
255 255 255
255 255 255
255 255 255
255 255 255
255 255 255
255 255 255
255 255 255
255 255 255
255 255 255
255 255 255
255 255 255
255 255 255
255 255 255
255 255 255
255 255 255
255 255 255
255 255 255
255 255 255
255 255 255
255 255 255
255 255 255
255 255 255
255 255 255
255 255 255
255 255 255
255 255 255
255 255 255
255 255 255
255 255 255
255 255 255
255 255 255
255 255 255
255 255 255
255 255 255
255 255 255
255 255 255
72 72 85
36 36 0
36 36 0
36 36 0
72 72 85
72 72 85
72 72 85
72 72 85
0 0 0
0 0 0
0 0 0
36 36 0
72 36 0
72 36 0
36 36 0
0 0 0
0 0 0
0 0 0
0 0 0
72 72 85
72 72 85
72 72 85
72 72 85
72 72 85
72 72 85
72 72 85
72 72 85
72 72 85
72 72 85
72 72 85
72 72 85
72 72 85
72 72 85
72 72 85
72 72 85
72 72 85
72 72 85
72 72 85
0 0 0
0 0 0
0 0 0
36 0 0
36 36 0
72 36 0
72 36 0
72 72 0
36 36 0
182 182 170
255 255 255
218 218 255
0 0 0
0 0 0
0 0 0
0 0 0
0 0 0
0 0 0
0 0 0
0 0 0
0 0 0
0 0 0
0 0 0
0 0 0
0 0 0
0 0 0
0 0 0
0 0 0
0 0 0
0 0 0
0 0 0
0 0 0
0 0 0
0 0 0
0 0 0
0 0 0
0 0 0
0 0 0
0 0 0
0 0 0
0 0 0
0 0 0
0 0 0
109 72 85
255 255 255
255 255 255
255 255 255
255 255 255
255 255 255
255 255 255
255 255 255
255 255 255
255 255 255
255 255 255
255 255 255
255 255 255
255 255 255
255 255 255
255 255 255
255 255 255
255 255 255
255 255 255
255 255 255
255 255 255
255 255 255
255 255 255
255 255 255
255 255 255
218 218 255
218 218 255
218 218 255
218 218 255
218 218 255
218 218 255
218 218 255
218 218 255
218 218 255
218 218 255
218 218 255
218 218 255
218 182 255
182 182 170
182 182 170
182 182 170
182 182 170
182 182 170
182 182 170
182 182 170
218 218 255
218 218 255
218 218 255
182 182 170
182 182 170
218 218 255
182 182 170
255 255 255
255 255 255
255 255 255
255 255 255
255 255 255
255 255 255
255 255 255
255 255 255
109 109 85
0 0 0
0 0 0
0 0 0
0 0 0
0 0 0
145 145 170
255 255 255
255 255 255
255 255 255
255 255 255
255 255 255
255 255 255
255 255 255
255 255 255
255 255 255
255 255 255
255 255 255
255 255 255
255 255 255
255 255 255
255 255 255
255 255 255
255 255 255
255 255 255
255 255 255
255 255 255
255 255 255
255 255 255
255 255 255
255 255 255
255 255 255
255 255 255
255 255 255
255 255 255
255 255 255
255 255 255
255 255 255
255 255 255
255 255 255
255 255 255
255 255 255
255 255 255
255 255 255
255 255 255
255 255 255
255 255 255
255 255 255
255 255 255
255 255 255
255 255 255
255 255 255
255 255 255
255 255 255
255 255 255
255 255 255
255 255 255
255 255 255
255 255 255
109 72 85
36 36 0
36 36 0
36 36 0
72 72 85
72 72 85
72 72 85
72 72 85
36 36 0
0 0 0
0 0 0
0 0 0
0 0 0
0 0 0
0 0 0
0 0 0
0 0 0
0 0 0
0 0 0
72 72 85
72 72 85
72 72 85
72 72 85
72 72 85
72 72 85
72 72 85
72 72 85
72 72 85
72 72 85
72 72 85
72 72 85
72 72 85
72 72 85
72 72 85
72 72 85
72 72 85
72 72 85
72 72 85
72 72 85
36 36 0
0 0 0
0 0 0
36 0 0
36 36 0
72 36 0
72 36 0
36 0 0
182 182 170
255 255 255
218 218 255
0 0 0
0 0 0
0 0 0
0 0 0
0 0 0
0 0 0
0 0 0
0 0 0
0 0 0
0 0 0
0 0 0
0 0 0
0 0 0
0 0 0
0 0 0
0 0 0
0 0 0
0 0 0
0 0 0
0 0 0
0 0 0
0 0 0
0 0 0
0 0 0
0 0 0
0 0 0
0 0 0
0 0 0
0 0 0
0 0 0
0 0 0
109 72 85
255 255 255
255 255 255
255 255 255
255 255 255
255 255 255
255 255 255
255 255 255
255 255 255
255 255 255
255 255 255
255 255 255
255 255 255
255 255 255
255 255 255
255 255 255
255 255 255
255 255 255
255 255 255
255 255 255
255 255 255
255 255 255
255 255 255
255 255 255
255 255 255
218 218 255
182 182 170
218 218 255
218 218 255
218 218 255
218 218 255
218 218 255
218 218 255
218 218 255
218 218 255
218 218 255
218 218 255
182 182 170
182 182 170
182 182 170
182 182 170
182 182 170
182 182 170
182 182 170
182 182 170
182 182 170
182 182 170
182 182 170
182 182 170
182 182 170
182 182 170
182 182 170
255 255 255
255 255 255
255 255 255
255 255 255
255 255 255
255 255 255
255 255 255
255 255 255
109 109 85
0 0 0
0 0 0
0 0 0
0 0 0
0 0 0
145 145 170
255 255 255
255 255 255
255 255 255
255 255 255
255 255 255
255 255 255
255 255 255
255 255 255
255 255 255
255 255 255
255 255 255
255 255 255
255 255 255
255 255 255
255 255 255
255 255 255
255 255 255
255 255 255
255 255 255
255 255 255
255 255 255
255 255 255
255 255 255
255 255 255
255 255 255
255 255 255
255 255 255
255 255 255
255 255 255
255 255 255
255 255 255
255 255 255
255 255 255
255 255 255
255 255 255
255 255 255
255 255 255
255 255 255
255 255 255
255 255 255
255 255 255
255 255 255
255 255 255
255 255 255
255 255 255
255 255 255
255 255 255
255 255 255
255 255 255
255 255 255
255 255 255
255 255 255
109 109 85
36 36 0
36 36 0
36 36 0
72 72 85
72 72 85
72 72 85
72 72 85
36 36 0
36 36 0
36 36 0
36 36 0
36 36 0
36 36 0
36 36 0
36 36 0
36 36 0
36 36 0
0 0 0
72 72 85
72 72 85
72 72 85
72 72 85
72 72 85
72 72 85
72 72 85
72 72 85
72 72 85
72 72 85
72 72 85
72 72 85
72 72 85
72 72 85
72 72 85
72 72 85
72 72 85
72 72 85
72 72 85
72 72 85
72 72 85
72 72 85
36 36 0
0 0 0
0 0 0
36 0 0
36 36 0
0 0 0
182 182 170
255 255 255
218 218 255
0 0 0
0 0 0
0 0 0
0 0 0
0 0 0
0 0 0
0 0 0
0 0 0
0 0 0
0 0 0
0 0 0
0 0 0
0 0 0
0 0 0
0 0 0
0 0 0
0 0 0
0 0 0
0 0 0
0 0 0
0 0 0
0 0 0
0 0 0
0 0 0
0 0 0
0 0 0
0 0 0
0 0 0
0 0 0
0 0 0
0 0 0
109 109 85
255 255 255
255 255 255
255 255 255
255 255 255
255 255 255
255 255 255
255 255 255
255 255 255
255 255 255
255 255 255
255 255 255
255 255 255
255 255 255
255 255 255
255 255 255
255 255 255
255 255 255
255 255 255
255 255 255
255 255 255
255 255 255
255 255 255
255 255 255
255 255 255
182 182 170
182 182 170
182 182 170
182 182 170
182 182 170
182 182 170
182 182 170
182 182 170
182 182 170
182 182 170
182 182 170
182 182 170
182 182 170
182 182 170
182 182 170
182 182 170
182 182 170
182 182 170
182 182 170
182 182 170
182 182 170
145 145 170
145 145 170
145 145 170
182 182 170
182 182 170
182 182 170
255 255 255
255 255 255
255 255 255
255 255 255
255 255 255
255 255 255
255 255 255
255 255 255
109 109 85
0 0 0
0 0 0
0 0 0
0 0 0
0 0 0
145 145 170
255 255 255
255 255 255
255 255 255
255 255 255
255 255 255
255 255 255
255 255 255
255 255 255
255 255 255
255 255 255
255 255 255
255 255 255
255 255 255
255 255 255
255 255 255
255 255 255
255 255 255
255 255 255
255 255 255
36 36 0
182 182 170
255 255 255
255 255 255
255 255 255
255 255 255
255 255 255
255 255 255
255 255 255
255 255 255
255 255 255
255 255 255
255 255 255
255 255 255
255 255 255
255 255 255
255 255 255
255 255 255
255 255 255
255 255 255
255 255 255
255 255 255
255 255 255
255 255 255
255 255 255
255 255 255
255 255 255
255 255 255
255 255 255
255 255 255
255 255 255
255 255 255
255 255 255
72 72 85
36 36 0
36 36 0
36 36 0
72 72 85
72 72 85
72 72 85
72 72 85
36 36 0
36 36 0
36 36 0
72 72 85
72 72 85
72 72 85
72 72 85
36 36 0
36 36 0
36 36 0
36 36 0
36 36 0
72 72 85
72 72 85
72 72 85
72 72 85
72 72 85
72 72 85
72 72 85
72 72 85
72 72 85
72 72 85
72 72 85
72 72 85
72 72 85
72 72 85
72 72 85
72 72 85
72 72 85
72 72 85
72 72 85
72 72 85
72 72 85
72 72 85
72 72 85
0 0 0
0 0 0
0 0 0
0 0 0
182 182 170
255 255 255
218 218 255
0 0 0
0 0 0
0 0 0
0 0 0
0 0 0
0 0 0
0 0 0
0 0 0
0 0 0
0 0 0
0 0 0
0 0 0
0 0 0
0 0 0
0 0 0
0 0 0
0 0 0
0 0 0
0 0 0
0 0 0
0 0 0
0 0 0
0 0 0
0 0 0
0 0 0
0 0 0
0 0 0
0 0 0
0 0 0
0 0 0
0 0 0
72 72 85
182 182 170
182 182 170
182 182 170
182 182 170
182 182 170
182 182 170
182 182 170
182 182 170
182 182 170
182 182 170
182 182 170
182 182 170
182 182 170
182 182 170
182 182 170
182 182 170
182 182 170
182 182 170
182 182 170
182 182 170
182 182 170
182 182 170
182 182 170
182 182 170
182 182 170
218 218 255
218 218 255
218 218 255
218 218 255
218 218 255
218 218 255
218 218 255
218 218 255
218 218 255
218 218 255
218 218 255
218 218 255
218 218 255
218 218 255
218 218 255
218 218 255
218 218 255
218 218 255
218 218 255
218 218 255
218 218 255
218 218 255
218 218 255
145 109 170
109 109 85
109 109 85
218 218 255
255 255 255
255 255 255
255 255 255
255 255 255
255 255 255
255 255 255
255 255 255
109 109 85
0 0 0
0 0 0
0 0 0
0 0 0
0 0 0
145 145 170
255 255 255
255 255 255
255 255 255
255 255 255
255 255 255
255 255 255
255 255 255
255 255 255
255 255 255
255 255 255
255 255 255
255 255 255
255 255 255
255 255 255
255 255 255
255 255 255
255 255 255
255 255 255
255 255 255
0 0 0
182 182 170
255 255 255
255 255 255
255 255 255
255 255 255
255 255 255
255 255 255
255 255 255
255 255 255
255 255 255
255 255 255
255 255 255
255 255 255
255 255 255
255 255 255
255 255 255
255 255 255
255 255 255
255 255 255
255 255 255
255 255 255
255 255 255
255 255 255
255 255 255
255 255 255
255 255 255
255 255 255
255 255 255
255 255 255
255 255 255
255 255 255
255 255 255
72 72 85
36 36 0
36 36 0
36 36 0
36 36 0
72 72 85
72 72 85
72 72 85
36 36 0
36 36 0
36 36 0
72 72 85
36 72 0
72 72 85
72 72 85
36 36 0
36 36 0
36 36 0
36 36 0
36 36 0
72 72 85
72 72 85
72 72 85
72 72 85
72 72 85
72 72 85
72 72 85
72 72 85
72 72 85
72 72 85
72 72 85
72 72 85
72 72 85
72 72 85
72 72 85
72 72 85
72 72 85
72 72 85
72 72 85
72 72 85
72 72 85
72 72 85
72 72 85
72 72 85
36 36 0
0 0 0
0 0 0
182 182 170
255 255 255
218 218 255
0 0 0
0 0 0
0 0 0
0 0 0
0 0 0
0 0 0
0 0 0
0 0 0
0 0 0
0 0 0
0 0 0
0 0 0
0 0 0
0 0 0
0 0 0
0 0 0
0 0 0
0 0 0
0 0 0
0 0 0
0 0 0
0 0 0
0 0 0
0 0 0
0 0 0
0 0 0
0 0 0
0 0 0
0 0 0
0 0 0
0 0 0
72 72 85
182 182 170
182 182 170
182 182 170
182 182 170
182 182 170
182 182 170
182 182 170
182 182 170
182 182 170
182 182 170
182 182 170
182 182 170
182 182 170
182 182 170
182 182 170
182 182 170
182 182 170
182 182 170
182 182 170
182 182 170
182 182 170
182 182 170
182 182 170
182 182 170
218 218 255
255 255 255
255 255 255
255 255 255
255 255 255
255 255 255
255 255 255
255 255 255
255 255 255
255 255 255
255 255 255
255 255 255
255 255 255
255 255 255
255 255 255
255 255 255
255 255 255
255 255 255
255 255 255
255 255 255
255 255 255
255 255 255
255 255 255
255 255 255
109 109 85
109 109 85
109 109 85
218 218 255
255 255 255
255 255 255
255 255 255
255 255 255
255 255 255
255 255 255
255 255 255
109 109 85
0 0 0
0 0 0
0 0 0
0 0 0
0 0 0
145 145 170
255 255 255
255 255 255
255 255 255
255 255 255
255 255 255
255 255 255
255 255 255
255 255 255
255 255 255
255 255 255
255 255 255
255 255 255
255 255 255
255 255 255
255 255 255
255 255 255
255 255 255
255 255 255
255 255 255
0 0 0
182 182 170
255 255 255
255 255 255
255 255 255
255 255 255
255 255 255
255 255 255
255 255 255
255 255 255
218 218 255
218 218 255
218 218 255
218 218 255
218 218 255
218 218 255
218 218 255
218 218 255
218 218 255
218 218 255
218 218 255
218 218 255
218 218 255
218 218 255
218 218 255
218 218 255
218 218 255
218 218 255
218 218 255
218 218 255
218 218 255
218 218 255
218 218 255
109 109 85
36 36 0
36 36 0
36 36 0
72 72 85
72 72 85
72 72 85
36 36 0
36 36 0
36 36 0
36 36 0
36 36 0
36 36 0
72 72 85
72 72 85
36 36 0
36 36 0
36 36 0
36 36 0
36 36 0
72 72 85
72 72 85
72 72 85
72 72 85
72 72 85
72 72 85
72 72 85
72 72 85
72 72 85
72 72 85
72 72 85
72 72 85
72 72 85
72 72 85
72 72 85
72 72 85
72 72 85
72 72 85
72 72 85
72 72 85
72 72 85
72 72 85
72 72 85
72 72 85
72 72 85
36 36 0
0 0 0
182 182 170
255 255 255
218 218 255
0 0 0
0 0 0
0 0 0
0 0 0
0 0 0
0 0 0
0 0 0
0 0 0
0 0 0
0 0 0
0 0 0
0 0 0
0 0 0
0 0 0
0 0 0
0 0 0
0 0 0
0 0 0
0 0 0
0 0 0
0 0 0
0 0 0
0 0 0
0 0 0
0 0 0
0 0 0
0 0 0
0 0 0
0 0 0
0 0 0
0 0 0
72 72 85
182 182 170
182 182 170
182 182 170
182 182 170
182 182 170
182 182 170
182 182 170
182 182 170
182 182 170
182 182 170
182 182 170
182 182 170
182 182 170
182 182 170
182 182 170
182 182 170
182 182 170
182 182 170
182 182 170
182 182 170
182 182 170
182 182 170
182 182 170
182 182 170
218 218 255
255 255 255
255 255 255
255 255 255
255 255 255
255 255 255
255 255 255
255 255 255
255 255 255
255 255 255
255 255 255
255 255 255
255 255 255
255 255 255
255 255 255
255 255 255
255 255 255
255 255 255
255 255 255
255 255 255
255 255 255
255 255 255
255 255 255
255 255 255
109 109 85
109 109 85
109 109 85
218 218 255
255 255 255
255 255 255
255 255 255
255 255 255
255 255 255
255 255 255
255 255 255
109 109 85
0 0 0
0 0 0
0 0 0
0 0 0
0 0 0
145 145 170
255 255 255
255 255 255
255 255 255
255 255 255
255 255 255
255 255 255
255 255 255
255 255 255
255 255 255
255 255 255
255 255 255
255 255 255
255 255 255
255 255 255
255 255 255
255 255 255
255 255 255
255 255 255
218 218 255
0 0 0
182 182 170
255 255 255
255 255 255
255 255 255
255 255 255
255 255 255
255 255 255
255 255 255
255 255 255
218 218 255
218 218 255
218 218 255
182 182 170
182 182 170
182 182 170
182 182 170
182 182 170
182 182 170
182 182 170
182 182 170
182 182 170
182 182 170
182 182 170
182 182 170
182 182 170
182 182 170
182 182 170
182 182 170
182 182 170
218 218 255
218 218 255
182 182 170
182 182 170
218 218 255
218 218 255
109 109 85
36 36 0
72 72 85
72 72 85
36 36 0
36 36 0
36 36 0
36 36 0
36 36 0
36 36 0
72 72 85
72 72 85
36 36 0
36 36 0
36 36 0
36 36 0
36 36 0
72 72 85
72 72 85
72 72 85
72 72 85
72 72 85
72 72 85
72 72 85
72 72 85
72 72 85
72 72 85
72 72 85
72 72 85
72 72 85
72 72 85
72 72 85
72 72 85
72 72 85
72 72 85
72 72 85
72 72 85
72 72 85
72 72 85
72 72 85
72 72 85
72 72 85
36 36 0
0 0 0
182 182 170
255 255 255
218 218 255
0 0 0
0 0 0
0 0 0
0 0 0
0 0 0
0 0 0
0 0 0
0 0 0
0 0 0
0 0 0
0 0 0
0 0 0
0 0 0
0 0 0
0 0 0
0 0 0
0 0 0
0 0 0
0 0 0
0 0 0
0 0 0
0 0 0
0 0 0
0 0 0
0 0 0
0 0 0
0 0 0
0 0 0
0 0 0
0 0 0
0 0 0
72 72 85
182 182 170
182 182 170
182 182 170
182 182 170
182 182 170
182 182 170
182 182 170
182 182 170
182 182 170
182 182 170
182 182 170
182 182 170
182 182 170
182 182 170
182 182 170
182 182 170
182 182 170
182 182 170
182 182 170
182 182 170
182 182 170
182 182 170
182 182 170
182 182 170
218 218 255
255 255 255
255 255 255
218 218 255
218 218 255
218 218 255
218 218 255
218 218 255
218 218 255
218 218 255
218 218 255
218 218 255
218 218 255
218 218 255
218 218 255
218 218 255
218 218 255
218 218 255
218 218 255
218 218 255
218 218 255
218 218 255
218 218 255
218 218 255
109 109 85
109 109 85
109 109 85
218 218 255
255 255 255
255 255 255
255 255 255
255 255 255
255 255 255
255 255 255
255 255 255
109 109 85
0 0 0
0 0 0
0 0 0
0 0 0
0 0 0
145 145 170
255 255 255
255 255 255
255 255 255
255 255 255
255 255 255
255 255 255
255 255 255
255 255 255
255 255 255
255 255 255
255 255 255
255 255 255
255 255 255
255 255 255
255 255 255
255 255 255
255 255 255
109 109 85
0 0 0
0 0 0
182 182 170
255 255 255
255 255 255
255 255 255
255 255 255
255 255 255
255 255 255
255 255 255
255 255 255
218 218 255
218 218 255
218 218 255
218 218 255
218 218 255
218 218 255
218 218 255
218 218 255
218 218 255
218 218 255
182 182 170
182 182 170
182 182 170
182 182 170
182 182 170
182 182 170
182 182 170
182 182 170
182 182 170
182 182 170
218 218 255
218 218 255
182 182 170
182 182 170
218 218 255
182 218 170
109 109 85
36 36 0
72 72 85
72 72 85
36 36 0
36 36 0
36 36 0
36 36 0
36 36 0
36 36 0
36 72 0
72 72 85
72 72 85
36 36 0
36 36 0
36 36 0
36 36 0
72 72 85
72 72 85
72 72 85
72 72 85
72 72 85
72 72 85
72 72 85
72 72 85
72 72 85
72 72 85
72 72 85
72 72 85
72 72 85
72 72 85
72 72 85
72 72 85
72 72 85
72 72 85
72 72 85
72 72 85
72 72 85
72 72 85
72 72 85
72 72 85
72 72 85
36 36 0
0 0 0
182 182 170
255 255 255
218 218 255
0 0 0
0 0 0
0 0 0
0 0 0
0 0 0
0 0 0
0 0 0
0 0 0
0 0 0
0 0 0
0 0 0
0 0 0
0 0 0
0 0 0
0 0 0
0 0 0
0 0 0
0 0 0
0 0 0
0 0 0
0 0 0
0 0 0
0 0 0
0 0 0
0 0 0
0 0 0
0 0 0
0 0 0
0 0 0
0 0 0
0 0 0
72 72 85
182 182 170
182 182 170
182 182 170
182 182 170
182 182 170
182 182 170
182 182 170
182 182 170
182 182 170
182 182 170
182 182 170
182 182 170
182 182 170
182 182 170
182 182 170
182 182 170
182 182 170
182 182 170
182 182 170
182 182 170
182 182 170
182 182 170
182 182 170
182 182 170
218 218 255
255 255 255
182 182 170
145 145 170
145 145 170
145 145 170
145 145 170
145 145 170
145 145 170
145 145 170
145 145 170
145 145 170
145 145 170
145 145 170
145 145 170
145 145 170
145 145 170
145 145 170
145 145 170
145 145 170
145 145 170
145 145 170
145 145 170
145 145 170
109 109 85
109 109 85
109 109 85
218 218 255
255 255 255
255 255 255
255 255 255
255 255 255
255 255 255
255 255 255
255 255 255
109 109 85
0 0 0
0 0 0
0 0 0
0 0 0
0 0 0
145 145 170
255 255 255
255 255 255
255 255 255
255 255 255
255 255 255
255 255 255
255 255 255
255 255 255
255 255 255
255 255 255
255 255 255
255 255 255
255 255 255
255 255 255
255 255 255
255 255 255
255 255 255
109 109 85
0 0 0
0 0 0
182 182 170
255 255 255
255 255 255
255 255 255
255 255 255
255 255 255
255 255 255
255 255 255
255 255 255
182 182 170
182 182 170
218 218 255
218 218 255
218 218 255
218 218 255
218 218 255
218 218 255
218 218 255
218 218 255
182 182 170
182 182 170
182 182 170
182 182 170
182 182 170
182 182 170
182 182 170
182 182 170
182 182 170
182 182 170
182 182 170
145 145 170
182 182 170
182 182 170
182 182 170
182 182 170
109 109 85
36 36 0
72 72 85
72 72 85
36 36 0
36 36 0
36 36 0
36 36 0
36 36 0
36 36 0
36 72 0
72 72 85
72 72 85
36 36 0
36 36 0
36 36 0
0 0 0
36 36 0
72 72 85
72 72 85
72 72 85
72 72 85
72 72 85
72 72 85
72 72 85
72 72 85
72 72 85
72 72 85
72 72 85
72 72 85
72 72 85
72 72 85
72 72 85
72 72 85
72 72 85
72 72 85
72 72 85
72 72 85
72 72 85
72 72 85
72 72 85
72 72 85
36 36 0
0 0 0
182 182 170
255 255 255
218 218 255
0 0 0
0 0 0
0 0 0
0 0 0
0 0 0
0 0 0
0 0 0
0 0 0
0 0 0
0 0 0
0 0 0
0 0 0
0 0 0
0 0 0
0 0 0
0 0 0
0 0 0
0 0 0
0 0 0
0 0 0
0 0 0
0 0 0
0 0 0
0 0 0
0 0 0
0 0 0
0 0 0
0 0 0
0 0 0
0 0 0
0 0 0
72 72 85
182 182 170
182 182 170
182 182 170
182 182 170
182 182 170
182 182 170
182 182 170
182 182 170
182 182 170
182 182 170
182 182 170
182 182 170
182 182 170
182 182 170
182 182 170
182 182 170
182 182 170
182 182 170
182 182 170
182 182 170
182 182 170
182 182 170
182 182 170
182 182 170
218 218 255
255 255 255
182 182 170
145 145 170
145 145 170
145 145 170
145 145 170
145 145 170
145 145 170
145 145 170
145 145 170
145 145 170
145 145 170
145 145 170
145 145 170
145 145 170
145 145 170
145 145 170
145 145 170
145 145 170
145 145 170
145 145 170
145 145 170
145 145 170
109 109 85
109 109 85
109 109 85
218 218 255
255 255 255
255 255 255
255 255 255
255 255 255
255 255 255
255 255 255
255 255 255
109 109 85
0 0 0
0 0 0
0 0 0
0 0 0
0 0 0
145 145 170
255 255 255
255 255 255
255 255 255
255 255 255
255 255 255
255 255 255
255 255 255
255 255 255
255 255 255
255 255 255
255 255 255
255 255 255
255 255 255
255 255 255
255 255 255
255 255 255
255 255 255
145 145 170
0 0 0
0 0 0
182 182 170
255 255 255
255 255 255
255 255 255
255 255 255
255 255 255
255 255 255
255 255 255
255 255 255
182 182 170
182 182 170
182 182 170
182 182 170
182 182 170
182 182 170
182 182 170
182 182 170
182 182 170
182 182 170
182 182 170
182 182 170
182 182 170
182 182 170
182 182 170
182 182 170
182 182 170
182 182 170
182 182 170
182 182 170
182 182 170
145 145 170
182 182 170
145 145 170
182 182 170
182 182 170
109 109 85
36 36 0
72 72 85
72 72 85
36 36 0
36 36 0
36 36 0
36 36 0
36 36 0
36 36 0
36 36 0
72 72 85
72 72 85
36 36 0
36 36 0
36 36 0
0 0 0
36 36 0
72 72 85
72 72 85
72 72 85
72 72 85
72 72 85
72 72 85
72 72 85
72 72 85
72 72 85
72 72 85
72 72 85
72 72 85
72 72 85
72 72 85
72 72 85
72 72 85
72 72 85
72 72 85
72 72 85
72 72 85
72 72 85
72 72 85
72 72 85
72 72 85
72 72 85
0 0 0
182 182 170
255 255 255
218 218 255
0 0 0
0 0 0
0 0 0
0 0 0
0 0 0
0 0 0
0 0 0
0 0 0
0 0 0
0 0 0
0 0 0
0 0 0
0 0 0
0 0 0
0 0 0
0 0 0
0 0 0
0 0 0
0 0 0
0 0 0
0 0 0
0 0 0
0 0 0
0 0 0
0 0 0
0 0 0
0 0 0
0 0 0
0 0 0
0 0 0
0 0 0
72 72 85
218 218 255
182 182 170
182 182 170
182 182 170
182 182 170
182 182 170
182 182 170
182 182 170
182 182 170
182 182 170
182 182 170
182 182 170
182 182 170
182 182 170
182 182 170
182 182 170
182 182 170
182 182 170
182 182 170
182 182 170
182 182 170
182 182 170
182 182 170
182 182 170
218 218 255
255 255 255
182 182 170
145 145 170
145 145 170
145 145 170
145 145 170
145 145 170
145 145 170
145 145 170
145 145 170
145 145 170
145 145 170
145 145 170
145 145 170
145 145 170
145 145 170
145 145 170
145 145 170
145 145 170
145 145 170
145 145 170
145 145 170
145 145 170
109 109 85
109 109 85
109 109 85
218 218 255
255 255 255
255 255 255
255 255 255
255 255 255
255 255 255
255 255 255
255 255 255
109 109 85
0 0 0
0 0 0
0 0 0
0 0 0
0 0 0
145 145 170
255 255 255
255 255 255
255 255 255
255 255 255
255 255 255
255 255 255
255 255 255
255 255 255
255 255 255
255 255 255
255 255 255
255 255 255
255 255 255
255 255 255
255 255 255
255 255 255
255 255 255
255 255 255
218 218 255
218 218 255
218 218 255
255 255 255
255 255 255
255 255 255
255 255 255
255 255 255
255 255 255
255 255 255
218 218 255
218 218 255
255 255 255
255 255 255
255 255 255
255 255 255
255 255 255
255 255 255
255 255 255
255 255 255
255 255 255
255 255 255
255 255 255
255 255 255
255 255 255
255 255 255
255 255 255
255 255 255
255 255 255
255 255 255
255 255 255
255 255 255
255 255 255
255 255 255
182 182 170
109 109 85
109 109 85
72 72 85
36 36 0
72 72 85
72 72 85
36 36 0
36 36 0
36 36 0
36 36 0
36 36 0
36 36 0
36 36 0
72 72 85
72 72 85
36 36 0
36 36 0
36 36 0
0 0 0
72 72 85
72 72 85
72 72 85
72 72 85
72 72 85
72 72 85
72 72 85
72 72 85
72 72 85
72 72 85
72 72 85
72 72 85
72 72 85
72 72 85
72 72 85
72 72 85
72 72 85
72 72 85
72 72 85
72 72 85
72 72 85
72 72 85
72 72 85
72 72 85
72 72 85
72 72 85
0 0 0
182 182 170
255 255 255
218 218 255
0 0 0
0 0 0
0 0 0
0 0 0
0 0 0
0 0 0
0 0 0
0 0 0
0 0 0
0 0 0
0 0 0
0 0 0
0 0 0
0 0 0
0 0 0
0 0 0
0 0 0
0 0 0
0 0 0
0 0 0
0 0 0
0 0 0
0 0 0
0 0 0
0 0 0
0 0 0
0 0 0
0 0 0
0 0 0
0 0 0
0 0 0
72 72 85
218 218 255
182 182 170
182 182 170
182 182 170
182 182 170
182 182 170
182 182 170
182 182 170
182 182 170
182 182 170
182 182 170
182 182 170
182 182 170
182 182 170
182 182 170
182 182 170
182 182 170
182 182 170
182 182 170
182 182 170
182 182 170
182 182 170
182 182 170
182 182 170
218 218 255
255 255 255
182 182 170
145 145 170
145 145 170
145 145 170
145 145 170
145 145 170
145 145 170
145 145 170
145 145 170
145 145 170
145 145 170
145 145 170
145 145 170
145 145 170
145 145 170
145 145 170
145 145 170
145 145 170
145 145 170
145 145 170
145 145 170
145 145 170
109 109 85
109 109 85
109 109 85
218 218 255
255 255 255
255 255 255
255 255 255
255 255 255
255 255 255
255 255 255
255 255 255
109 109 85
0 0 0
0 0 0
0 0 0
0 0 0
0 0 0
145 145 170
255 255 255
255 255 255
255 255 255
255 255 255
255 255 255
255 255 255
255 255 255
255 255 255
255 255 255
255 255 255
255 255 255
255 255 255
255 255 255
255 255 255
255 255 255
255 255 255
255 255 255
255 255 255
255 255 255
255 255 255
218 218 255
255 255 255
255 255 255
255 255 255
255 255 255
255 255 255
255 255 255
255 255 255
218 218 255
255 255 255
255 255 255
255 255 255
255 255 255
255 255 255
255 255 255
255 255 255
255 255 255
255 255 255
255 255 255
255 255 255
255 255 255
255 255 255
255 255 255
255 255 255
255 255 255
255 255 255
255 255 255
255 255 255
255 255 255
255 255 255
255 255 255
255 255 255
182 182 170
109 109 85
109 109 85
72 72 85
36 36 0
72 72 85
72 72 85
36 36 0
36 36 0
36 36 0
36 36 0
36 36 0
36 72 0
36 36 0
36 36 0
36 36 0
36 36 0
36 36 0
36 36 0
36 36 0
72 72 85
72 72 85
72 72 85
72 72 85
72 72 85
72 72 85
72 72 85
72 72 85
72 72 85
72 72 85
72 72 85
72 72 85
72 72 85
72 72 85
72 72 85
72 72 85
72 72 85
72 72 85
72 72 85
72 72 85
72 72 85
72 72 85
72 72 85
72 72 85
72 72 85
72 72 85
0 0 0
182 182 170
255 255 255
218 218 255
0 0 0
0 0 0
0 0 0
0 0 0
0 0 0
0 0 0
0 0 0
0 0 0
0 0 0
0 0 0
0 0 0
0 0 0
0 0 0
0 0 0
0 0 0
0 0 0
0 0 0
0 0 0
0 0 0
0 0 0
0 0 0
0 0 0
0 0 0
0 0 0
0 0 0
0 0 0
0 0 0
0 0 0
0 0 0
0 0 0
0 0 0
72 72 85
218 218 255
182 182 170
182 182 170
182 182 170
182 182 170
182 182 170
182 182 170
182 182 170
182 182 170
182 182 170
182 182 170
182 182 170
182 182 170
182 182 170
182 182 170
182 182 170
182 182 170
218 218 255
218 218 255
218 218 255
218 218 255
218 218 255
218 218 255
218 182 255
218 218 255
255 255 255
182 182 170
145 145 170
145 145 170
145 145 170
145 145 170
145 145 170
145 145 170
145 145 170
145 145 170
145 145 170
145 145 170
145 145 170
145 145 170
145 145 170
145 145 170
145 145 170
145 145 170
145 145 170
145 145 170
145 145 170
145 145 170
145 145 170
109 109 85
109 109 85
109 109 85
218 218 255
255 255 255
255 255 255
255 255 255
255 255 255
255 255 255
255 255 255
255 255 255
109 109 85
0 0 0
0 0 0
0 0 0
0 0 0
0 0 0
145 145 170
255 255 255
255 255 255
255 255 255
255 255 255
255 255 255
255 255 255
255 255 255
255 255 255
255 255 255
255 255 255
255 255 255
255 255 255
255 255 255
255 255 255
255 255 255
255 255 255
255 255 255
255 255 255
145 145 170
36 36 0
182 182 170
255 255 255
255 255 255
255 255 255
255 255 255
255 255 255
255 255 255
255 255 255
255 255 255
255 255 255
255 255 255
255 255 255
255 255 255
255 255 255
255 255 255
255 255 255
255 255 255
255 255 255
255 255 255
255 255 255
255 255 255
255 255 255
255 255 255
255 255 255
255 255 255
255 255 255
255 255 255
255 255 255
255 255 255
255 255 255
255 255 255
255 255 255
182 182 170
109 109 85
109 109 85
72 72 85
36 36 0
72 72 85
72 72 85
72 72 85
36 36 0
36 36 0
36 36 0
36 36 0
36 36 0
36 36 0
36 36 0
36 36 0
36 36 0
36 36 0
72 72 85
72 72 85
72 72 85
72 72 85
72 72 85
72 72 85
72 72 85
72 72 85
72 72 85
72 72 85
72 72 85
72 72 85
72 72 85
72 72 85
72 72 85
72 72 85
72 72 85
72 72 85
72 72 85
72 72 85
72 72 85
72 72 85
72 72 85
72 72 85
72 72 85
72 72 85
72 72 85
72 72 85
36 36 0
182 182 170
255 255 255
218 218 255
0 0 0
0 0 0
0 0 0
0 0 0
0 0 0
0 0 0
0 0 0
0 0 0
0 0 0
0 0 0
0 0 0
0 0 0
0 0 0
0 0 0
0 0 0
0 0 0
0 0 0
0 0 0
0 0 0
0 0 0
0 0 0
0 0 0
0 0 0
0 0 0
0 0 0
0 0 0
0 0 0
0 0 0
0 0 0
0 0 0
0 0 0
72 72 85
218 218 255
182 182 170
182 182 170
182 182 170
182 182 170
182 182 170
182 182 170
182 182 170
182 182 170
182 182 170
182 182 170
218 218 255
218 218 255
218 218 255
218 218 255
218 218 255
218 218 255
218 218 255
218 218 255
218 218 255
218 218 255
218 218 255
218 218 255
218 182 255
218 218 255
255 255 255
182 182 170
145 145 170
145 145 170
145 145 170
145 145 170
145 145 170
145 145 170
145 145 170
145 145 170
145 145 170
145 145 170
145 145 170
145 145 170
145 145 170
145 145 170
145 145 170
145 145 170
145 145 170
145 145 170
145 145 170
145 145 170
145 145 170
109 109 85
109 109 85
109 109 85
182 182 170
182 182 170
255 255 255
255 255 255
255 255 255
255 255 255
255 255 255
255 255 255
109 109 85
0 0 0
0 0 0
0 0 0
0 0 0
0 0 0
145 145 170
255 255 255
255 255 255
255 255 255
255 255 255
255 255 255
255 255 255
255 255 255
255 255 255
255 255 255
255 255 255
255 255 255
255 255 255
255 255 255
255 255 255
255 255 255
255 255 255
255 255 255
255 255 255
72 72 85
0 0 0
145 145 170
255 255 255
255 255 255
255 255 255
255 255 255
255 255 255
255 255 255
255 255 255
255 255 255
255 255 255
255 255 255
218 218 255
218 218 255
218 218 255
218 218 255
218 218 255
218 218 255
218 218 255
218 218 255
218 218 255
218 218 255
218 218 255
218 218 255
218 218 255
218 218 255
218 218 255
218 218 255
218 218 255
218 218 255
218 218 255
218 218 255
218 218 255
145 145 170
109 109 85
109 109 85
72 72 85
36 36 0
72 72 85
72 72 85
72 72 85
72 72 85
72 72 85
72 72 85
72 72 85
36 72 0
36 72 0
36 72 0
72 72 85
72 72 85
72 72 85
72 72 85
72 72 85
72 72 85
72 72 85
72 72 85
72 72 85
72 72 85
72 72 85
72 72 85
72 72 85
72 72 85
72 72 85
72 72 85
72 72 85
72 72 85
72 72 85
72 72 85
72 72 85
72 72 85
72 72 85
72 72 85
72 72 85
72 72 85
72 72 85
72 72 85
72 72 85
72 72 85
72 72 85
36 72 0
182 182 170
255 255 255
218 218 255
0 0 0
0 0 0
0 0 0
0 0 0
0 0 0
0 0 0
0 0 0
0 0 0
0 0 0
0 0 0
0 0 0
0 0 0
0 0 0
0 0 0
0 0 0
0 0 0
0 0 0
0 0 0
0 0 0
0 0 0
0 0 0
0 0 0
0 0 0
0 0 0
0 0 0
0 0 0
0 0 0
0 0 0
0 0 0
0 0 0
0 0 0
72 72 85
218 218 255
182 182 170
182 182 170
182 182 170
182 182 170
182 182 170
218 182 255
218 218 255
218 218 255
218 218 255
218 218 255
218 218 255
218 218 255
218 218 255
218 218 255
218 218 255
218 218 255
218 218 255
218 218 255
218 218 255
218 218 255
218 218 255
218 218 255
218 218 255
218 218 255
255 255 255
182 182 170
145 145 170
145 145 170
145 145 170
145 145 170
145 145 170
145 145 170
145 145 170
145 145 170
145 145 170
145 145 170
145 145 170
145 145 170
145 145 170
145 145 170
145 145 170
145 145 170
145 145 170
145 145 170
145 145 170
145 145 170
145 145 170
109 109 85
109 109 85
109 109 85
145 145 170
182 182 170
255 255 255
255 255 255
255 255 255
255 255 255
255 255 255
255 255 255
109 109 85
0 0 0
0 0 0
0 0 0
0 0 0
0 0 0
145 145 170
255 255 255
255 255 255
255 255 255
255 255 255
255 255 255
255 255 255
255 255 255
255 255 255
255 255 255
255 255 255
255 255 255
255 255 255
255 255 255
255 255 255
255 255 255
255 255 255
255 255 255
255 255 255
72 72 85
0 0 0
145 145 170
255 255 255
255 255 255
218 255 255
255 255 255
255 255 255
255 255 255
255 255 255
255 255 255
255 255 255
255 255 255
145 145 170
145 145 170
145 145 170
145 145 170
145 145 170
145 145 170
145 145 170
145 145 170
145 145 170
145 145 170
145 145 170
145 145 170
145 145 170
145 145 170
145 145 170
145 145 170
145 145 170
145 145 170
145 145 170
145 145 170
145 145 170
145 109 170
109 109 85
109 109 85
72 72 85
36 36 0
72 72 85
72 72 85
72 72 85
72 72 85
72 72 85
72 72 85
72 72 85
72 72 85
72 72 85
72 72 85
72 72 85
72 72 85
72 72 85
72 72 85
72 72 85
72 72 85
72 72 85
72 72 85
72 72 85
72 72 85
72 72 85
72 72 85
72 72 85
72 72 85
72 72 85
72 72 85
72 72 85
72 72 85
72 72 85
72 72 85
72 72 85
72 72 85
72 72 85
72 72 85
72 72 85
72 72 85
72 72 85
72 72 85
72 72 85
72 72 85
72 72 85
72 72 85
182 182 170
255 255 255
218 218 255
0 0 0
0 0 0
0 0 0
0 0 0
0 0 0
0 0 0
0 0 0
0 0 0
0 0 0
0 0 0
0 0 0
0 0 0
0 0 0
0 0 0
0 0 0
0 0 0
0 0 0
0 0 0
0 0 0
0 0 0
0 0 0
0 0 0
0 0 0
0 0 0
0 0 0
0 0 0
0 0 0
0 0 0
0 0 0
0 0 0
0 0 0
72 72 85
218 218 255
182 182 170
218 182 255
218 218 255
218 218 255
218 218 255
218 218 255
218 218 255
218 218 255
218 218 255
218 218 255
218 218 255
218 218 255
218 218 255
218 218 255
218 218 255
218 218 255
218 218 255
218 218 255
218 218 255
218 218 255
218 218 255
218 218 255
218 218 255
218 218 255
255 255 255
182 182 170
145 145 170
145 145 170
145 145 170
145 145 170
145 145 170
145 145 170
145 145 170
145 145 170
145 145 170
145 145 170
145 145 170
145 145 170
145 145 170
145 145 170
145 145 170
145 145 170
145 145 170
145 145 170
145 145 170
145 145 170
145 145 170
109 109 85
109 109 85
109 109 85
218 218 255
255 255 255
255 255 255
255 255 255
255 255 255
255 255 255
255 255 255
255 255 255
109 109 85
0 0 0
72 72 85
109 109 85
109 109 85
109 109 85
218 218 255
255 255 255
255 255 255
255 255 255
255 255 255
255 255 255
255 255 255
255 255 255
255 255 255
255 255 255
255 255 255
255 255 255
255 255 255
255 255 255
255 255 255
255 255 255
255 255 255
255 255 255
255 255 255
72 72 85
0 0 0
145 145 170
255 255 255
255 255 255
255 255 255
255 255 255
255 255 255
255 255 255
255 255 255
218 218 255
255 255 255
255 255 255
145 145 170
145 145 170
145 145 170
145 145 170
145 145 170
145 145 170
145 145 170
145 145 170
145 145 170
145 145 170
145 145 170
145 145 170
145 145 170
145 145 170
145 145 170
145 145 170
145 145 170
145 145 170
145 145 170
145 145 170
145 145 170
145 145 170
109 109 85
109 109 85
72 72 85
36 36 0
72 72 85
72 72 85
72 72 85
72 72 85
72 72 85
72 72 85
72 72 85
72 72 85
72 72 85
72 72 85
72 72 85
72 72 85
72 72 85
72 72 85
72 72 85
72 72 85
72 72 85
72 72 85
72 72 85
72 72 85
72 72 85
72 72 85
72 72 85
72 72 85
72 72 85
72 72 85
72 72 85
72 72 85
72 72 85
72 72 85
72 72 85
72 72 85
72 72 85
72 72 85
72 72 85
72 72 85
72 72 85
72 72 85
72 72 85
72 72 85
72 72 85
72 72 85
218 218 255
255 255 255
218 218 255
0 0 0
0 0 0
0 0 0
0 0 0
0 0 0
0 0 0
0 0 0
0 0 0
0 0 0
0 0 0
0 0 0
0 0 0
0 0 0
0 0 0
0 0 0
0 0 0
0 0 0
0 0 0
0 0 0
0 0 0
0 0 0
0 0 0
0 0 0
0 0 0
0 0 0
0 0 0
0 0 0
0 0 0
0 0 0
0 0 0
0 0 0
72 72 85
218 218 255
218 218 255
218 218 255
218 218 255
218 218 255
218 218 255
218 218 255
218 218 255
218 218 255
218 218 255
218 218 255
218 218 255
218 218 255
218 218 255
218 218 255
218 218 255
218 218 255
218 218 255
218 218 255
218 218 255
218 218 255
218 218 255
218 218 255
218 218 255
218 218 255
255 255 255
182 182 170
145 145 170
145 145 170
145 145 170
145 145 170
145 145 170
145 145 170
145 145 170
145 145 170
145 145 170
145 145 170
145 145 170
145 145 170
145 145 170
145 145 170
145 145 170
145 145 170
145 145 170
145 145 170
145 145 170
145 145 170
145 145 170
109 109 85
109 109 85
109 109 85
218 218 255
255 255 255
255 255 255
255 255 255
255 255 255
255 255 255
255 255 255
255 255 255
109 109 85
0 0 0
145 145 170
255 255 255
255 255 255
255 255 255
255 255 255
255 255 255
255 255 255
255 255 255
255 255 255
255 255 255
255 255 255
255 255 255
255 255 255
255 255 255
255 255 255
255 255 255
255 255 255
255 255 255
255 255 255
255 255 255
255 255 255
255 255 255
255 255 255
72 72 85
0 0 0
145 145 170
255 255 255
255 255 255
255 255 255
255 255 255
255 255 255
255 255 255
255 255 255
218 218 255
255 255 255
255 255 255
145 145 170
145 145 170
145 145 170
145 145 170
145 145 170
145 145 170
145 145 170
145 145 170
145 145 170
145 145 170
145 145 170
145 145 170
145 145 170
145 145 170
145 145 170
145 145 170
145 145 170
145 145 170
145 145 170
145 145 170
145 145 170
145 145 170
109 109 85
109 109 85
72 72 85
36 36 0
72 72 85
72 72 85
72 72 85
72 72 85
72 72 85
72 72 85
72 72 85
72 72 85
72 72 85
72 72 85
72 72 85
72 72 85
72 72 85
72 72 85
72 72 85
72 72 85
72 72 85
72 72 85
72 72 85
72 72 85
72 72 85
72 72 85
72 72 85
72 72 85
72 72 85
72 72 85
72 72 85
72 72 85
72 72 85
72 72 85
72 72 85
72 72 85
72 72 85
72 72 85
72 72 85
72 72 85
72 72 85
72 72 85
72 72 85
72 72 85
72 72 85
72 72 85
182 218 170
255 255 255
218 218 255
0 0 0
0 0 0
0 0 0
0 0 0
0 0 0
0 0 0
0 0 0
0 0 0
0 0 0
0 0 0
0 0 0
0 0 0
0 0 0
0 0 0
0 0 0
0 0 0
0 0 0
0 0 0
0 0 0
0 0 0
0 0 0
0 0 0
0 0 0
0 0 0
0 0 0
0 0 0
0 0 0
0 0 0
0 0 0
0 0 0
0 0 0
72 72 85
218 218 255
218 218 255
218 218 255
218 218 255
218 218 255
218 218 255
218 218 255
218 218 255
218 218 255
218 218 255
218 218 255
218 218 255
218 218 255
218 218 255
218 218 255
218 218 255
218 218 255
218 218 255
218 218 255
218 218 255
218 218 255
218 218 255
218 218 255
218 218 255
218 218 255
255 255 255
182 182 170
145 145 170
145 145 170
145 145 170
145 145 170
145 145 170
145 145 170
145 145 170
145 145 170
145 145 170
145 145 170
145 145 170
145 145 170
145 145 170
145 145 170
145 145 170
145 145 170
145 145 170
145 145 170
145 145 170
145 145 170
145 145 170
109 109 85
109 109 85
109 109 85
218 218 255
255 255 255
255 255 255
255 255 255
255 255 255
255 255 255
255 255 255
255 255 255
109 109 85
0 0 0
145 145 170
255 255 255
255 255 255
255 255 255
255 255 255
255 255 255
255 255 255
255 255 255
255 255 255
255 255 255
255 255 255
255 255 255
255 255 255
255 255 255
255 255 255
255 255 255
255 255 255
255 255 255
255 255 255
255 255 255
255 255 255
255 255 255
255 255 255
72 72 85
0 0 0
145 145 170
255 255 255
255 255 255
255 255 255
255 255 255
255 255 255
255 255 255
255 255 255
218 218 255
255 255 255
255 255 255
145 145 170
145 145 170
145 145 170
145 145 170
145 145 170
145 145 170
145 145 170
145 145 170
145 145 170
145 145 170
145 145 170
145 145 170
145 145 170
145 145 170
145 145 170
145 145 170
145 145 170
145 145 170
145 145 170
145 145 170
145 145 170
145 145 170
109 109 85
109 109 85
72 72 85
36 36 0
72 72 85
72 72 85
72 72 85
72 72 85
72 72 85
72 72 85
72 72 85
72 72 85
72 72 85
72 72 85
72 72 85
72 72 85
72 72 85
72 72 85
72 72 85
72 72 85
72 72 85
72 72 85
72 72 85
72 72 85
72 72 85
72 72 85
72 72 85
72 72 85
72 72 85
72 72 85
72 72 85
72 72 85
72 72 85
72 72 85
72 72 85
72 72 85
72 72 85
72 72 85
72 72 85
72 72 85
72 72 85
72 72 85
72 72 85
72 72 85
72 72 85
72 72 85
182 218 170
255 255 255
218 218 255
72 72 85
0 36 0
0 0 0
0 0 0
0 0 0
0 0 0
0 0 0
0 0 0
0 0 0
0 0 0
0 0 0
0 0 0
0 0 0
0 0 0
0 0 0
0 0 0
0 0 0
0 0 0
0 0 0
0 0 0
0 0 0
0 0 0
0 0 0
0 0 0
0 0 0
0 0 0
0 0 0
0 0 0
0 0 0
0 0 0
0 0 0
72 72 85
218 218 255
218 218 255
218 218 255
218 218 255
218 218 255
218 218 255
218 218 255
218 218 255
218 218 255
218 218 255
218 218 255
218 218 255
182 182 170
182 182 170
182 182 170
182 182 170
182 182 170
182 182 170
182 182 170
182 182 170
182 182 170
182 182 170
182 182 170
182 182 170
218 218 255
255 255 255
182 182 170
145 145 170
145 145 170
145 145 170
145 145 170
145 145 170
145 145 170
145 145 170
145 145 170
145 145 170
145 145 170
145 145 170
145 145 170
145 145 170
145 145 170
145 145 170
145 145 170
145 145 170
145 145 170
145 145 170
145 145 170
145 145 170
109 109 85
109 109 85
109 109 85
182 182 170
218 218 255
218 182 255
218 218 255
218 182 255
218 182 255
218 182 255
218 218 255
72 72 85
0 0 0
145 145 170
255 255 255
255 255 255
255 255 255
255 255 255
255 255 255
255 255 255
255 255 255
255 255 255
255 255 255
255 255 255
255 255 255
255 255 255
255 255 255
255 255 255
255 255 255
255 255 255
255 255 255
255 255 255
255 255 255
255 255 255
255 255 255
255 255 255
72 72 85
0 0 0
109 109 85
218 218 255
182 182 255
182 182 255
218 182 255
218 182 255
218 182 255
218 182 255
182 182 170
255 255 255
255 255 255
145 145 170
145 145 170
145 145 170
145 145 170
145 145 170
145 145 170
145 145 170
145 145 170
145 145 170
145 145 170
145 145 170
145 145 170
145 145 170
145 145 170
145 145 170
145 145 170
145 145 170
145 145 170
145 145 170
145 145 170
145 145 170
145 145 170
109 109 85
109 109 85
72 72 85
36 36 0
72 72 85
72 72 85
72 72 85
72 72 85
72 72 85
72 72 85
72 72 85
72 72 85
72 72 85
72 72 85
72 72 85
72 72 85
72 72 85
72 72 85
72 72 85
72 72 85
72 72 85
72 72 85
72 72 85
72 72 85
72 72 85
72 72 85
72 72 85
72 72 85
72 72 85
72 72 85
72 72 85
72 72 85
72 72 85
72 72 85
72 72 85
72 72 85
72 72 85
72 72 85
72 72 85
72 72 85
72 72 85
72 72 85
72 72 85
72 72 85
72 72 85
72 72 85
182 218 170
255 255 255
218 218 255
72 72 85
36 36 0
0 0 0
0 0 0
0 0 0
0 0 0
0 0 0
0 0 0
0 0 0
0 0 0
0 0 0
0 0 0
0 0 0
0 0 0
0 0 0
0 0 0
0 0 0
0 0 0
0 0 0
0 0 0
0 0 0
0 0 0
0 0 0
0 0 0
0 0 0
0 0 0
0 0 0
0 0 0
0 0 0
0 0 0
0 0 0
72 72 85
218 218 255
218 218 255
218 218 255
218 218 255
218 218 255
218 218 255
218 218 255
218 218 255
218 218 255
218 218 255
218 218 255
182 182 170
182 182 170
182 182 170
182 182 170
182 182 170
182 182 170
182 182 170
182 182 170
182 182 170
182 182 170
182 182 170
182 182 170
182 182 170
218 218 255
255 255 255
182 182 170
145 145 170
145 145 170
145 145 170
145 145 170
145 145 170
145 145 170
145 145 170
145 145 170
145 145 170
145 145 170
145 145 170
145 145 170
145 145 170
145 145 170
145 145 170
145 145 170
145 145 170
145 145 170
145 145 170
145 145 170
145 145 170
109 109 85
109 109 85
109 109 85
145 145 170
182 145 170
145 145 170
145 145 170
182 182 170
182 182 170
182 182 170
218 218 255
72 72 85
0 0 0
145 145 170
255 255 255
255 255 255
255 255 255
255 255 255
255 255 255
255 255 255
255 255 255
255 255 255
255 255 255
255 255 255
255 255 255
255 255 255
255 255 255
255 255 255
255 255 255
255 255 255
255 255 255
255 255 255
255 255 255
255 255 255
255 255 255
255 255 255
72 72 85
0 0 0
109 109 85
218 218 255
182 182 170
182 182 170
182 182 170
182 182 170
182 182 170
182 182 170
182 182 170
255 255 255
255 255 255
145 145 170
145 145 170
145 145 170
145 145 170
145 145 170
145 145 170
145 145 170
145 145 170
145 145 170
145 145 170
145 145 170
145 145 170
145 145 170
145 145 170
145 145 170
145 145 170
145 145 170
145 145 170
145 145 170
145 145 170
145 145 170
145 145 170
109 109 85
109 109 85
72 72 85
36 36 0
72 72 85
72 72 85
72 72 85
72 72 85
72 72 85
72 72 85
72 72 85
72 72 85
72 72 85
72 72 85
72 72 85
72 72 85
72 72 85
72 72 85
72 72 85
72 72 85
72 72 85
72 72 85
72 72 85
72 72 85
72 72 85
72 72 85
72 72 85
72 72 85
72 72 85
72 72 85
72 72 85
72 72 85
72 72 85
72 72 85
72 72 85
72 72 85
72 72 85
72 72 85
72 72 85
72 72 85
72 72 85
72 72 85
72 72 85
72 72 85
72 72 85
72 72 85
182 218 170
255 255 255
218 218 255
72 72 85
36 36 0
0 0 0
0 0 0
0 0 0
0 0 0
0 0 0
0 0 0
0 0 0
0 0 0
0 0 0
0 0 0
0 0 0
0 0 0
0 0 0
0 0 0
0 0 0
0 0 0
0 0 0
0 0 0
0 0 0
0 0 0
0 0 0
0 0 0
0 0 0
0 0 0
0 0 0
0 0 0
0 0 0
0 0 0
0 0 0
72 72 85
218 218 255
218 218 255
218 218 255
218 218 255
218 218 255
218 218 255
218 218 255
218 218 255
218 218 255
218 218 255
182 182 170
182 182 170
182 182 170
182 182 170
182 182 170
182 182 170
182 182 170
182 182 170
182 182 170
182 182 170
182 182 170
182 182 170
182 182 170
182 182 170
218 218 255
255 255 255
182 182 170
145 145 170
145 145 170
145 145 170
145 145 170
145 145 170
145 145 170
145 145 170
145 145 170
145 145 170
145 145 170
145 145 170
145 145 170
145 145 170
145 145 170
145 145 170
145 145 170
145 145 170
145 145 170
145 145 170
145 145 170
145 145 170
109 109 85
109 109 85
109 109 85
109 109 85
145 145 170
145 145 170
109 109 85
182 182 170
182 182 170
182 182 170
218 218 255
72 72 85
0 0 0
145 145 170
255 255 255
255 255 255
255 255 255
255 255 255
255 255 255
255 255 255
255 255 255
255 255 255
255 255 255
255 255 255
255 255 255
255 255 255
255 255 255
255 255 255
255 255 255
255 255 255
255 255 255
255 255 255
255 255 255
255 255 255
255 255 255
255 255 255
72 72 85
0 0 0
109 109 85
218 218 255
182 182 170
182 182 170
182 182 170
182 182 170
182 182 170
182 182 170
182 182 170
255 255 255
255 255 255
145 145 170
145 145 170
145 145 170
145 145 170
145 145 170
145 145 170
145 145 170
145 145 170
145 145 170
145 145 170
145 145 170
145 145 170
145 145 170
145 145 170
145 145 170
145 145 170
145 145 170
145 145 170
145 145 170
145 145 170
145 145 170
145 145 170
109 109 85
109 109 85
72 72 85
36 36 0
72 72 85
72 72 85
72 72 85
72 72 85
72 72 85
72 72 85
72 72 85
72 72 85
72 72 85
72 72 85
72 72 85
72 72 85
72 72 85
72 72 85
72 72 85
72 72 85
72 72 85
72 72 85
72 72 85
72 72 85
72 72 85
72 72 85
72 72 85
72 72 85
72 72 85
72 72 85
72 72 85
72 72 85
72 72 85
72 72 85
72 72 85
72 72 85
72 72 85
72 72 85
72 72 85
72 72 85
72 72 85
72 72 85
72 72 85
72 72 85
72 72 85
72 72 85
182 218 170
255 255 255
218 218 255
72 72 85
36 36 0
0 0 0
0 0 0
0 0 0
0 0 0
0 0 0
0 0 0
0 0 0
0 0 0
0 0 0
0 0 0
0 0 0
0 0 0
0 0 0
0 0 0
0 0 0
0 0 0
0 0 0
0 0 0
0 0 0
0 0 0
0 0 0
0 0 0
0 0 0
0 0 0
0 0 0
0 0 0
0 0 0
0 0 0
0 0 0
72 72 85
218 218 255
218 218 255
218 218 255
218 218 255
218 218 255
218 218 255
218 218 255
218 218 255
218 218 255
182 182 170
182 182 170
182 182 170
182 182 170
182 182 170
182 182 170
182 182 170
182 182 170
182 182 170
182 182 170
182 182 170
182 182 170
182 182 170
182 182 170
182 182 170
218 218 255
255 255 255
182 182 170
145 145 170
145 145 170
145 145 170
145 145 170
145 145 170
145 145 170
145 145 170
145 145 170
145 145 170
145 145 170
145 145 170
145 145 170
145 145 170
145 145 170
145 145 170
145 145 170
145 145 170
145 145 170
145 145 170
145 145 170
145 145 170
109 109 85
109 109 85
109 109 85
182 145 170
218 182 255
182 182 170
182 182 170
182 182 170
218 182 255
182 182 255
218 218 255
72 72 85
0 0 0
145 145 170
255 255 255
255 255 255
255 255 255
255 255 255
255 255 255
255 255 255
255 255 255
255 255 255
255 255 255
255 255 255
255 255 255
255 255 255
255 255 255
255 255 255
255 255 255
255 255 255
255 255 255
255 255 255
255 255 255
255 255 255
255 255 255
255 255 255
72 72 85
0 0 0
109 109 85
218 218 255
182 182 255
182 182 255
218 182 255
218 182 255
218 182 255
218 182 255
182 182 170
255 255 255
255 255 255
145 145 170
145 145 170
145 145 170
145 145 170
145 145 170
145 145 170
145 145 170
145 145 170
145 145 170
145 145 170
145 145 170
145 145 170
145 145 170
145 145 170
145 145 170
145 145 170
145 145 170
145 145 170
145 145 170
145 145 170
145 145 170
145 145 170
109 109 85
109 109 85
72 72 85
36 36 0
72 72 85
72 72 85
72 72 85
72 72 85
72 72 85
72 72 85
72 72 85
72 72 85
72 72 85
72 72 85
72 72 85
72 72 85
72 72 85
72 72 85
72 72 85
72 72 85
72 72 85
72 72 85
72 72 85
72 72 85
72 72 85
72 72 85
72 72 85
72 72 85
72 72 85
72 72 85
72 72 85
72 72 85
72 72 85
72 72 85
72 72 85
72 72 85
72 72 85
72 72 85
72 72 85
72 72 85
72 72 85
72 72 85
72 72 85
72 72 85
72 72 85
72 72 85
182 218 170
255 255 255
218 218 255
109 109 170
36 36 0
0 0 0
0 0 0
0 0 0
0 0 0
0 0 0
0 0 0
0 0 0
0 0 0
0 0 0
0 0 0
0 0 0
0 0 0
0 0 0
0 0 0
0 0 0
0 0 0
0 0 0
0 0 0
0 0 0
0 0 0
0 0 0
0 0 0
0 0 0
0 0 0
0 0 0
0 0 0
0 0 0
0 0 0
0 0 0
72 72 85
218 218 255
218 218 255
218 218 255
218 218 255
218 218 255
218 218 255
218 218 255
218 218 255
182 182 170
182 182 170
182 182 170
182 182 170
182 182 170
182 182 170
182 182 170
182 182 170
182 182 170
182 182 170
182 182 170
182 182 170
182 182 170
182 182 170
182 182 170
182 182 170
218 218 255
255 255 255
182 182 170
145 145 170
145 145 170
145 145 170
145 145 170
145 145 170
145 145 170
145 145 170
145 145 170
145 145 170
145 145 170
145 145 170
145 145 170
145 145 170
145 145 170
145 145 170
145 145 170
145 145 170
145 145 170
145 145 170
145 145 170
145 145 170
109 109 85
109 109 85
109 109 85
218 218 255
255 255 255
255 255 255
255 255 255
255 255 255
255 255 255
255 255 255
255 255 255
109 109 85
0 0 0
145 145 170
255 255 255
255 255 255
255 255 255
255 255 255
255 255 255
255 255 255
255 255 255
255 255 255
255 255 255
255 255 255
255 255 255
255 255 255
255 255 255
255 255 255
255 255 255
255 255 255
255 255 255
255 255 255
255 255 255
255 255 255
255 255 255
255 255 255
72 72 85
0 0 0
145 145 170
255 255 255
255 255 255
255 255 255
255 255 255
255 255 255
255 255 255
255 255 255
218 218 255
255 255 255
255 255 255
145 145 170
145 145 170
145 145 170
145 145 170
145 145 170
145 145 170
145 145 170
145 145 170
145 145 170
145 145 170
145 145 170
145 145 170
145 145 170
145 145 170
145 145 170
145 145 170
145 145 170
145 145 170
145 145 170
145 145 170
145 145 170
145 145 170
109 109 85
109 109 85
72 72 85
36 36 0
72 72 85
72 72 85
72 72 85
72 72 85
72 72 85
72 72 85
72 72 85
72 72 85
72 72 85
72 72 85
72 72 85
72 72 85
72 72 85
72 72 85
72 72 85
72 72 85
72 72 85
72 72 85
72 72 85
72 72 85
72 72 85
72 72 85
72 72 85
72 72 85
72 72 85
72 72 85
72 72 85
72 72 85
72 72 85
72 72 85
72 72 85
72 72 85
72 72 85
72 72 85
72 72 85
72 72 85
72 72 85
72 72 85
72 72 85
72 72 85
72 72 85
72 72 85
182 218 170
255 255 255
218 218 255
72 72 85
36 36 0
0 0 0
0 0 0
0 0 0
0 0 0
0 0 0
0 0 0
0 0 0
0 0 0
0 0 0
0 0 0
0 0 0
0 0 0
0 0 0
0 0 0
0 0 0
0 0 0
0 0 0
0 0 0
0 0 0
0 0 0
0 0 0
0 0 0
0 0 0
0 0 0
0 0 0
0 0 0
0 0 0
0 0 0
0 0 0
72 72 85
218 218 255
218 218 255
218 218 255
218 218 255
218 218 255
218 218 255
218 218 255
218 218 255
218 182 255
218 218 255
182 182 170
218 218 255
182 182 170
218 218 255
218 182 255
218 218 255
182 182 170
218 218 255
218 182 255
218 182 255
218 218 255
182 182 170
218 218 255
182 182 170
218 218 255
255 255 255
182 182 170
145 145 170
145 145 170
145 145 170
145 145 170
145 145 170
145 145 170
145 145 170
145 145 170
145 145 170
145 145 170
145 145 170
145 145 170
145 145 170
145 145 170
145 145 170
145 145 170
145 145 170
145 145 170
145 145 170
145 145 170
145 145 170
109 109 85
109 109 85
109 109 85
182 218 170
255 255 255
255 255 255
255 255 255
255 255 255
255 255 255
255 255 255
255 255 255
109 109 85
0 0 0
145 145 170
255 255 255
255 255 255
255 255 255
255 255 255
255 255 255
255 255 255
255 255 255
255 255 255
255 255 255
255 255 255
255 255 255
255 255 255
255 255 255
255 255 255
255 255 255
255 255 255
255 255 255
255 255 255
255 255 255
255 255 255
255 255 255
255 255 255
72 72 85
0 0 0
145 145 170
255 255 255
255 255 255
255 255 255
255 255 255
255 255 255
255 255 255
255 255 255
218 218 255
255 255 255
255 255 255
145 145 170
145 145 170
145 145 170
145 145 170
145 145 170
145 145 170
145 145 170
145 145 170
145 145 170
145 145 170
145 145 170
145 145 170
145 145 170
145 145 170
145 145 170
145 145 170
145 145 170
145 145 170
145 145 170
145 145 170
145 145 170
145 145 170
109 109 85
109 109 85
72 72 85
36 36 0
72 72 85
72 72 85
72 72 85
72 72 85
72 72 85
72 72 85
72 72 85
72 72 85
72 72 85
72 72 85
72 72 85
72 72 85
72 72 85
72 72 85
72 72 85
72 72 85
72 72 85
72 72 85
72 72 85
72 72 85
72 72 85
72 72 85
72 72 85
72 72 85
72 72 85
72 72 85
72 72 85
72 72 85
72 72 85
72 72 85
72 72 85
72 72 85
72 72 85
72 72 85
72 72 85
72 72 85
72 72 85
72 72 85
72 72 85
72 72 85
72 72 85
72 72 85
182 218 170
255 255 255
218 218 255
72 72 85
36 36 0
0 0 0
0 0 0
0 0 0
0 0 0
0 0 0
0 0 0
0 0 0
0 0 0
0 0 0
0 0 0
0 0 0
0 0 0
0 0 0
0 0 0
0 0 0
0 0 0
0 0 0
0 0 0
0 0 0
0 0 0
0 0 0
0 0 0
0 0 0
0 0 0
0 0 0
0 0 0
0 0 0
0 0 0
0 0 0
72 72 85
218 218 255
218 218 255
218 218 255
218 218 255
218 218 255
218 218 255
218 218 255
182 182 170
182 182 170
182 182 170
182 182 170
182 182 170
182 182 170
182 182 170
182 182 170
182 182 170
182 182 170
182 182 170
182 182 170
182 182 170
182 182 170
182 182 170
182 182 170
182 182 170
218 218 255
255 255 255
182 182 170
145 145 170
145 145 170
145 145 170
145 145 170
145 145 170
145 145 170
145 145 170
145 145 170
145 145 170
145 145 170
145 145 170
145 145 170
145 145 170
145 145 170
145 145 170
145 145 170
145 145 170
145 145 170
145 145 170
145 145 170
109 109 85
109 109 85
109 109 85
109 109 85
218 218 255
255 255 255
255 255 255
255 255 255
255 255 255
255 255 255
255 255 255
255 255 255
109 109 85
0 0 0
145 145 170
255 255 255
255 255 255
255 255 255
255 255 255
255 255 255
255 255 255
255 255 255
255 255 255
255 255 255
255 255 255
255 255 255
255 255 255
255 255 255
255 255 255
255 255 255
255 255 255
255 255 255
255 255 255
255 255 255
255 255 255
255 255 255
255 255 255
72 72 85
0 0 0
145 145 170
255 255 255
255 255 255
255 255 255
255 255 255
255 255 255
255 255 255
255 255 255
218 218 255
255 255 255
255 255 255
145 145 170
145 145 170
145 145 170
145 145 170
145 145 170
145 145 170
145 145 170
145 145 170
145 145 170
145 145 170
145 145 170
145 145 170
145 145 170
145 145 170
145 145 170
145 145 170
145 145 170
145 145 170
145 145 170
145 145 170
145 145 170
145 145 170
109 109 85
109 109 85
72 72 85
36 36 0
72 36 85
72 72 85
72 72 85
72 72 85
72 72 85
72 72 85
72 72 85
72 72 85
72 72 85
72 72 85
72 72 85
72 72 85
72 72 85
72 72 85
72 72 85
72 72 85
72 72 85
72 72 85
72 72 85
72 72 85
72 72 85
72 72 85
72 72 85
72 72 85
72 72 85
72 72 85
72 72 85
72 72 85
72 72 85
72 72 85
72 72 85
72 72 85
72 72 85
72 72 85
72 72 85
72 72 85
72 72 85
72 72 85
72 72 85
72 72 85
72 72 85
72 72 85
218 218 255
255 255 255
218 218 255
72 72 85
36 36 0
0 0 0
0 0 0
0 0 0
0 0 0
0 0 0
0 0 0
0 0 0
0 0 0
0 0 0
0 0 0
0 0 0
0 0 0
0 0 0
0 0 0
0 0 0
0 0 0
0 0 0
0 0 0
0 0 0
0 0 0
0 0 0
0 0 0
0 0 0
0 0 0
0 0 0
0 0 0
0 0 0
0 0 0
0 0 0
72 72 85
218 218 255
218 218 255
218 218 255
218 218 255
218 218 255
218 218 255
182 182 170
218 218 255
218 218 255
218 218 255
218 218 255
218 218 255
218 218 255
218 218 255
218 218 255
218 218 255
218 218 255
218 218 255
218 218 255
218 218 255
218 218 255
218 218 255
218 218 255
218 218 255
218 218 255
255 255 255
182 182 170
145 145 170
145 145 170
145 145 170
145 145 170
145 145 170
145 145 170
145 145 170
145 145 170
145 145 170
145 145 170
145 145 170
145 145 170
145 145 170
145 145 170
145 145 170
145 145 170
145 145 170
145 145 170
145 145 170
145 145 170
109 109 85
109 109 85
109 109 85
109 109 85
218 218 255
218 218 255
218 218 255
255 255 255
218 255 255
218 218 255
255 255 255
255 255 255
109 109 85
0 0 0
145 145 170
255 255 255
255 255 255
255 255 255
255 255 255
255 255 255
255 255 255
255 255 255
255 255 255
255 255 255
255 255 255
255 255 255
255 255 255
255 255 255
255 255 255
255 255 255
255 255 255
255 255 255
255 255 255
255 255 255
255 255 255
255 255 255
255 255 255
72 72 85
0 0 0
145 145 170
255 255 255
255 255 255
218 218 255
218 218 255
255 218 255
218 218 255
218 218 255
218 182 255
255 255 255
255 255 255
145 145 170
145 145 170
145 145 170
145 145 170
145 145 170
145 145 170
145 145 170
145 145 170
145 145 170
145 145 170
145 145 170
145 145 170
145 145 170
145 145 170
145 145 170
145 145 170
145 145 170
145 145 170
145 145 170
145 145 170
145 145 170
145 145 170
109 109 85
109 109 85
72 72 85
36 36 0
36 36 0
72 72 85
72 72 85
72 72 85
72 72 85
72 72 85
72 72 85
72 72 85
72 72 85
72 72 85
72 72 85
72 72 85
72 72 85
72 72 85
72 72 85
72 72 85
72 72 85
72 72 85
72 72 85
72 72 85
72 72 85
72 72 85
72 72 85
72 72 85
72 72 85
72 72 85
72 72 85
72 72 85
72 72 85
72 72 85
72 72 85
72 72 85
72 72 85
72 72 85
72 72 85
72 72 85
72 72 85
72 72 85
72 72 85
72 72 85
109 109 85
109 109 85
218 218 255
255 255 255
218 218 255
72 72 85
36 36 0
0 0 0
0 0 0
0 0 0
0 0 0
0 0 0
0 0 0
0 0 0
0 0 0
0 0 0
0 0 0
0 0 0
0 0 0
0 0 0
0 0 0
0 0 0
0 0 0
0 0 0
0 0 0
0 0 0
0 0 0
0 0 0
0 0 0
0 0 0
0 0 0
0 0 0
0 0 0
0 0 0
0 0 0
0 0 0
72 72 85
218 218 255
218 218 255
218 218 255
218 218 255
218 218 255
218 182 255
218 218 255
218 218 255
218 218 255
218 218 255
218 218 255
218 218 255
218 218 255
218 218 255
218 218 255
218 218 255
218 218 255
218 218 255
218 218 255
218 218 255
218 218 255
218 218 255
218 218 255
218 218 255
218 218 255
255 255 255
182 182 170
145 145 170
145 145 170
145 145 170
145 145 170
145 145 170
145 145 170
145 145 170
145 145 170
145 145 170
145 145 170
145 145 170
145 145 170
145 145 170
145 145 170
145 145 170
145 145 170
145 145 170
145 145 170
145 145 170
145 145 170
109 109 85
109 109 85
109 109 85
109 109 85
218 218 255
218 218 255
182 182 170
182 182 170
182 182 170
182 182 170
182 182 170
255 255 255
109 109 85
0 0 0
145 145 170
255 255 255
255 255 255
255 255 255
255 255 255
255 255 255
255 255 255
255 255 255
255 255 255
255 255 255
255 255 255
255 255 255
255 255 255
255 255 255
255 255 255
255 255 255
255 255 255
255 255 255
255 255 255
255 255 255
255 255 255
255 255 255
255 255 255
72 72 85
0 0 0
109 109 85
255 255 255
255 255 255
182 182 170
145 145 170
145 145 170
145 145 170
182 182 170
145 145 170
255 255 255
255 255 255
145 145 170
145 145 170
145 145 170
145 145 170
145 145 170
145 145 170
145 145 170
145 145 170
145 145 170
145 145 170
145 145 170
145 145 170
145 145 170
145 145 170
145 145 170
145 145 170
145 145 170
145 145 170
145 145 170
145 145 170
145 145 170
145 145 170
109 109 85
109 109 85
72 72 85
36 36 0
36 36 0
72 72 85
72 72 85
72 72 85
72 72 85
72 72 85
72 72 85
72 72 85
72 72 85
72 72 85
72 72 85
72 72 85
72 72 85
72 72 85
72 72 85
72 72 85
72 72 85
72 72 85
72 72 85
72 72 85
72 72 85
72 72 85
72 72 85
72 72 85
72 72 85
72 72 85
72 72 85
72 72 85
72 72 85
72 72 85
72 72 85
72 72 85
72 72 85
72 72 85
72 72 85
72 72 85
72 72 85
72 72 85
72 72 85
109 109 85
109 109 85
109 109 85
218 218 255
255 255 255
218 218 255
0 0 0
0 0 0
0 0 0
0 0 0
0 0 0
0 0 0
0 0 0
0 0 0
0 0 0
0 0 0
0 0 0
0 0 0
0 0 0
0 0 0
0 0 0
0 0 0
0 0 0
0 0 0
0 0 0
0 0 0
0 0 0
0 0 0
0 0 0
0 0 0
0 0 0
0 0 0
0 0 0
0 0 0
0 0 0
0 0 0
0 0 0
72 72 85
218 218 255
218 218 255
218 218 255
218 218 255
182 182 170
218 218 255
218 218 255
182 182 170
218 218 255
218 218 255
218 218 255
218 218 255
218 182 255
218 218 255
218 218 255
218 218 255
218 218 255
218 218 255
218 218 255
218 218 255
218 218 255
218 218 255
218 218 255
218 218 255
218 218 255
255 255 255
182 182 170
145 145 170
145 145 170
145 145 170
145 145 170
145 145 170
145 145 170
145 145 170
145 145 170
145 145 170
145 145 170
145 145 170
145 145 170
145 145 170
145 145 170
145 145 170
145 145 170
145 145 170
145 145 170
145 145 170
145 145 170
109 109 85
109 109 85
109 109 85
109 109 85
218 218 255
255 255 255
255 255 255
255 255 255
255 255 255
255 255 255
218 218 255
255 255 255
109 109 85
0 0 0
145 145 170
255 255 255
255 255 255
255 255 255
255 255 255
255 255 255
255 255 255
255 255 255
255 255 255
255 255 255
255 255 255
255 255 255
255 255 255
255 255 255
255 255 255
255 255 255
255 255 255
255 255 255
255 255 255
255 255 255
255 255 255
255 255 255
255 255 255
72 72 85
0 0 0
145 145 170
255 255 255
255 255 255
218 218 255
218 218 255
218 218 255
218 218 255
218 218 255
218 218 255
255 255 255
255 255 255
145 145 170
145 145 170
145 145 170
145 145 170
145 145 170
145 145 170
145 145 170
145 145 170
145 145 170
145 145 170
145 145 170
145 145 170
145 145 170
145 145 170
145 145 170
145 145 170
145 145 170
145 145 170
145 145 170
145 145 170
145 145 170
145 145 170
109 109 85
109 109 85
72 72 85
36 36 0
36 36 0
72 72 85
72 72 85
72 72 85
72 72 85
72 72 85
72 72 85
72 72 85
72 72 85
72 72 85
72 72 85
72 72 85
72 72 85
72 72 85
72 72 85
72 72 85
72 72 85
72 72 85
72 72 85
72 72 85
72 72 85
72 72 85
72 72 85
72 72 85
72 72 85
72 72 85
72 72 85
72 72 85
72 72 85
72 72 85
72 72 85
72 72 85
72 72 85
72 72 85
72 72 85
72 72 85
72 72 85
72 72 85
109 109 85
109 109 85
109 109 85
109 109 85
218 218 255
255 255 255
218 218 255
0 0 0
0 0 0
0 0 0
0 0 0
0 0 0
0 0 0
0 0 0
0 0 0
0 0 0
0 0 0
0 0 0
0 0 0
0 0 0
0 0 0
0 0 0
0 0 0
0 0 0
0 0 0
0 0 0
0 0 0
0 0 0
0 0 0
0 0 0
0 0 0
0 0 0
0 0 0
0 0 0
0 0 0
0 0 0
0 0 0
0 0 0
72 72 85
218 218 255
218 218 255
218 218 255
218 182 255
182 182 170
182 182 170
182 182 170
182 182 170
182 182 170
182 182 170
182 182 170
182 182 170
182 182 170
182 182 170
182 182 170
182 182 170
182 182 170
182 182 170
182 182 170
182 182 170
182 182 170
182 182 170
182 182 170
182 182 170
218 218 255
255 255 255
182 182 170
145 145 170
145 145 170
145 145 170
145 145 170
145 145 170
145 145 170
145 145 170
145 145 170
145 145 170
145 145 170
145 145 170
145 145 170
145 145 170
145 145 170
145 145 170
145 145 170
145 145 170
145 145 170
145 145 170
145 145 170
109 109 85
109 109 85
109 109 85
109 109 85
218 218 255
255 255 255
255 255 255
255 255 255
255 255 255
255 255 255
255 255 255
255 255 255
109 109 85
0 0 0
109 109 85
218 218 255
218 218 255
218 218 255
218 218 255
218 218 255
218 218 255
218 218 255
218 218 255
218 218 255
218 218 255
218 218 255
218 218 255
218 218 255
218 218 255
218 218 255
218 218 255
218 218 255
218 218 255
218 218 255
218 218 255
218 218 255
218 218 255
72 72 85
0 0 0
145 145 170
255 255 255
255 255 255
255 255 255
255 255 255
255 255 255
255 255 255
255 255 255
218 218 255
255 255 255
255 255 255
145 145 170
145 145 170
145 145 170
145 145 170
145 145 170
145 145 170
145 145 170
145 145 170
145 145 170
145 145 170
145 145 170
145 145 170
145 145 170
145 145 170
145 145 170
145 145 170
145 145 170
145 145 170
145 145 170
145 145 170
145 145 170
109 109 85
109 109 85
109 109 85
72 72 85
36 36 0
36 36 0
72 72 85
72 72 85
72 72 85
72 72 85
72 72 85
72 72 85
72 72 85
72 72 85
72 72 85
72 72 85
72 72 85
72 72 85
72 72 85
72 72 85
72 72 85
72 72 85
72 72 85
72 72 85
72 72 85
72 72 85
72 72 85
72 72 85
72 72 85
72 72 85
72 72 85
72 72 85
72 72 85
72 72 85
72 72 85
72 72 85
72 72 85
72 72 85
72 72 85
72 72 85
72 72 85
72 72 85
72 72 85
109 109 85
109 109 85
109 109 85
109 109 85
218 218 255
255 255 255
218 218 255
0 0 0
0 0 0
0 0 0
0 0 0
0 0 0
0 0 0
0 0 0
0 0 0
0 0 0
0 0 0
0 0 0
0 0 0
0 0 0
0 0 0
0 0 0
0 0 0
0 0 0
0 0 0
0 0 0
0 0 0
0 0 0
0 0 0
0 0 0
0 0 0
0 0 0
0 0 0
0 0 0
0 0 0
0 0 0
0 0 0
0 0 0
72 72 85
218 218 255
218 218 255
218 218 255
218 218 255
218 218 255
218 218 255
218 218 255
218 218 255
218 218 255
218 218 255
218 218 255
218 218 255
218 218 255
218 218 255
218 218 255
218 218 255
218 218 255
218 218 255
218 218 255
218 218 255
218 218 255
218 218 255
218 218 255
218 218 255
218 218 255
255 255 255
182 182 170
145 145 170
145 145 170
145 145 170
145 145 170
145 145 170
145 145 170
145 145 170
145 145 170
145 145 170
145 145 170
145 145 170
145 145 170
145 145 170
145 145 170
145 145 170
145 145 170
145 145 170
145 145 170
145 145 170
145 145 170
109 109 85
109 109 85
109 109 85
109 109 85
218 218 255
255 255 255
255 255 255
255 255 255
255 255 255
255 255 255
255 255 255
255 255 255
109 109 85
0 0 0
0 0 0
0 0 0
0 0 0
0 0 0
0 0 0
0 0 0
0 0 0
0 0 0
0 0 0
0 0 0
0 0 0
0 0 0
0 0 0
0 0 0
0 0 0
0 0 0
0 0 0
0 0 0
0 0 0
0 0 0
0 0 0
0 0 0
0 0 0
0 0 0
0 0 0
182 182 170
255 255 255
255 255 255
255 255 255
255 255 255
255 255 255
255 255 255
255 255 255
255 255 255
255 255 255
255 255 255
145 145 170
145 145 170
145 145 170
145 145 170
145 145 170
145 145 170
145 145 170
145 145 170
145 145 170
145 145 170
145 145 170
145 145 170
145 145 170
145 145 170
145 145 170
145 145 170
145 145 170
145 145 170
145 145 170
145 145 170
145 145 170
109 109 85
109 109 85
109 109 85
72 72 85
36 36 0
36 36 0
72 72 85
72 72 85
72 72 85
72 72 85
72 72 85
72 72 85
72 72 85
72 72 85
72 72 85
72 72 85
72 72 85
72 72 85
72 72 85
72 72 85
72 72 85
72 72 85
72 72 85
72 72 85
72 72 85
72 72 85
72 72 85
72 72 85
72 72 85
72 72 85
72 72 85
72 72 85
72 72 85
72 72 85
72 72 85
72 72 85
72 72 85
72 72 85
72 72 85
72 72 85
72 72 85
72 72 85
72 72 85
109 109 85
109 109 85
109 109 85
109 109 85
218 218 255
255 255 255
218 218 255
0 0 0
0 0 0
0 0 0
0 0 0
0 0 0
0 0 0
0 0 0
0 0 0
0 0 0
0 0 0
0 0 0
0 0 0
0 0 0
0 0 0
0 0 0
0 0 0
0 0 0
0 0 0
0 0 0
0 0 0
0 0 0
0 0 0
0 0 0
0 0 0
0 0 0
0 0 0
0 0 0
0 0 0
0 0 0
0 0 0
0 0 0
72 72 85
218 218 255
218 218 255
182 182 170
218 218 255
182 182 170
182 182 170
218 218 255
182 182 170
182 182 170
218 218 255
182 182 170
218 218 255
218 218 255
182 182 170
218 218 255
182 182 170
182 182 170
218 218 255
182 182 170
182 182 170
218 218 255
182 182 170
218 218 255
182 182 170
218 218 255
255 255 255
182 182 170
145 145 170
145 145 170
145 145 170
145 145 170
145 145 170
145 145 170
145 145 170
145 145 170
145 145 170
145 145 170
145 145 170
145 145 170
145 145 170
145 145 170
145 145 170
145 145 170
145 145 170
145 145 170
145 145 170
145 145 170
109 109 85
109 109 85
109 109 85
109 109 85
218 218 255
255 255 255
255 255 255
255 255 255
255 255 255
255 255 255
255 255 255
255 255 255
109 109 85
0 0 0
0 0 0
0 0 0
0 0 0
0 0 0
0 0 0
0 0 0
0 0 0
0 0 0
0 0 0
0 0 0
0 0 0
0 0 0
0 0 0
0 0 0
0 0 0
0 0 0
0 0 0
0 0 0
0 0 0
0 0 0
0 0 0
0 0 0
0 0 0
0 0 0
0 0 0
182 182 170
255 255 255
255 255 255
255 255 255
255 255 255
255 255 255
255 255 255
255 255 255
255 255 255
255 255 255
255 255 255
145 145 170
145 145 170
145 145 170
145 145 170
145 145 170
145 145 170
145 145 170
145 145 170
145 145 170
145 145 170
145 145 170
145 145 170
145 145 170
145 145 170
145 145 170
145 145 170
145 145 170
145 145 170
145 145 170
145 145 170
145 145 170
109 109 85
109 109 85
109 109 85
72 72 85
36 36 0
36 36 0
72 72 85
72 72 85
72 72 85
72 72 85
72 72 85
72 72 85
72 72 85
72 72 85
72 72 85
72 72 85
72 72 85
72 72 85
72 72 85
72 72 85
72 72 85
72 72 85
72 72 85
72 72 85
72 72 85
72 72 85
72 72 85
72 72 85
72 72 85
72 72 85
72 72 85
72 72 85
72 72 85
72 72 85
72 72 85
72 72 85
72 72 85
72 72 85
72 72 85
72 72 85
72 72 85
72 72 85
72 72 85
109 109 85
109 109 85
109 109 85
109 109 85
218 218 255
255 255 255
218 218 255
0 0 0
0 0 0
0 0 0
0 0 0
0 0 0
0 0 0
0 0 0
0 0 0
0 0 0
0 0 0
0 0 0
0 0 0
0 0 0
0 0 0
0 0 0
0 0 0
0 0 0
0 0 0
0 0 0
0 0 0
0 0 0
0 0 0
0 0 0
0 0 0
0 0 0
0 0 0
0 0 0
0 0 0
0 0 0
0 0 0
0 0 0
72 72 85
218 218 255
182 182 170
218 182 255
182 182 170
182 182 170
218 218 255
182 182 170
182 182 170
218 218 255
182 182 170
182 182 170
218 218 255
182 182 170
182 182 170
218 218 255
182 182 170
182 218 170
218 218 255
182 182 170
218 218 255
218 218 255
182 182 170
218 218 255
182 182 170
218 218 255
255 255 255
182 182 170
145 145 170
145 145 170
145 145 170
145 145 170
145 145 170
145 145 170
145 145 170
145 145 170
145 145 170
145 145 170
145 145 170
145 145 170
145 145 170
145 145 170
145 145 170
145 145 170
145 145 170
145 145 170
145 145 170
145 145 170
145 145 170
109 109 85
145 145 170
145 145 170
182 182 170
255 255 255
255 255 255
255 255 255
255 255 255
255 255 255
255 255 255
255 255 255
109 109 85
0 0 0
0 0 0
0 0 0
0 0 0
0 0 0
0 0 0
0 0 0
0 0 0
0 0 0
0 0 0
0 0 0
0 0 0
0 0 0
0 0 0
0 0 0
0 0 0
0 0 0
0 0 0
0 0 0
0 0 0
0 0 0
0 0 0
0 0 0
0 0 0
0 0 0
0 0 0
182 182 170
255 255 255
255 255 255
255 255 255
255 255 255
255 255 255
255 255 255
255 255 255
255 255 255
255 255 255
255 255 255
145 145 170
145 145 170
145 145 170
145 145 170
145 145 170
145 145 170
145 145 170
145 145 170
145 145 170
145 145 170
145 145 170
145 145 170
145 145 170
145 145 170
145 145 170
145 145 170
145 145 170
145 145 170
145 145 170
145 145 170
109 109 85
109 109 85
109 109 85
109 109 85
72 72 85
36 36 0
36 36 0
72 72 85
72 72 85
72 72 85
72 72 85
72 72 85
72 72 85
72 72 85
72 72 85
72 72 85
72 72 85
72 72 85
72 72 85
72 72 85
72 72 85
72 72 85
72 72 85
72 72 85
72 72 85
72 72 85
72 72 85
72 72 85
72 72 85
72 72 85
72 72 85
72 72 85
72 72 85
72 72 85
72 72 85
72 72 85
72 72 85
72 72 85
72 72 85
72 72 85
72 72 85
72 72 85
72 72 85
72 72 85
109 109 85
109 109 85
109 109 85
109 109 85
218 218 255
255 255 255
218 218 255
0 0 0
0 0 0
0 0 0
0 0 0
0 0 0
0 0 0
0 0 0
0 0 0
0 0 0
0 0 0
0 0 0
0 0 0
0 0 0
0 0 0
0 0 0
0 0 0
0 0 0
0 0 0
0 0 0
0 0 0
0 0 0
0 0 0
0 0 0
0 0 0
0 0 0
0 0 0
0 0 0
0 0 0
0 0 0
0 0 0
0 0 0
72 72 85
218 218 255
218 218 255
218 218 255
218 218 255
218 218 255
218 218 255
218 218 255
218 218 255
218 218 255
218 218 255
218 218 255
218 218 255
218 218 255
218 218 255
218 218 255
218 218 255
218 218 255
218 218 255
218 218 255
218 218 255
218 218 255
218 218 255
218 218 255
218 218 255
218 218 255
255 255 255
182 182 170
145 145 170
145 145 170
145 145 170
145 145 170
145 145 170
145 145 170
145 145 170
145 145 170
145 145 170
145 145 170
145 145 170
145 145 170
145 145 170
145 145 170
145 145 170
145 145 170
145 145 170
145 145 170
145 145 170
145 145 170
145 145 170
145 145 170
255 255 255
255 255 255
182 182 170
255 255 255
255 255 255
255 255 255
255 255 255
255 255 255
255 255 255
255 255 255
218 218 255
145 145 170
145 145 170
109 109 85
109 109 85
109 109 85
145 109 170
145 145 170
145 145 170
145 145 170
145 145 170
145 145 170
145 145 170
145 145 170
145 145 170
145 145 170
145 145 170
145 145 170
145 145 170
145 145 170
109 109 85
109 109 85
109 109 85
109 109 85
109 109 85
145 145 170
145 145 170
218 218 255
255 255 255
255 255 255
255 255 255
255 255 255
255 255 255
255 255 255
255 255 255
255 255 255
255 255 255
255 255 255
145 145 170
145 145 170
145 145 170
145 145 170
145 145 170
145 145 170
145 145 170
145 145 170
145 145 170
145 145 170
145 145 170
145 145 170
145 145 170
145 145 170
145 145 170
145 145 170
145 145 170
145 145 170
145 145 170
145 145 170
109 109 85
109 109 85
109 109 85
109 109 85
72 72 85
36 36 0
36 36 0
72 72 85
72 72 85
72 72 85
72 72 85
72 72 85
72 72 85
72 72 85
72 72 85
72 72 85
72 72 85
72 72 85
72 72 85
72 72 85
72 72 85
72 72 85
72 72 85
72 72 85
72 72 85
72 72 85
72 72 85
72 72 85
72 72 85
72 72 85
72 72 85
72 72 85
72 72 85
72 72 85
72 72 85
72 72 85
72 72 85
72 72 85
72 72 85
72 72 85
72 72 85
72 72 85
72 72 85
72 72 85
109 109 85
109 109 85
109 109 85
109 109 85
218 218 255
255 255 255
218 218 255
0 0 0
0 0 0
0 0 0
0 0 0
0 0 0
0 0 0
0 0 0
0 0 0
0 0 0
0 0 0
0 0 0
0 0 0
0 0 0
0 0 0
0 0 0
0 0 0
0 0 0
0 0 0
0 0 0
0 0 0
0 0 0
0 0 0
0 0 0
0 0 0
0 0 0
0 0 0
0 0 0
0 0 0
0 0 0
0 0 0
0 0 0
72 72 85
218 218 255
218 218 255
182 182 170
218 218 255
218 218 255
182 182 170
218 218 255
218 218 255
182 182 170
218 218 255
218 218 255
182 182 170
218 218 255
218 218 255
182 182 170
218 218 255
218 218 255
182 182 170
218 218 255
218 218 255
182 182 170
218 218 255
218 218 255
182 182 170
218 218 255
255 255 255
182 182 170
145 145 170
145 145 170
145 145 170
145 145 170
145 145 170
145 145 170
145 145 170
145 145 170
145 145 170
145 145 170
145 145 170
145 145 170
145 145 170
145 145 170
145 145 170
145 145 170
145 145 170
145 145 170
145 145 170
145 145 170
145 145 170
145 145 170
255 255 255
255 255 255
255 255 255
255 255 255
255 255 255
255 255 255
255 255 255
255 255 255
255 255 255
255 255 255
255 255 255
255 255 255
255 255 255
255 255 255
255 255 255
255 255 255
255 255 255
255 255 255
255 255 255
255 255 255
255 255 255
255 255 255
255 255 255
255 255 255
255 255 255
255 255 255
255 255 255
255 255 255
255 255 255
255 255 255
255 255 255
255 255 255
255 255 255
255 255 255
255 255 255
255 255 255
255 255 255
255 255 255
255 255 255
255 255 255
255 255 255
255 255 255
255 255 255
255 255 255
255 255 255
255 255 255
255 255 255
255 255 255
145 145 170
145 145 170
145 145 170
145 145 170
145 145 170
145 145 170
145 145 170
145 145 170
145 145 170
145 145 170
145 145 170
145 145 170
145 145 170
145 145 170
145 145 170
145 145 170
145 145 170
145 145 170
145 145 170
145 145 170
109 109 85
109 109 85
109 109 85
109 109 85
72 72 85
36 36 0
36 36 0
72 72 85
72 72 85
72 72 85
72 72 85
72 72 85
72 72 85
72 72 85
72 72 85
72 72 85
72 72 85
72 72 85
72 72 85
72 72 85
72 72 85
72 72 85
72 72 85
72 72 85
72 72 85
72 72 85
72 72 85
72 72 85
72 72 85
72 72 85
72 72 85
72 72 85
72 72 85
72 72 85
72 72 85
72 72 85
72 72 85
72 72 85
72 72 85
72 72 85
72 72 85
72 72 85
72 72 85
72 72 85
109 109 85
109 109 85
109 109 85
109 109 85
218 218 255
255 255 255
218 218 255
0 0 0
0 0 0
0 0 0
0 0 0
0 0 0
0 0 0
0 0 0
0 0 0
0 0 0
0 0 0
0 0 0
0 0 0
0 0 0
0 0 0
0 0 0
0 0 0
0 0 0
0 0 0
0 0 0
0 0 0
0 0 0
0 0 0
0 0 0
0 0 0
0 0 0
0 0 0
0 0 0
0 0 0
0 0 0
0 0 0
0 0 0
72 72 85
218 218 255
182 182 170
182 182 170
182 182 170
182 182 170
182 182 170
182 182 170
182 182 170
182 182 170
182 182 170
182 182 170
182 182 170
182 182 170
182 182 170
182 182 170
182 182 170
182 182 170
182 182 170
182 182 170
182 182 170
182 182 170
182 182 170
182 182 170
182 182 170
218 218 255
255 255 255
182 182 170
145 145 170
145 145 170
145 145 170
145 145 170
145 145 170
145 145 170
145 145 170
145 145 170
145 145 170
145 145 170
145 145 170
145 145 170
145 145 170
145 145 170
145 145 170
145 145 170
145 145 170
145 145 170
145 145 170
145 145 170
145 145 170
145 145 170
255 255 255
255 255 255
255 255 255
255 255 255
255 255 255
255 255 255
255 255 255
255 255 255
255 255 255
255 255 255
255 255 255
255 255 255
255 255 255
255 255 255
255 255 255
255 255 255
255 255 255
255 255 255
255 255 255
255 255 255
255 255 255
255 255 255
255 255 255
255 255 255
255 255 255
255 255 255
255 255 255
255 255 255
255 255 255
255 255 255
255 255 255
255 255 255
255 255 255
255 255 255
255 255 255
255 255 255
255 255 255
255 255 255
255 255 255
255 255 255
255 255 255
255 255 255
255 255 255
255 255 255
255 255 255
255 255 255
255 255 255
255 255 255
145 145 170
145 145 170
145 145 170
145 145 170
145 145 170
145 145 170
145 145 170
145 145 170
145 145 170
145 145 170
145 145 170
145 145 170
145 145 170
145 145 170
145 145 170
145 145 170
145 145 170
145 145 170
145 145 170
145 145 170
109 109 85
109 109 85
109 109 85
109 109 85
72 72 85
36 36 0
36 36 0
72 72 85
72 72 85
72 72 85
72 72 85
72 72 85
72 72 85
72 72 85
72 72 85
72 72 85
72 72 85
72 72 85
72 72 85
72 72 85
72 72 85
72 72 85
72 72 85
72 72 85
72 72 85
72 72 85
72 72 85
72 72 85
72 72 85
72 72 85
72 72 85
72 72 85
72 72 85
72 72 85
72 72 85
72 72 85
72 72 85
72 72 85
72 72 85
72 72 85
72 72 85
72 72 85
72 72 85
72 72 85
109 109 85
109 109 85
109 109 85
109 109 85
218 218 255
255 255 255
218 218 255
0 0 0
0 0 0
0 0 0
0 0 0
0 0 0
0 0 0
0 0 0
0 0 0
0 0 0
0 0 0
0 0 0
0 0 0
0 0 0
0 0 0
0 0 0
0 0 0
0 0 0
0 0 0
0 0 0
0 0 0
0 0 0
0 0 0
0 0 0
0 0 0
0 0 0
0 0 0
0 0 0
0 0 0
0 0 0
0 0 0
0 0 0
72 72 85
218 218 255
218 218 255
218 218 255
218 218 255
218 218 255
218 218 255
218 218 255
218 218 255
218 218 255
218 218 255
218 218 255
218 218 255
218 218 255
218 218 255
218 218 255
218 218 255
218 218 255
218 218 255
218 218 255
218 218 255
218 218 255
218 218 255
218 218 255
182 218 170
218 218 255
255 255 255
182 182 170
145 145 170
145 145 170
145 145 170
145 145 170
145 145 170
145 145 170
145 145 170
145 145 170
145 145 170
145 145 170
145 145 170
145 145 170
145 145 170
145 145 170
145 145 170
145 145 170
145 145 170
145 145 170
145 145 170
145 145 170
145 145 170
145 145 170
255 255 255
255 255 255
218 218 255
255 255 255
255 255 255
255 255 255
255 255 255
255 255 255
255 255 255
255 255 255
255 255 255
255 255 255
255 255 255
255 255 255
255 255 255
255 255 255
255 255 255
255 255 255
255 255 255
255 255 255
255 255 255
255 255 255
255 255 255
255 255 255
255 255 255
255 255 255
255 255 255
255 255 255
255 255 255
255 255 255
255 255 255
255 255 255
255 255 255
255 255 255
255 255 255
255 255 255
255 255 255
255 255 255
255 255 255
255 255 255
255 255 255
255 255 255
255 255 255
255 255 255
255 255 255
255 255 255
255 255 255
255 255 255
145 145 170
145 145 170
145 145 170
145 145 170
145 145 170
145 145 170
145 145 170
145 145 170
145 145 170
145 145 170
145 145 170
145 145 170
145 145 170
145 145 170
145 145 170
145 145 170
145 145 170
145 145 170
145 145 170
145 145 170
109 109 85
109 109 85
109 109 85
109 109 85
72 72 85
36 36 0
36 36 0
72 72 85
72 72 85
72 72 85
72 72 85
72 72 85
72 72 85
72 72 85
72 72 85
72 72 85
72 72 85
72 72 85
72 72 85
72 72 85
72 72 85
72 72 85
72 72 85
72 72 85
72 72 85
72 72 85
72 72 85
72 72 85
72 72 85
72 72 85
72 72 85
72 72 85
72 72 85
72 72 85
72 72 85
72 72 85
72 72 85
72 72 85
72 72 85
72 72 85
72 72 85
72 72 85
72 72 85
109 109 85
109 109 85
109 109 85
109 109 85
109 109 85
218 218 255
255 255 255
218 218 255
0 0 0
0 0 0
0 0 0
0 0 0
0 0 0
0 0 0
0 0 0
0 0 0
0 0 0
0 0 0
0 0 0
0 0 0
0 0 0
0 0 0
0 0 0
0 0 0
0 0 0
0 0 0
0 0 0
0 0 0
0 0 0
0 0 0
0 0 0
0 0 0
0 0 0
0 0 0
0 0 0
0 0 0
0 0 0
0 0 0
0 0 0
72 72 85
218 218 255
218 218 255
218 218 255
218 218 255
218 218 255
218 218 255
218 218 255
218 218 255
218 218 255
218 218 255
218 218 255
218 218 255
218 218 255
218 218 255
218 218 255
218 218 255
218 218 255
218 218 255
218 218 255
218 218 255
218 218 255
218 218 255
218 218 255
182 218 170
218 218 255
255 255 255
182 182 170
145 145 170
145 145 170
145 145 170
145 145 170
145 145 170
145 145 170
145 145 170
145 145 170
145 145 170
145 145 170
145 145 170
145 145 170
145 145 170
145 145 170
145 145 170
145 145 170
145 145 170
145 145 170
145 145 170
145 145 170
145 145 170
145 145 170
255 255 255
255 255 255
255 255 255
255 255 255
255 255 255
255 255 255
255 255 255
255 255 255
255 255 255
255 255 255
255 255 255
255 255 255
255 255 255
255 255 255
218 218 255
255 255 255
255 255 255
255 255 255
255 255 255
255 255 255
255 255 255
255 255 255
255 255 255
255 255 255
255 255 255
255 255 255
255 255 255
255 255 255
255 255 255
255 255 255
255 255 255
255 255 255
255 255 255
255 255 255
255 255 255
255 255 255
255 255 255
255 255 255
255 255 255
255 255 255
255 255 255
255 255 255
255 255 255
255 255 255
255 255 255
255 255 255
255 255 255
255 255 255
145 145 170
145 145 170
145 145 170
145 145 170
145 145 170
145 145 170
145 145 170
145 145 170
145 145 170
145 145 170
145 145 170
145 145 170
145 145 170
145 145 170
145 145 170
145 145 170
145 145 170
145 145 170
145 145 170
145 145 170
145 145 170
109 109 85
109 109 85
109 109 85
72 72 85
36 36 0
36 36 0
72 72 85
72 72 85
72 72 85
72 72 85
72 72 85
72 72 85
72 72 85
72 72 85
72 72 85
72 72 85
72 72 85
72 72 85
72 72 85
72 72 85
72 72 85
72 72 85
72 72 85
72 72 85
72 72 85
72 72 85
72 72 85
72 72 85
72 72 85
72 72 85
72 72 85
72 72 85
72 72 85
72 72 85
72 72 85
72 72 85
72 72 85
72 72 85
72 72 85
72 72 85
72 72 85
72 72 85
109 109 85
109 109 85
109 109 85
109 109 85
109 109 85
218 218 255
255 255 255
218 218 255
0 0 0
0 0 0
0 0 0
0 0 0
0 0 0
0 0 0
0 0 0
0 0 0
0 0 0
0 0 0
0 0 0
0 0 0
0 0 0
0 0 0
0 0 0
0 0 0
0 0 0
0 0 0
0 0 0
0 0 0
0 0 0
0 0 0
0 0 0
0 0 0
0 0 0
0 0 0
0 0 0
0 0 0
0 0 0
0 0 0
0 0 0
72 72 85
182 182 170
182 182 170
182 182 170
182 182 170
182 182 170
182 182 170
182 182 170
182 182 170
182 182 170
182 182 170
182 182 170
182 182 170
182 182 170
182 182 170
182 182 170
182 182 170
182 182 170
182 182 170
182 182 170
182 182 170
182 182 170
182 182 170
182 182 170
182 182 170
218 218 255
255 255 255
182 182 170
145 145 170
145 145 170
145 145 170
145 145 170
145 145 170
145 145 170
145 145 170
145 145 170
145 145 170
145 145 170
145 145 170
145 145 170
145 145 170
145 145 170
145 145 170
145 145 170
145 145 170
145 145 170
145 145 170
145 145 170
145 145 170
145 145 170
255 255 255
255 255 255
255 255 255
182 182 170
218 218 255
218 218 255
255 255 255
255 255 255
255 255 255
255 255 255
255 255 255
255 255 255
255 255 255
218 218 255
145 182 170
182 182 170
182 182 170
182 182 170
182 182 170
182 182 170
182 182 170
182 182 170
182 182 170
218 218 255
255 255 255
255 255 255
255 255 255
255 255 255
255 255 255
255 255 255
255 255 255
218 218 255
218 218 255
218 218 255
218 218 255
218 218 255
255 255 255
218 218 255
218 218 255
218 218 255
255 255 255
218 218 255
255 255 255
255 255 255
255 255 255
255 255 255
255 255 255
255 255 255
145 145 170
145 145 170
145 145 170
145 145 170
145 145 170
145 145 170
145 145 170
145 145 170
145 145 170
145 145 170
145 145 170
145 145 170
145 145 170
145 145 170
145 145 170
145 145 170
145 145 170
145 145 170
145 145 170
145 145 170
145 145 170
145 145 170
145 145 170
182 182 170
109 109 85
36 36 0
36 36 0
72 72 85
72 72 85
72 72 85
72 72 85
72 72 85
72 72 85
72 72 85
72 72 85
72 72 85
72 72 85
72 72 85
72 72 85
72 72 85
72 72 85
72 72 85
72 72 85
72 72 85
72 72 85
72 72 85
72 72 85
72 72 85
72 72 85
72 72 85
72 72 85
72 72 85
72 72 85
72 72 85
72 72 85
72 72 85
72 72 85
72 72 85
72 72 85
72 72 85
72 72 85
72 72 85
72 72 85
109 109 85
109 109 85
109 109 85
109 109 85
109 109 85
218 218 255
255 255 255
218 218 255
0 0 0
0 0 0
0 0 0
0 0 0
0 0 0
0 0 0
0 0 0
0 0 0
0 0 0
0 0 0
0 0 0
0 0 0
0 0 0
0 0 0
0 0 0
0 0 0
0 0 0
0 0 0
0 0 0
0 0 0
0 0 0
0 0 0
0 0 0
0 0 0
0 0 0
0 0 0
0 0 0
0 0 0
0 0 0
0 0 0
0 0 0
72 72 85
218 218 255
218 218 255
182 182 170
218 218 255
218 218 255
218 218 255
218 218 255
218 218 255
218 218 255
182 218 170
218 218 255
218 218 255
218 218 255
218 218 255
218 218 255
218 218 255
218 218 255
218 218 255
218 218 255
182 218 170
218 218 255
218 218 255
218 218 255
182 218 170
218 218 255
255 255 255
182 182 170
145 145 170
145 145 170
145 145 170
145 145 170
145 145 170
145 145 170
145 145 170
145 145 170
145 145 170
145 145 170
145 145 170
145 145 170
145 145 170
145 145 170
145 145 170
145 145 170
145 145 170
145 145 170
145 145 170
145 145 170
145 145 170
145 145 170
255 255 255
255 255 255
218 218 255
182 182 170
182 182 170
218 218 255
255 255 255
255 255 255
255 255 255
255 255 255
255 255 255
255 255 255
255 255 255
255 255 255
255 255 255
218 218 255
218 255 255
218 218 255
218 218 255
218 218 255
218 218 255
218 218 255
218 218 255
255 255 255
255 255 255
255 255 255
255 255 255
255 255 255
255 255 255
255 255 255
255 255 255
218 218 255
182 182 170
182 182 170
182 182 170
182 182 170
182 182 170
218 218 255
182 182 170
145 182 170
218 218 255
182 182 170
218 218 255
255 255 255
255 255 255
255 255 255
255 255 255
255 255 255
145 145 170
145 145 170
145 145 170
145 145 170
145 145 170
145 145 170
145 145 170
145 145 170
145 145 170
145 145 170
145 145 170
145 145 170
145 145 170
145 145 170
145 145 170
145 145 170
145 145 170
145 145 170
145 145 170
145 145 170
145 145 170
145 145 170
182 182 170
255 255 255
182 182 170
36 36 0
36 36 0
72 72 85
72 72 85
72 72 85
72 72 85
72 72 85
72 72 85
72 72 85
72 72 85
72 72 85
72 72 85
72 72 85
72 72 85
72 72 85
72 72 85
72 72 85
72 72 85
72 72 85
72 72 85
72 72 85
72 72 85
72 72 85
72 72 85
72 72 85
72 72 85
72 72 85
72 72 85
72 72 85
72 72 85
72 72 85
72 72 85
72 72 85
72 72 85
72 72 85
72 72 85
72 72 85
72 72 85
109 109 85
109 109 85
109 109 85
109 109 85
109 109 85
218 218 255
255 255 255
218 218 255
0 0 0
0 0 0
0 0 0
0 0 0
0 0 0
0 0 0
0 0 0
0 0 0
0 0 0
0 0 0
0 0 0
0 0 0
0 0 0
0 0 0
0 0 0
0 0 0
0 0 0
0 0 0
0 0 0
0 0 0
0 0 0
0 0 0
0 0 0
0 0 0
0 0 0
0 0 0
0 0 0
0 0 0
0 0 0
0 0 0
0 0 0
72 72 85
218 218 255
218 218 255
218 218 255
218 218 255
218 218 255
218 218 255
218 218 255
218 218 255
218 218 255
218 218 255
218 218 255
218 218 255
218 218 255
218 218 255
218 218 255
218 218 255
218 218 255
218 218 255
218 218 255
218 218 255
218 218 255
218 218 255
218 218 255
218 218 255
218 218 255
255 255 255
182 182 170
145 145 170
145 145 170
145 145 170
145 145 170
145 145 170
145 145 170
145 145 170
145 145 170
145 145 170
145 145 170
145 145 170
145 145 170
145 145 170
145 145 170
145 145 170
145 145 170
145 145 170
145 145 170
145 145 170
145 145 170
145 145 170
145 145 170
255 255 255
255 255 255
218 218 255
218 218 255
255 255 255
255 255 255
255 255 255
255 255 255
255 255 255
255 255 255
255 255 255
255 255 255
255 255 255
255 255 255
255 255 255
255 255 255
255 255 255
255 255 255
255 255 255
255 255 255
255 255 255
255 255 255
255 255 255
255 255 255
255 255 255
255 255 255
255 255 255
255 255 255
255 255 255
255 255 255
255 255 255
255 255 255
255 255 255
255 255 255
255 255 255
255 255 255
218 218 255
255 255 255
255 255 255
255 255 255
255 255 255
255 255 255
255 255 255
255 255 255
255 255 255
255 255 255
255 255 255
255 255 255
145 145 170
145 145 170
145 145 170
145 145 170
145 145 170
145 145 170
145 145 170
145 145 170
145 145 170
145 145 170
145 145 170
145 145 170
145 145 170
145 145 170
145 145 170
145 145 170
145 145 170
145 145 170
145 145 170
145 145 170
145 145 170
145 145 170
182 182 170
255 255 255
145 145 170
36 36 0
36 36 0
72 72 85
72 72 85
72 72 85
72 72 85
72 72 85
72 72 85
72 72 85
72 72 85
72 72 85
72 72 85
72 72 85
72 72 85
72 72 85
72 72 85
72 72 85
72 72 85
72 72 85
72 72 85
72 72 85
72 72 85
72 72 85
72 72 85
72 72 85
72 72 85
72 72 85
72 72 85
72 72 85
72 72 85
72 72 85
72 72 85
72 72 85
72 72 85
72 72 85
72 72 85
72 72 85
72 72 85
109 109 85
109 109 85
109 109 85
109 109 85
109 109 85
218 218 255
255 255 255
218 218 255
0 0 0
0 0 0
0 0 0
0 0 0
0 0 0
0 0 0
0 0 0
0 0 0
0 0 0
0 0 0
0 0 0
0 0 0
0 0 0
0 0 0
0 0 0
0 0 0
0 0 0
0 0 0
0 0 0
0 0 0
0 0 0
0 0 0
0 0 0
0 0 0
0 0 0
0 0 0
0 0 0
0 0 0
0 0 0
0 0 0
0 0 0
72 72 85
218 218 255
218 218 255
218 218 255
218 218 255
218 218 255
218 218 255
218 218 255
218 218 255
218 218 255
218 218 255
218 218 255
218 218 255
218 218 255
218 218 255
218 218 255
218 218 255
218 218 255
218 218 255
218 218 255
218 218 255
218 218 255
218 218 255
218 218 255
218 218 255
218 218 255
255 255 255
182 182 170
145 145 170
145 145 170
145 145 170
145 145 170
145 145 170
145 145 170
145 145 170
145 145 170
145 145 170
145 145 170
145 145 170
145 145 170
145 145 170
145 145 170
145 145 170
145 145 170
145 145 170
145 145 170
145 145 170
145 145 170
145 145 170
145 145 170
255 255 255
255 255 255
218 218 255
255 255 255
255 255 255
255 255 255
255 255 255
255 255 255
255 255 255
255 255 255
255 255 255
255 255 255
255 255 255
255 255 255
255 255 255
255 255 255
255 255 255
255 255 255
255 255 255
255 255 255
255 255 255
255 255 255
255 255 255
255 255 255
255 255 255
255 255 255
255 255 255
255 255 255
255 255 255
255 255 255
255 255 255
255 255 255
255 255 255
255 255 255
255 255 255
255 255 255
255 255 255
255 255 255
255 255 255
255 255 255
255 255 255
255 255 255
255 255 255
255 255 255
255 255 255
255 255 255
255 255 255
255 255 255
145 145 170
145 145 170
145 145 170
145 145 170
145 145 170
145 145 170
145 145 170
145 145 170
145 145 170
145 145 170
145 145 170
145 145 170
145 145 170
145 145 170
145 145 170
145 145 170
145 145 170
145 145 170
145 145 170
145 145 170
145 145 170
145 145 170
182 182 170
255 255 255
145 145 170
36 36 0
36 36 0
72 72 85
72 72 85
72 72 85
72 72 85
72 72 85
72 72 85
72 72 85
72 72 85
72 72 85
72 72 85
72 72 85
72 72 85
72 72 85
72 72 85
72 72 85
72 72 85
72 72 85
72 72 85
72 72 85
72 72 85
72 72 85
72 72 85
72 72 85
72 72 85
72 72 85
72 72 85
72 72 85
72 72 85
72 72 85
72 72 85
72 72 85
72 72 85
72 72 85
72 72 85
72 72 85
72 72 85
109 109 85
109 109 85
109 109 85
109 109 85
109 109 85
218 218 255
255 255 255
218 218 255
0 0 0
0 0 0
0 0 0
0 0 0
0 0 0
0 0 0
0 0 0
0 0 0
0 0 0
0 0 0
0 0 0
0 0 0
0 0 0
0 0 0
0 0 0
0 0 0
0 0 0
0 0 0
0 0 0
0 0 0
0 0 0
0 0 0
0 0 0
0 0 0
0 0 0
0 0 0
0 0 0
0 0 0
0 0 0
0 0 0
0 0 0
72 72 85
218 218 255
218 218 255
218 218 255
218 218 255
182 182 170
218 218 255
218 218 255
182 182 170
218 218 255
218 218 255
218 218 255
182 182 170
218 218 255
218 218 255
218 218 255
182 182 170
218 218 255
218 218 255
182 182 170
182 218 170
218 218 255
218 218 255
182 182 170
218 218 255
218 218 255
255 255 255
182 182 170
145 145 170
145 145 170
145 145 170
145 145 170
145 145 170
145 145 170
145 145 170
145 145 170
145 145 170
145 145 170
145 145 170
145 145 170
145 145 170
145 145 170
145 145 170
145 145 170
145 145 170
145 145 170
145 145 170
145 145 170
145 145 170
145 145 170
255 255 255
255 255 255
255 255 255
255 255 255
255 255 255
255 255 255
255 255 255
255 255 255
255 255 255
255 255 255
255 255 255
255 255 255
255 255 255
255 255 255
255 255 255
218 218 255
255 255 255
218 218 255
255 255 255
255 255 255
255 255 255
255 255 255
255 255 255
255 255 255
255 255 255
255 255 255
255 255 255
255 255 255
255 255 255
255 255 255
255 255 255
255 255 255
255 255 255
255 255 255
255 255 255
255 255 255
255 255 255
255 255 255
255 255 255
255 255 255
255 255 255
255 255 255
255 255 255
255 255 255
255 255 255
255 255 255
255 255 255
255 255 255
145 145 170
145 145 170
145 145 170
145 145 170
145 145 170
145 145 170
145 145 170
145 145 170
145 145 170
145 145 170
145 145 170
145 145 170
145 145 170
145 145 170
145 145 170
145 145 170
145 145 170
145 145 170
145 145 170
145 145 170
145 145 170
145 145 170
182 182 170
255 255 255
145 145 170
36 36 0
36 36 0
72 72 85
72 72 85
72 72 85
72 72 85
72 72 85
72 72 85
72 72 85
72 72 85
72 72 85
72 72 85
72 72 85
72 72 85
72 72 85
72 72 85
72 72 85
72 72 85
72 72 85
72 72 85
72 72 85
72 72 85
72 72 85
72 72 85
72 72 85
72 72 85
72 72 85
72 72 85
72 72 85
72 72 85
72 72 85
72 72 85
72 72 85
72 72 85
72 72 85
72 72 85
72 72 85
72 72 85
109 109 85
109 109 85
109 109 85
109 109 85
109 109 85
218 218 255
255 255 255
218 218 255
0 0 0
0 0 0
0 0 0
0 0 0
0 0 0
0 0 0
0 0 0
0 0 0
0 0 0
0 0 0
0 0 0
0 0 0
0 0 0
0 0 0
0 0 0
0 0 0
0 0 0
0 0 0
0 0 0
0 0 0
0 0 0
0 0 0
0 0 0
0 0 0
0 0 0
0 0 0
0 0 0
0 0 0
0 0 0
0 0 0
0 0 0
72 72 85
218 218 255
182 182 170
182 182 170
182 182 170
182 182 170
182 182 170
182 182 170
182 182 170
182 182 170
182 182 170
182 182 170
182 182 170
182 218 170
182 182 170
182 182 170
182 182 170
182 182 170
182 182 170
182 182 170
182 182 170
182 182 170
182 182 170
182 182 170
182 182 170
218 218 255
255 255 255
182 182 170
145 145 170
145 145 170
145 145 170
145 145 170
145 145 170
145 145 170
145 145 170
145 145 170
145 145 170
145 145 170
145 145 170
145 145 170
145 145 170
145 145 170
145 145 170
145 145 170
145 145 170
145 145 170
145 145 170
145 145 170
145 145 170
145 145 170
255 255 255
255 255 255
218 218 255
255 255 255
255 255 255
255 255 255
255 255 255
255 255 255
255 255 255
255 255 255
255 255 255
255 255 255
255 255 255
255 255 255
182 182 170
145 145 170
145 145 170
182 182 170
255 255 255
255 255 255
255 255 255
255 255 255
255 255 255
255 255 255
255 255 255
255 255 255
255 255 255
218 218 255
255 255 255
255 255 255
255 255 255
218 218 255
182 182 170
182 182 170
182 182 170
182 182 170
218 218 255
182 182 170
182 182 170
182 182 170
182 182 170
182 182 170
182 182 170
255 255 255
255 255 255
255 255 255
255 255 255
255 255 255
145 145 170
145 145 170
145 145 170
145 145 170
145 145 170
145 145 170
145 145 170
145 145 170
145 145 170
145 145 170
145 145 170
145 145 170
145 145 170
145 145 170
145 145 170
145 145 170
145 145 170
145 145 170
145 145 170
145 145 170
145 145 170
145 145 170
182 182 170
255 255 255
145 145 170
36 36 0
36 36 0
72 72 85
72 72 85
72 72 85
72 72 85
72 72 85
72 72 85
72 72 85
72 72 85
72 72 85
72 72 85
72 72 85
72 72 85
72 72 85
72 72 85
72 72 85
72 72 85
72 72 85
72 72 85
72 72 85
72 72 85
72 72 85
72 72 85
72 72 85
72 72 85
72 72 85
72 72 85
72 72 85
72 72 85
72 72 85
72 72 85
72 72 85
72 72 85
72 72 85
72 72 85
72 72 85
72 72 85
109 109 85
109 109 85
109 109 85
109 109 85
109 109 85
218 218 255
255 255 255
218 218 255
0 0 0
0 0 0
0 0 0
0 0 0
0 0 0
0 0 0
0 0 0
0 0 0
0 0 0
0 0 0
0 0 0
0 0 0
0 0 0
0 0 0
0 0 0
0 0 0
0 0 0
0 0 0
0 0 0
0 0 0
0 0 0
0 0 0
0 0 0
0 0 0
0 0 0
0 0 0
0 0 0
0 0 0
0 0 0
0 0 0
0 0 0
72 72 85
218 218 255
218 218 255
218 218 255
218 218 255
218 218 255
218 218 255
218 218 255
218 218 255
218 218 255
218 218 255
218 218 255
218 218 255
218 218 255
218 218 255
218 218 255
218 218 255
218 218 255
218 218 255
218 218 255
218 218 255
218 218 255
218 218 255
218 218 255
218 218 255
218 218 255
255 255 255
182 182 170
145 145 170
145 145 170
145 145 170
145 145 170
145 145 170
145 145 170
145 145 170
145 145 170
145 145 170
145 145 170
145 145 170
145 145 170
145 145 170
145 145 170
145 145 170
145 145 170
145 145 170
145 145 170
145 145 170
145 145 170
145 145 170
145 145 170
255 255 255
255 255 255
218 218 255
218 255 255
255 255 255
255 255 255
255 255 255
255 255 255
255 255 255
255 255 255
255 255 255
255 255 255
255 255 255
255 255 255
255 255 255
218 218 255
218 218 255
218 218 255
255 255 255
255 255 255
255 255 255
255 255 255
255 255 255
255 255 255
255 255 255
255 255 255
255 255 255
255 255 255
255 255 255
255 255 255
255 255 255
218 255 255
182 182 170
182 182 170
218 218 255
182 182 170
182 182 170
182 182 170
182 182 170
182 182 170
182 218 170
182 182 170
182 182 170
255 255 255
255 255 255
255 255 255
255 255 255
255 255 255
145 145 170
145 145 170
145 145 170
145 145 170
145 145 170
145 145 170
145 145 170
145 145 170
145 145 170
145 145 170
145 145 170
145 145 170
145 145 170
145 145 170
145 145 170
145 145 170
145 145 170
145 145 170
145 145 170
145 145 170
145 145 170
145 145 170
182 182 170
255 255 255
145 145 170
36 36 0
36 36 0
72 72 85
72 72 85
72 72 85
72 72 85
72 72 85
72 72 85
72 72 85
72 72 85
72 72 85
72 72 85
72 72 85
72 72 85
72 72 85
72 72 85
72 72 85
72 72 85
72 72 85
72 72 85
72 72 85
72 72 85
72 72 85
72 72 85
72 72 85
72 72 85
72 72 85
72 72 85
72 72 85
72 72 85
72 72 85
72 72 85
72 72 85
72 72 85
72 72 85
72 72 85
72 72 85
72 72 85
109 109 85
109 109 85
109 109 85
109 109 85
109 109 85
218 218 255
255 255 255
218 218 255
0 0 0
0 0 0
0 0 0
0 0 0
0 0 0
0 0 0
0 0 0
0 0 0
0 0 0
0 0 0
0 0 0
0 0 0
0 0 0
0 0 0
0 0 0
0 0 0
0 0 0
0 0 0
0 0 0
0 0 0
0 0 0
0 0 0
0 0 0
0 0 0
0 0 0
0 0 0
0 0 0
0 0 0
0 0 0
0 0 0
0 0 0
72 72 85
218 218 255
218 218 255
218 218 255
218 218 255
218 218 255
218 218 255
218 218 255
218 218 255
218 218 255
218 218 255
218 218 255
218 218 255
218 218 255
218 218 255
218 218 255
218 218 255
218 218 255
218 218 255
218 218 255
218 218 255
218 218 255
218 218 255
218 218 255
218 218 255
218 218 255
255 255 255
182 182 170
145 145 170
145 145 170
145 145 170
145 145 170
145 145 170
145 145 170
145 145 170
145 145 170
145 145 170
145 145 170
145 145 170
145 145 170
145 145 170
145 145 170
145 145 170
145 145 170
145 145 170
145 145 170
145 145 170
145 145 170
145 145 170
145 145 170
255 255 255
255 255 255
218 218 255
255 255 255
255 255 255
255 255 255
255 255 255
255 255 255
255 255 255
255 255 255
255 255 255
255 255 255
255 255 255
255 255 255
255 255 255
255 255 255
255 255 255
255 255 255
255 255 255
255 255 255
255 255 255
255 255 255
255 255 255
255 255 255
255 255 255
255 255 255
255 255 255
255 255 255
255 255 255
255 255 255
255 255 255
255 255 255
255 255 255
255 255 255
255 255 255
255 255 255
255 255 255
255 255 255
255 255 255
255 255 255
255 255 255
255 255 255
255 255 255
255 255 255
255 255 255
255 255 255
255 255 255
255 255 255
145 145 170
145 145 170
145 145 170
145 145 170
145 145 170
145 145 170
145 145 170
145 145 170
145 145 170
145 145 170
145 145 170
145 145 170
145 145 170
145 145 170
145 145 170
145 145 170
145 145 170
145 145 170
145 145 170
145 145 170
145 145 170
145 145 170
182 182 170
255 255 255
145 145 170
36 36 0
36 36 0
72 72 85
72 72 85
72 72 85
72 72 85
72 72 85
72 72 85
72 72 85
72 72 85
72 72 85
72 72 85
72 72 85
72 72 85
72 72 85
72 72 85
72 72 85
72 72 85
72 72 85
72 72 85
72 72 85
72 72 85
72 72 85
72 72 85
72 72 85
72 72 85
72 72 85
72 72 85
72 72 85
72 72 85
72 72 85
72 72 85
72 72 85
72 72 85
72 72 85
72 72 85
72 72 85
72 72 85
109 109 85
109 109 85
109 109 85
109 109 85
109 109 85
218 218 255
255 255 255
218 218 255
0 0 0
0 0 0
0 0 0
0 0 0
0 0 0
0 0 0
0 0 0
0 0 0
0 0 0
0 0 0
0 0 0
0 0 0
0 0 0
0 0 0
0 0 0
0 0 0
0 0 0
0 0 0
0 0 0
0 0 0
0 0 0
0 0 0
0 0 0
0 0 0
0 0 0
0 0 0
0 0 0
0 0 0
0 0 0
0 0 0
0 0 0
72 72 85
218 218 255
218 218 255
218 218 255
218 218 255
218 218 255
218 218 255
218 218 255
218 218 255
218 218 255
218 218 255
218 218 255
218 218 255
218 218 255
218 218 255
218 218 255
218 218 255
218 218 255
218 218 255
218 218 255
218 218 255
218 218 255
218 218 255
218 218 255
218 218 255
218 218 255
255 255 255
182 182 170
145 145 170
145 145 170
145 145 170
145 145 170
145 145 170
145 145 170
145 145 170
145 145 170
145 145 170
145 145 170
145 145 170
145 145 170
145 145 170
145 145 170
145 145 170
145 145 170
145 145 170
145 145 170
145 145 170
145 145 170
145 145 170
145 145 170
255 255 255
255 255 255
218 218 255
255 255 255
255 255 255
255 255 255
255 255 255
255 255 255
255 255 255
255 255 255
255 255 255
255 255 255
255 255 255
255 255 255
255 255 255
255 255 255
255 255 255
255 255 255
255 255 255
255 255 255
255 255 255
255 255 255
255 255 255
255 255 255
255 255 255
255 255 255
255 255 255
255 255 255
255 255 255
255 255 255
255 255 255
255 255 255
255 255 255
255 255 255
255 255 255
255 255 255
255 255 255
255 255 255
255 255 255
255 255 255
255 255 255
255 255 255
255 255 255
255 255 255
255 255 255
255 255 255
255 255 255
255 255 255
145 145 170
145 145 170
145 145 170
145 145 170
145 145 170
145 145 170
145 145 170
145 145 170
145 145 170
145 145 170
145 145 170
145 145 170
145 145 170
145 145 170
145 145 170
145 145 170
145 145 170
145 145 170
145 145 170
145 145 170
145 145 170
145 145 170
182 182 170
255 255 255
145 145 170
36 36 0
36 36 0
36 36 0
72 72 85
72 72 85
72 72 85
72 72 85
72 72 85
72 72 85
72 72 85
72 72 85
72 72 85
72 72 85
72 72 85
72 72 85
72 72 85
72 72 85
72 72 85
72 72 85
72 72 85
72 72 85
72 72 85
72 72 85
72 72 85
72 72 85
72 72 85
72 72 85
72 72 85
72 72 85
72 72 85
72 72 85
72 72 85
72 72 85
72 72 85
72 72 85
72 72 85
72 72 85
72 72 85
109 109 85
109 109 85
109 109 85
109 109 85
109 109 85
218 218 255
255 255 255
218 218 255
0 0 0
0 0 0
0 0 0
0 0 0
0 0 0
0 0 0
0 0 0
0 0 0
0 0 0
0 0 0
0 0 0
0 0 0
0 0 0
0 0 0
0 0 0
0 0 0
0 0 0
0 0 0
0 0 0
0 0 0
0 0 0
0 0 0
0 0 0
0 0 0
0 0 0
0 0 0
0 0 0
0 0 0
0 0 0
0 0 0
0 0 0
72 72 85
218 218 255
218 218 255
218 218 255
218 218 255
218 218 255
218 218 255
218 218 255
218 218 255
218 218 255
218 218 255
218 218 255
218 218 255
218 218 255
218 218 255
218 218 255
218 218 255
218 218 255
218 218 255
218 218 255
218 218 255
218 218 255
218 218 255
218 218 255
218 218 255
218 218 255
255 255 255
182 182 170
145 145 170
145 145 170
145 145 170
145 145 170
145 145 170
145 145 170
145 145 170
145 145 170
145 145 170
145 145 170
145 145 170
145 145 170
145 145 170
145 145 170
145 145 170
145 145 170
145 145 170
145 145 170
145 145 170
145 145 170
145 145 170
145 145 170
255 255 255
255 255 255
255 255 255
255 255 255
255 255 255
255 255 255
255 255 255
255 255 255
255 255 255
255 255 255
255 255 255
255 255 255
255 255 255
255 255 255
182 182 170
218 218 255
218 218 255
218 218 255
218 218 255
218 218 255
218 218 255
255 255 255
255 255 255
255 255 255
255 255 255
255 255 255
255 255 255
255 255 255
255 255 255
255 255 255
255 255 255
255 255 255
255 255 255
255 255 255
255 255 255
255 255 255
255 255 255
255 255 255
255 255 255
218 218 255
255 255 255
255 255 255
255 255 255
255 255 255
255 255 255
255 255 255
255 255 255
255 255 255
145 145 170
145 145 170
145 145 170
145 145 170
145 145 170
145 145 170
145 145 170
145 145 170
145 145 170
145 145 170
145 145 170
145 145 170
145 145 170
145 145 170
145 145 170
145 145 170
145 145 170
145 145 170
145 145 170
145 145 170
145 145 170
145 145 170
182 182 170
255 255 255
145 145 170
36 36 0
36 36 0
36 36 0
72 72 85
72 72 85
72 72 85
72 72 85
72 72 85
72 72 85
72 72 85
72 72 85
72 72 85
72 72 85
72 72 85
72 72 85
72 72 85
72 72 85
72 72 85
72 72 85
72 72 85
72 72 85
72 72 85
72 72 85
72 72 85
72 72 85
72 72 85
72 72 85
72 72 85
72 72 85
72 72 85
72 72 85
72 72 85
72 72 85
72 72 85
72 72 85
72 72 85
72 72 85
72 72 85
109 109 85
109 109 85
109 109 85
109 109 85
109 109 85
218 218 255
255 255 255
218 218 255
0 0 0
0 0 0
0 0 0
0 0 0
0 0 0
0 0 0
0 0 0
0 0 0
0 0 0
0 0 0
0 0 0
0 0 0
0 0 0
0 0 0
0 0 0
0 0 0
0 0 0
0 0 0
0 0 0
0 0 0
0 0 0
0 0 0
0 0 0
0 0 0
0 0 0
0 0 0
0 0 0
0 0 0
0 0 0
0 0 0
0 0 0
72 72 85
182 182 170
182 182 170
182 182 170
182 182 170
182 182 170
182 182 170
182 182 170
182 182 170
182 182 170
182 182 170
182 182 170
182 182 170
182 182 170
182 182 170
182 182 170
182 182 170
182 182 170
182 182 170
182 182 170
182 182 170
182 182 170
182 182 170
182 182 170
182 182 170
218 218 255
255 255 255
182 182 170
145 145 170
145 145 170
145 145 170
145 145 170
145 145 170
145 145 170
145 145 170
145 145 170
145 145 170
145 145 170
145 145 170
145 145 170
145 145 170
145 145 170
145 145 170
145 145 170
145 145 170
145 145 170
145 145 170
145 145 170
145 145 170
145 145 170
255 255 255
255 255 255
218 218 255
218 218 255
218 218 255
218 218 255
218 218 255
218 218 255
218 218 255
255 255 255
255 255 255
255 255 255
255 255 255
255 255 255
182 182 170
145 182 170
218 218 255
182 218 170
182 182 170
145 145 170
182 218 170
255 255 255
255 255 255
255 255 255
255 255 255
255 255 255
255 255 255
255 255 255
255 255 255
255 255 255
255 255 255
218 218 255
145 145 170
182 182 170
182 182 170
182 182 170
218 218 255
182 182 170
182 182 170
182 182 170
182 182 170
218 218 255
255 255 255
255 255 255
255 255 255
255 255 255
255 255 255
255 255 255
145 145 170
145 145 170
145 145 170
145 145 170
145 145 170
145 145 170
145 145 170
145 145 170
145 145 170
145 145 170
145 145 170
145 145 170
145 145 170
145 145 170
145 145 170
145 145 170
145 145 170
145 145 170
145 145 170
145 145 170
145 145 170
145 145 170
182 182 170
255 255 255
145 145 170
36 36 0
36 36 0
36 36 0
72 72 85
72 72 85
72 72 85
72 72 85
72 72 85
72 72 85
72 72 85
72 72 85
72 72 85
72 72 85
72 72 85
72 72 85
72 72 85
72 72 85
72 72 85
72 72 85
72 72 85
72 72 85
72 72 85
72 72 85
72 72 85
72 72 85
72 72 85
72 72 85
72 72 85
72 72 85
72 72 85
72 72 85
72 72 85
72 72 85
72 72 85
72 72 85
72 72 85
72 72 85
72 72 85
109 109 85
109 109 85
109 109 85
109 109 85
109 109 85
218 218 255
255 255 255
218 218 255
0 0 0
0 0 0
0 0 0
0 0 0
0 0 0
0 0 0
0 0 0
0 0 0
0 0 0
0 0 0
0 0 0
0 0 0
0 0 0
0 0 0
0 0 0
0 0 0
0 0 0
0 0 0
0 0 0
0 0 0
0 0 0
0 0 0
0 0 0
0 0 0
0 0 0
0 0 0
0 0 0
0 0 0
0 0 0
0 0 0
0 0 0
72 72 85
218 218 255
218 218 255
218 218 255
218 218 255
218 218 255
218 218 255
218 218 255
218 218 255
218 218 255
218 218 255
218 218 255
218 218 255
218 218 255
218 218 255
218 218 255
218 218 255
218 218 255
218 218 255
218 218 255
218 218 255
218 218 255
218 218 255
218 218 255
218 218 255
218 218 255
255 255 255
255 255 255
218 218 255
218 218 255
218 218 255
218 218 255
218 218 255
218 218 255
218 218 255
218 218 255
218 218 255
218 218 255
218 218 255
218 218 255
218 218 255
218 218 255
218 218 255
218 218 255
218 218 255
218 218 255
218 218 255
218 218 255
218 218 255
218 218 255
255 255 255
255 255 255
218 218 255
182 182 170
182 182 170
145 145 170
182 182 170
182 182 170
182 182 170
255 255 255
255 255 255
255 255 255
255 255 255
255 255 255
255 255 255
255 255 255
255 255 255
255 255 255
255 255 255
255 255 255
255 255 255
255 255 255
255 255 255
255 255 255
255 255 255
255 255 255
255 255 255
255 255 255
255 255 255
255 255 255
255 255 255
255 255 255
218 218 255
218 218 255
218 218 255
218 218 255
218 218 255
218 218 255
218 218 255
218 218 255
218 218 255
218 218 255
255 255 255
255 255 255
255 255 255
255 255 255
255 255 255
255 255 255
145 145 170
145 145 170
145 145 170
145 145 170
145 145 170
145 145 170
145 145 170
145 145 170
145 145 170
145 145 170
145 145 170
145 145 170
145 145 170
145 145 170
145 145 170
145 145 170
145 145 170
145 145 170
145 145 170
145 145 170
145 145 170
145 145 170
182 182 170
255 255 255
145 145 170
36 36 0
36 36 0
36 36 0
72 72 85
72 72 85
72 72 85
72 72 85
72 72 85
72 72 85
72 72 85
72 72 85
72 72 85
72 72 85
72 72 85
72 72 85
72 72 85
72 72 85
72 72 85
72 72 85
72 72 85
72 72 85
72 72 85
72 72 85
72 72 85
72 72 85
72 72 85
72 72 85
72 72 85
72 72 85
72 72 85
72 72 85
72 72 85
72 72 85
72 72 85
72 72 85
72 72 85
72 72 85
72 72 85
109 109 85
109 109 85
109 109 85
109 109 85
109 109 85
218 218 255
255 255 255
218 218 255
0 0 0
0 0 0
0 0 0
0 0 0
0 0 0
0 0 0
0 0 0
0 0 0
0 0 0
0 0 0
0 0 0
0 0 0
0 0 0
0 0 0
0 0 0
0 0 0
0 0 0
0 0 0
0 0 0
0 0 0
0 0 0
0 0 0
0 0 0
0 0 0
0 0 0
0 0 0
0 0 0
0 0 0
0 0 0
0 0 0
0 0 0
72 72 85
218 218 255
218 218 255
218 218 255
218 218 255
218 218 255
218 218 255
218 218 255
218 218 255
218 218 255
218 218 255
218 218 255
218 218 255
218 218 255
218 218 255
218 218 255
218 218 255
218 218 255
218 218 255
218 218 255
218 218 255
218 218 255
218 218 255
218 218 255
218 218 255
218 218 255
255 255 255
255 255 255
255 255 255
255 255 255
255 255 255
255 255 255
255 255 255
255 255 255
255 255 255
255 255 255
255 255 255
255 255 255
255 255 255
255 255 255
255 255 255
255 255 255
255 255 255
255 255 255
255 255 255
255 255 255
255 255 255
255 255 255
255 255 255
255 255 255
255 255 255
255 255 255
218 218 255
255 255 255
218 218 255
218 218 255
255 255 255
255 255 255
255 255 255
255 255 255
255 255 255
255 255 255
255 255 255
255 255 255
255 255 255
255 255 255
255 255 255
255 255 255
255 255 255
255 255 255
255 255 255
255 255 255
255 255 255
255 255 255
255 255 255
255 255 255
255 255 255
255 255 255
255 255 255
255 255 255
255 255 255
255 255 255
255 255 255
255 255 255
255 255 255
255 255 255
255 255 255
255 255 255
255 255 255
255 255 255
255 255 255
255 255 255
255 255 255
255 255 255
255 255 255
255 255 255
255 255 255
255 255 255
145 145 170
145 145 170
145 145 170
145 145 170
145 145 170
145 145 170
145 145 170
145 145 170
145 145 170
145 145 170
145 145 170
145 145 170
145 145 170
145 145 170
145 145 170
145 145 170
145 145 170
145 145 170
145 145 170
145 145 170
145 145 170
145 145 170
182 182 170
255 255 255
145 145 170
36 36 0
36 36 0
36 36 0
72 72 85
72 72 85
72 72 85
72 72 85
72 72 85
72 72 85
72 72 85
72 72 85
72 72 85
72 72 85
72 72 85
72 72 85
72 72 85
72 72 85
72 72 85
72 72 85
72 72 85
72 72 85
72 72 85
72 72 85
72 72 85
72 72 85
72 72 85
72 72 85
72 72 85
72 72 85
72 72 85
72 72 85
72 72 85
72 72 85
72 72 85
72 72 85
72 72 85
72 72 85
72 72 85
109 109 85
109 109 85
109 109 85
109 109 85
109 109 85
218 218 255
255 255 255
218 218 255
0 0 0
0 0 0
0 0 0
0 0 0
0 0 0
0 0 0
0 0 0
0 0 0
0 0 0
0 0 0
0 0 0
0 0 0
0 0 0
0 0 0
0 0 0
0 0 0
0 0 0
0 0 0
0 0 0
0 0 0
0 0 0
0 0 0
0 0 0
0 0 0
0 0 0
0 0 0
0 0 0
0 0 0
0 0 0
0 0 0
0 0 0
72 72 85
218 218 255
218 218 255
218 218 255
218 218 255
218 218 255
218 218 255
218 218 255
218 218 255
218 218 255
218 218 255
218 218 255
218 218 255
218 218 255
218 218 255
218 218 255
218 218 255
218 218 255
218 218 255
218 218 255
218 218 255
218 218 255
218 218 255
218 218 255
218 218 255
218 218 255
255 255 255
255 255 255
255 255 255
255 255 255
255 255 255
255 255 255
255 255 255
255 255 255
255 255 255
255 255 255
255 255 255
255 255 255
255 255 255
255 255 255
255 255 255
255 255 255
255 255 255
255 255 255
255 255 255
255 255 255
255 255 255
255 255 255
255 255 255
255 255 255
255 255 255
255 255 255
218 218 255
255 255 255
255 255 255
255 255 255
255 255 255
255 255 255
255 255 255
255 255 255
255 255 255
255 255 255
255 255 255
255 255 255
255 255 255
255 255 255
255 255 255
255 255 255
255 255 255
255 255 255
255 255 255
255 255 255
255 255 255
255 255 255
255 255 255
255 255 255
255 255 255
255 255 255
255 255 255
255 255 255
255 255 255
255 255 255
255 255 255
255 255 255
255 255 255
255 255 255
255 255 255
255 255 255
255 255 255
255 255 255
255 255 255
255 255 255
255 255 255
255 255 255
255 255 255
255 255 255
255 255 255
255 255 255
145 145 170
145 145 170
145 145 170
145 145 170
145 145 170
145 145 170
145 145 170
145 145 170
145 145 170
145 145 170
145 145 170
145 145 170
145 145 170
145 145 170
145 145 170
145 145 170
145 145 170
145 145 170
145 145 170
145 145 170
145 145 170
145 145 170
182 182 170
255 255 255
145 145 170
36 36 0
36 36 0
36 36 0
72 72 85
72 72 85
72 72 85
72 72 85
72 72 85
72 72 85
72 72 85
72 72 85
72 72 85
72 72 85
72 72 85
72 72 85
72 72 85
72 72 85
72 72 85
72 72 85
72 72 85
72 72 85
72 72 85
72 72 85
72 72 85
72 72 85
72 72 85
72 72 85
72 72 85
72 72 85
72 72 85
72 72 85
72 72 85
72 72 85
72 72 85
72 72 85
72 72 85
72 72 85
72 72 85
109 109 85
109 109 85
109 109 85
109 109 85
109 109 85
218 218 255
255 255 255
218 218 255
0 0 0
0 0 0
0 0 0
0 0 0
0 0 0
0 0 0
0 0 0
0 0 0
0 0 0
0 0 0
0 0 0
0 0 0
0 0 0
0 0 0
0 0 0
0 0 0
0 0 0
0 0 0
0 0 0
0 0 0
0 0 0
0 0 0
0 0 0
0 0 0
0 0 0
0 0 0
0 0 0
0 0 0
0 0 0
0 0 0
0 0 0
72 72 85
218 218 255
218 218 255
218 218 255
218 218 255
218 218 255
218 218 255
218 218 255
218 218 255
218 218 255
218 218 255
218 218 255
218 218 255
218 218 255
218 218 255
218 218 255
218 218 255
218 218 255
218 218 255
218 218 255
218 218 255
218 218 255
218 218 255
218 218 255
218 218 255
182 182 170
218 218 255
218 218 255
218 218 255
218 218 255
218 218 255
218 218 255
218 218 255
218 218 255
218 218 255
218 218 255
218 218 255
218 218 255
218 218 255
218 218 255
218 218 255
218 218 255
218 218 255
218 218 255
218 218 255
218 218 255
218 218 255
218 218 255
218 218 255
218 218 255
218 218 255
218 218 255
255 255 255
255 255 255
255 255 255
255 255 255
255 255 255
255 255 255
255 255 255
255 255 255
255 255 255
255 255 255
255 255 255
255 255 255
218 218 255
218 218 255
218 218 255
182 182 170
182 182 170
182 182 170
218 218 255
255 255 255
255 255 255
255 255 255
255 255 255
255 255 255
255 255 255
218 218 255
255 255 255
255 255 255
255 255 255
218 218 255
218 218 255
218 218 255
218 218 255
218 218 255
218 218 255
218 218 255
218 218 255
218 218 255
255 255 255
255 255 255
255 255 255
255 255 255
255 255 255
255 255 255
255 255 255
255 255 255
145 145 170
145 145 170
145 145 170
145 145 170
145 145 170
145 145 170
145 145 170
145 145 170
145 145 170
145 145 170
145 145 170
145 145 170
145 145 170
145 145 170
145 145 170
145 145 170
145 145 170
145 145 170
145 145 170
145 145 170
145 145 170
145 145 170
182 182 170
255 255 255
145 145 170
36 36 0
36 36 0
36 36 0
72 72 85
72 72 85
72 72 85
72 72 85
72 72 85
72 72 85
72 72 85
72 72 85
72 72 85
72 72 85
72 72 85
72 72 85
72 72 85
72 72 85
72 72 85
72 72 85
72 72 85
72 72 85
72 72 85
72 72 85
72 72 85
72 72 85
72 72 85
72 72 85
72 72 85
72 72 85
72 72 85
72 72 85
72 72 85
72 72 85
72 72 85
72 72 85
72 72 85
72 72 85
72 72 85
109 109 85
109 109 85
109 109 85
109 109 85
109 109 85
218 218 255
255 255 255
218 218 255
0 0 0
0 0 0
0 0 0
0 0 0
0 0 0
0 0 0
0 0 0
0 0 0
0 0 0
0 0 0
0 0 0
0 0 0
0 0 0
0 0 0
0 0 0
0 0 0
0 0 0
0 0 0
0 0 0
0 0 0
0 0 0
0 0 0
0 0 0
0 0 0
0 0 0
0 0 0
0 0 0
0 0 0
0 0 0
0 0 0
0 0 0
72 72 85
218 218 255
218 218 255
218 218 255
218 218 255
218 218 255
218 218 255
218 218 255
218 218 255
218 218 255
218 218 255
218 218 255
218 218 255
218 218 255
218 218 255
218 218 255
218 218 255
218 218 255
218 218 255
218 218 255
218 218 255
218 218 255
218 218 255
218 218 255
218 218 255
218 218 255
182 182 170
218 218 255
218 218 255
218 218 255
218 182 255
218 218 255
218 218 255
218 218 255
218 218 255
182 182 170
218 218 255
218 218 255
218 218 255
182 182 170
182 182 170
218 218 255
218 218 255
182 182 170
218 218 255
255 255 255
255 255 255
255 255 255
255 255 255
255 255 255
255 255 255
255 255 255
255 255 255
255 255 255
255 255 255
255 255 255
255 255 255
255 255 255
255 255 255
255 255 255
255 255 255
255 255 255
255 255 255
255 255 255
218 218 255
218 218 255
218 182 255
218 218 255
218 218 255
218 218 255
218 218 255
255 255 255
255 255 255
255 255 255
255 255 255
255 255 255
255 255 255
255 255 255
255 255 255
255 255 255
255 255 255
218 218 255
182 182 170
182 182 170
182 182 170
218 218 255
182 182 170
182 182 170
182 182 170
182 182 170
218 218 255
255 255 255
255 255 255
255 255 255
255 255 255
255 255 255
255 255 255
255 255 255
145 145 170
145 145 170
145 145 170
145 145 170
145 145 170
145 145 170
145 145 170
145 145 170
145 145 170
145 145 170
145 145 170
145 145 170
145 145 170
145 145 170
145 145 170
145 145 170
145 145 170
145 145 170
145 145 170
145 145 170
145 145 170
145 145 170
182 182 170
255 255 255
145 145 170
36 36 0
36 36 0
36 36 0
72 72 85
72 72 85
72 72 85
72 72 85
72 72 85
72 72 85
72 72 85
72 72 85
72 72 85
72 72 85
72 72 85
72 72 85
72 72 85
72 72 85
72 72 85
72 72 85
72 72 85
72 72 85
72 72 85
72 72 85
72 72 85
72 72 85
72 72 85
72 72 85
72 72 85
72 72 85
72 72 85
72 72 85
72 72 85
72 72 85
72 72 85
72 72 85
72 72 85
72 72 85
72 72 85
109 109 85
109 109 85
109 109 85
109 109 85
109 109 85
218 218 255
255 255 255
218 218 255
0 0 0
0 0 0
0 0 0
0 0 0
0 0 0
0 0 0
0 0 0
0 0 0
0 0 0
0 0 0
0 0 0
0 0 0
0 0 0
0 0 0
0 0 0
0 0 0
0 0 0
0 0 0
0 0 0
0 0 0
0 0 0
0 0 0
0 0 0
0 0 0
0 0 0
0 0 0
0 0 0
0 0 0
0 0 0
0 0 0
0 0 0
72 72 85
218 218 255
218 218 255
218 218 255
218 218 255
218 218 255
218 218 255
218 218 255
218 218 255
218 218 255
218 218 255
218 218 255
218 218 255
218 218 255
218 218 255
218 218 255
218 218 255
218 218 255
218 218 255
218 218 255
218 218 255
218 218 255
218 218 255
218 218 255
218 218 255
218 218 255
218 218 255
218 218 255
218 218 255
218 218 255
218 218 255
218 218 255
218 218 255
218 218 255
218 218 255
218 218 255
218 218 255
218 218 255
218 218 255
218 218 255
218 218 255
218 218 255
218 218 255
218 218 255
255 255 255
255 255 255
255 255 255
255 255 255
255 255 255
255 255 255
255 255 255
255 255 255
255 255 255
255 255 255
218 255 255
255 255 255
255 255 255
255 255 255
255 255 255
255 255 255
255 255 255
255 255 255
255 255 255
255 255 255
255 255 255
255 255 255
255 255 255
255 255 255
255 255 255
255 255 255
255 255 255
255 255 255
255 255 255
255 255 255
255 255 255
255 255 255
255 255 255
255 255 255
255 255 255
255 255 255
255 255 255
255 255 255
255 255 255
255 255 255
255 255 255
255 255 255
255 255 255
255 255 255
255 255 255
218 218 255
255 255 255
255 255 255
255 255 255
255 255 255
255 255 255
255 255 255
255 255 255
255 255 255
145 145 170
145 145 170
145 145 170
145 145 170
145 145 170
145 145 170
145 145 170
145 145 170
145 145 170
145 145 170
145 145 170
145 145 170
145 145 170
145 145 170
145 145 170
145 145 170
145 145 170
145 145 170
145 145 170
145 145 170
145 145 170
145 145 170
182 182 170
255 255 255
145 145 170
36 36 0
36 36 0
36 36 0
72 72 85
72 72 85
72 72 85
72 72 85
72 72 85
72 72 85
72 72 85
72 72 85
72 72 85
72 72 85
72 72 85
72 72 85
72 72 85
72 72 85
72 72 85
72 72 85
72 72 85
72 72 85
72 72 85
72 72 85
72 72 85
72 72 85
72 72 85
72 72 85
72 72 85
72 72 85
72 72 85
72 72 85
72 72 85
72 72 85
72 72 85
72 72 85
72 72 85
72 72 85
72 72 85
109 109 85
109 109 85
109 109 85
109 109 85
109 109 85
218 218 255
255 255 255
218 218 255
0 0 0
0 0 0
0 0 0
0 0 0
0 0 0
0 0 0
0 0 0
0 0 0
0 0 0
0 0 0
0 0 0
0 0 0
0 0 0
0 0 0
0 0 0
0 0 0
0 0 0
0 0 0
0 0 0
0 0 0
0 0 0
0 0 0
0 0 0
0 0 0
0 0 0
0 0 0
0 0 0
0 0 0
0 0 0
0 0 0
0 0 0
72 72 85
182 218 170
182 182 170
182 182 170
182 182 170
182 182 170
182 182 170
182 182 170
182 182 170
182 182 170
182 182 170
182 182 170
182 182 170
182 182 170
182 182 170
182 182 170
182 182 170
182 182 170
182 182 170
182 182 170
182 182 170
182 182 170
182 182 170
182 182 170
182 182 170
182 182 170
182 182 170
182 182 170
182 182 170
182 182 170
182 182 170
182 182 170
182 182 170
182 182 170
182 182 170
182 182 170
182 182 170
182 182 170
182 182 170
182 182 170
182 182 170
182 182 170
182 182 170
182 182 170
255 255 255
255 255 255
255 255 255
255 255 255
255 255 255
255 255 255
255 255 255
255 255 255
255 255 255
255 255 255
255 255 255
255 255 255
255 255 255
255 255 255
255 255 255
255 255 255
255 255 255
255 255 255
255 255 255
255 255 255
255 255 255
255 255 255
255 255 255
255 255 255
255 255 255
255 255 255
255 255 255
255 255 255
255 255 255
255 255 255
255 255 255
255 255 255
255 255 255
255 255 255
255 255 255
255 255 255
255 255 255
255 255 255
255 255 255
255 255 255
255 255 255
255 255 255
255 255 255
255 255 255
255 255 255
255 255 255
255 255 255
255 255 255
255 255 255
255 255 255
255 255 255
255 255 255
255 255 255
255 255 255
255 255 255
255 255 255
255 255 255
255 255 255
255 255 255
255 255 255
255 255 255
255 255 255
255 255 255
255 255 255
255 255 255
255 255 255
255 255 255
255 255 255
255 255 255
255 255 255
255 255 255
255 255 255
255 255 255
255 255 255
255 255 255
255 255 255
255 255 255
255 255 255
145 145 170
36 36 0
36 36 0
36 36 0
72 72 85
72 72 85
72 72 85
72 72 85
72 72 85
72 72 85
72 72 85
72 72 85
72 72 85
72 72 85
72 72 85
72 72 85
72 72 85
72 72 85
72 72 85
72 72 85
72 72 85
72 72 85
72 72 85
72 72 85
72 72 85
72 72 85
72 72 85
72 72 85
72 72 85
72 72 85
72 72 85
72 72 85
72 72 85
72 72 85
72 72 85
72 72 85
72 72 85
72 72 85
72 72 85
109 109 85
109 109 85
109 109 85
109 109 85
109 109 85
218 218 255
255 255 255
218 218 255
0 0 0
0 0 0
0 0 0
0 0 0
0 0 0
0 0 0
0 0 0
0 0 0
0 0 0
0 0 0
0 0 0
0 0 0
0 0 0
0 0 0
0 0 0
0 0 0
0 0 0
0 0 0
0 0 0
0 0 0
0 0 0
0 0 0
0 0 0
0 0 0
0 0 0
0 0 0
0 0 0
0 0 0
0 0 0
0 0 0
0 0 0
72 72 85
218 218 255
218 218 255
218 218 255
218 218 255
218 218 255
218 218 255
218 218 255
218 218 255
218 218 255
218 218 255
218 218 255
218 218 255
218 218 255
218 218 255
218 218 255
218 218 255
218 218 255
218 218 255
218 218 255
218 218 255
218 218 255
218 218 255
218 218 255
218 218 255
218 218 255
218 218 255
218 218 255
218 218 255
218 218 255
218 218 255
218 218 255
218 218 255
218 218 255
218 218 255
218 218 255
218 218 255
218 218 255
218 218 255
218 218 255
218 218 255
218 218 255
218 218 255
218 218 255
255 255 255
255 255 255
255 255 255
255 255 255
255 255 255
255 255 255
255 255 255
255 255 255
255 255 255
255 255 255
255 255 255
255 255 255
255 255 255
255 255 255
255 255 255
255 255 255
255 255 255
255 255 255
255 255 255
255 255 255
255 255 255
255 255 255
255 255 255
218 218 255
255 255 255
255 255 255
255 255 255
255 255 255
255 255 255
255 255 255
255 255 255
255 255 255
255 255 255
255 255 255
255 255 255
255 255 255
255 255 255
255 255 255
255 255 255
255 255 255
255 255 255
255 255 255
255 255 255
255 255 255
255 255 255
255 255 255
255 255 255
255 255 255
255 255 255
255 255 255
255 255 255
255 255 255
255 255 255
255 255 255
255 255 255
255 255 255
255 255 255
255 255 255
255 255 255
255 255 255
255 255 255
255 255 255
255 255 255
255 255 255
255 255 255
255 255 255
255 255 255
255 255 255
255 255 255
255 255 255
255 255 255
255 255 255
255 255 255
255 255 255
255 255 255
255 255 255
255 255 255
255 255 255
145 145 170
36 36 0
36 36 0
36 36 0
72 72 85
72 72 85
72 72 85
72 72 85
72 72 85
72 72 85
72 72 85
72 72 85
72 72 85
72 72 85
72 72 85
72 72 85
72 72 85
72 72 85
72 72 85
72 72 85
72 72 85
72 72 85
72 72 85
72 72 85
72 72 85
72 72 85
72 72 85
72 72 85
72 72 85
72 72 85
72 72 85
72 72 85
72 72 85
72 72 85
72 72 85
72 72 85
72 72 85
72 72 85
109 109 85
109 109 85
109 109 85
109 109 85
109 109 85
109 109 85
218 218 255
255 255 255
218 218 255
0 0 0
0 0 0
0 0 0
0 0 0
0 0 0
0 0 0
0 0 0
0 0 0
0 0 0
0 0 0
0 0 0
0 0 0
0 0 0
0 0 0
0 0 0
0 0 0
0 0 0
0 0 0
0 0 0
0 0 0
0 0 0
0 0 0
0 0 0
0 0 0
0 0 0
0 0 0
0 0 0
0 0 0
0 0 0
0 0 0
0 0 0
72 72 85
218 218 255
218 218 255
218 218 255
218 218 255
218 218 255
218 218 255
218 218 255
218 218 255
218 218 255
218 218 255
218 218 255
218 218 255
218 218 255
218 218 255
218 218 255
218 218 255
218 218 255
218 218 255
218 218 255
218 218 255
218 218 255
218 218 255
218 218 255
218 218 255
218 218 255
218 218 255
218 218 255
218 218 255
218 218 255
218 218 255
218 218 255
218 218 255
218 218 255
218 218 255
218 218 255
218 218 255
218 218 255
218 218 255
218 218 255
218 218 255
218 218 255
218 218 255
218 218 255
255 255 255
255 255 255
255 255 255
255 255 255
255 255 255
255 255 255
255 255 255
255 255 255
255 255 255
255 255 255
255 255 255
255 255 255
255 255 255
255 255 255
255 255 255
255 255 255
255 255 255
255 255 255
255 255 255
218 218 255
182 182 170
182 182 170
182 182 170
182 182 170
182 182 170
145 145 170
218 218 255
255 255 255
255 255 255
255 255 255
255 255 255
255 255 255
255 255 255
255 255 255
255 255 255
255 255 255
255 255 255
255 255 255
255 255 255
255 255 255
255 255 255
255 255 255
255 255 255
255 255 255
255 255 255
255 255 255
255 255 255
255 255 255
255 255 255
255 255 255
255 255 255
255 255 255
255 255 255
255 255 255
255 255 255
255 255 255
255 255 255
255 255 255
255 255 255
255 255 255
255 255 255
255 255 255
255 255 255
255 255 255
255 255 255
255 255 255
255 255 255
255 255 255
255 255 255
255 255 255
255 255 255
255 255 255
255 255 255
255 255 255
255 255 255
255 255 255
255 255 255
255 255 255
182 182 170
36 36 0
36 36 0
36 36 0
72 72 85
72 72 85
72 72 85
72 72 85
72 72 85
72 72 85
72 72 85
72 72 85
72 72 85
72 72 85
72 72 85
72 72 85
72 72 85
72 72 85
72 72 85
72 72 85
72 72 85
72 72 85
72 72 85
72 72 85
72 72 85
72 72 85
72 72 85
72 72 85
72 72 85
72 72 85
72 72 85
72 72 85
72 72 85
72 72 85
72 72 85
72 72 85
72 72 85
72 72 85
109 109 85
109 109 85
109 109 85
109 109 85
109 109 85
109 109 85
218 218 255
255 255 255
218 218 255
0 0 0
0 0 0
0 0 0
0 0 0
0 0 0
0 0 0
0 0 0
0 0 0
0 0 0
0 0 0
0 0 0
0 0 0
0 0 0
0 0 0
0 0 0
0 0 0
0 0 0
0 0 0
0 0 0
0 0 0
0 0 0
0 0 0
0 0 0
0 0 0
0 0 0
0 0 0
0 0 0
0 0 0
0 0 0
0 0 0
0 0 0
72 72 85
218 218 255
218 218 255
218 218 255
218 218 255
218 218 255
218 218 255
218 218 255
218 218 255
218 218 255
218 218 255
218 218 255
218 218 255
218 218 255
218 218 255
218 218 255
218 218 255
218 218 255
218 218 255
218 218 255
218 218 255
218 218 255
218 218 255
218 218 255
218 218 255
218 218 255
218 218 255
218 218 255
218 218 255
218 218 255
218 218 255
218 218 255
218 218 255
218 218 255
218 218 255
218 218 255
218 218 255
218 218 255
218 218 255
218 218 255
218 218 255
218 218 255
218 218 255
218 218 255
255 255 255
255 255 255
255 255 255
255 255 255
255 255 255
255 255 255
255 255 255
255 255 255
255 255 255
255 255 255
255 255 255
255 255 255
255 255 255
255 255 255
255 255 255
255 255 255
255 255 255
255 255 255
255 255 255
255 255 255
218 218 255
218 218 255
218 218 255
218 218 255
218 218 255
218 218 255
255 255 255
255 255 255
255 255 255
255 255 255
255 255 255
255 255 255
255 255 255
255 255 255
255 255 255
255 255 255
255 255 255
255 255 255
255 255 255
255 255 255
255 255 255
255 255 255
255 255 255
255 255 255
255 255 255
255 255 255
255 255 255
255 255 255
255 255 255
255 255 255
255 255 255
255 255 255
218 218 255
218 218 255
218 218 255
218 218 255
218 218 255
218 218 255
218 218 255
218 218 255
218 218 255
218 218 255
218 218 255
218 218 255
218 218 255
218 218 255
218 218 255
218 218 255
218 218 255
218 218 255
218 218 255
218 218 255
218 218 255
218 218 255
218 218 255
182 182 170
182 182 170
182 182 170
109 109 85
36 36 0
36 36 0
36 36 0
72 72 85
72 72 85
72 72 85
72 72 85
72 72 85
72 72 85
72 72 85
72 72 85
72 72 85
72 72 85
72 72 85
72 72 85
72 72 85
72 72 85
72 72 85
72 72 85
72 72 85
72 72 85
72 72 85
72 72 85
72 72 85
72 72 85
72 72 85
72 72 85
72 72 85
72 72 85
72 72 85
72 72 85
72 72 85
72 72 85
72 72 85
72 72 85
72 72 85
72 72 85
109 109 85
109 109 85
109 109 85
109 109 85
109 109 85
109 109 85
218 218 255
255 255 255
218 218 255
0 0 0
0 0 0
0 0 0
0 0 0
0 0 0
0 0 0
0 0 0
0 0 0
0 0 0
0 0 0
0 0 0
0 0 0
0 0 0
0 0 0
0 0 0
0 0 0
0 0 0
0 0 0
0 0 0
0 0 0
0 0 0
0 0 0
0 0 0
0 0 0
0 0 0
0 0 0
0 0 0
0 0 0
0 0 0
0 0 0
0 0 0
72 72 85
218 218 255
218 218 255
218 218 255
218 218 255
218 218 255
218 218 255
218 218 255
218 218 255
218 218 255
218 218 255
218 218 255
218 218 255
218 218 255
218 218 255
218 218 255
218 218 255
218 218 255
218 218 255
218 218 255
218 218 255
218 218 255
218 218 255
218 218 255
218 218 255
218 218 255
218 218 255
218 218 255
218 218 255
218 218 255
218 218 255
218 218 255
218 218 255
218 218 255
218 218 255
218 218 255
218 218 255
218 218 255
218 218 255
218 218 255
218 218 255
218 218 255
218 218 255
218 218 255
255 255 255
255 255 255
255 255 255
255 255 255
255 255 255
255 255 255
255 255 255
255 255 255
255 255 255
255 255 255
255 255 255
255 255 255
255 255 255
255 255 255
255 255 255
255 255 255
255 255 255
255 255 255
255 255 255
255 255 255
255 255 255
255 255 255
255 255 255
255 255 255
255 255 255
255 255 255
255 255 255
255 255 255
255 255 255
255 255 255
255 255 255
255 255 255
255 255 255
255 255 255
255 255 255
255 255 255
255 255 255
255 255 255
255 255 255
255 255 255
255 255 255
255 255 255
255 255 255
255 255 255
255 255 255
255 255 255
255 255 255
255 255 255
255 255 255
255 255 255
255 255 255
255 255 255
255 255 255
255 255 255
255 255 255
255 255 255
255 255 255
255 255 255
255 255 255
255 255 255
255 255 255
255 255 255
255 255 255
255 255 255
255 255 255
255 255 255
255 255 255
255 255 255
255 255 255
255 255 255
255 255 255
255 255 255
255 255 255
255 255 255
255 255 255
72 72 85
36 36 0
36 36 0
36 36 0
36 36 0
36 36 0
36 36 0
36 36 0
72 72 85
72 72 85
72 72 85
72 72 85
72 72 85
72 72 85
72 72 85
72 72 85
72 72 85
72 72 85
72 72 85
72 72 85
72 72 85
72 72 85
72 72 85
72 72 85
72 72 85
72 72 85
72 72 85
72 72 85
72 72 85
72 72 85
72 72 85
72 72 85
72 72 85
72 72 85
72 72 85
72 72 85
72 72 85
72 72 85
72 72 85
72 72 85
72 72 85
109 109 85
109 109 85
109 109 85
109 109 85
109 109 85
109 109 85
218 218 255
255 255 255
218 218 255
0 0 0
0 0 0
0 0 0
0 0 0
0 0 0
0 0 0
0 0 0
0 0 0
0 0 0
0 0 0
0 0 0
0 0 0
0 0 0
0 0 0
0 0 0
0 0 0
0 0 0
0 0 0
0 0 0
0 0 0
0 0 0
0 0 0
0 0 0
0 0 0
0 0 0
0 0 0
0 0 0
0 0 0
0 0 0
0 0 0
0 0 0
72 72 85
218 218 255
218 218 255
218 218 255
218 218 255
218 218 255
218 218 255
218 218 255
218 218 255
218 218 255
218 218 255
218 218 255
218 218 255
218 218 255
218 218 255
218 218 255
218 218 255
218 218 255
218 218 255
218 218 255
218 218 255
218 218 255
218 218 255
218 218 255
218 218 255
218 218 255
218 218 255
218 218 255
218 218 255
218 218 255
218 218 255
218 218 255
218 218 255
218 218 255
218 218 255
218 218 255
218 218 255
218 218 255
218 218 255
218 218 255
218 218 255
218 218 255
218 218 255
218 218 255
255 255 255
255 255 255
255 255 255
255 255 255
255 255 255
255 255 255
255 255 255
255 255 255
255 255 255
255 255 255
255 255 255
255 255 255
255 255 255
255 255 255
255 255 255
255 255 255
255 255 255
255 255 255
255 255 255
255 255 255
255 255 255
255 255 255
255 255 255
255 255 255
255 255 255
255 255 255
255 255 255
255 255 255
255 255 255
255 255 255
255 255 255
255 255 255
255 255 255
255 255 255
255 255 255
255 255 255
255 255 255
255 255 255
255 255 255
255 255 255
255 255 255
255 255 255
255 255 255
255 255 255
255 255 255
255 255 255
255 255 255
255 255 255
255 255 255
255 255 255
255 255 255
255 255 255
255 255 255
255 255 255
255 255 255
255 255 255
255 255 255
255 255 255
255 255 255
255 255 255
255 255 255
255 255 255
255 255 255
255 255 255
255 255 255
255 255 255
255 255 255
255 255 255
255 255 255
255 255 255
255 255 255
255 255 255
255 255 255
255 255 255
255 255 255
72 72 85
36 36 0
36 36 0
36 36 0
36 36 0
36 36 0
36 36 0
36 36 0
72 72 85
72 72 85
72 72 85
72 72 85
72 72 85
72 72 85
72 72 85
72 72 85
72 72 85
72 72 85
72 72 85
72 72 85
72 72 85
72 72 85
72 72 85
72 72 85
72 72 85
72 72 85
72 72 85
72 72 85
72 72 85
72 72 85
72 72 85
72 72 85
72 72 85
72 72 85
72 72 85
72 72 85
72 72 85
72 72 85
72 72 85
72 72 85
72 72 85
109 109 85
109 109 85
109 109 85
109 109 85
109 109 85
109 109 85
218 218 255
255 255 255
218 218 255
0 0 0
0 0 0
0 0 0
0 0 0
0 0 0
0 0 0
0 0 0
0 0 0
0 0 0
0 0 0
0 0 0
0 0 0
0 0 0
0 0 0
0 0 0
0 0 0
0 0 0
0 0 0
0 0 0
0 0 0
0 0 0
0 0 0
0 0 0
0 0 0
0 0 0
0 0 0
0 0 0
0 0 0
0 0 0
0 0 0
0 0 0
72 72 85
218 218 255
218 218 255
218 218 255
218 218 255
218 218 255
218 218 255
218 218 255
218 218 255
218 218 255
218 218 255
218 218 255
218 218 255
218 218 255
218 218 255
218 218 255
218 218 255
218 218 255
218 218 255
218 218 255
218 218 255
218 218 255
218 218 255
218 218 255
218 218 255
218 218 255
218 218 255
218 218 255
218 218 255
218 218 255
218 218 255
218 218 255
218 218 255
218 218 255
218 218 255
218 218 255
218 218 255
218 218 255
218 218 255
218 218 255
218 218 255
218 218 255
218 218 255
218 218 255
255 255 255
255 255 255
255 255 255
255 255 255
255 255 255
255 255 255
255 255 255
255 255 255
255 255 255
255 255 255
255 255 255
255 255 255
255 255 255
255 255 255
255 255 255
255 255 255
255 255 255
255 255 255
255 255 255
255 255 255
255 255 255
255 255 255
255 255 255
255 255 255
255 255 255
255 255 255
255 255 255
255 255 255
255 255 255
255 255 255
255 255 255
255 255 255
255 255 255
255 255 255
255 255 255
255 255 255
255 255 255
255 255 255
255 255 255
255 255 255
255 255 255
255 255 255
255 255 255
255 255 255
255 255 255
255 255 255
255 255 255
255 255 255
255 255 255
255 255 255
255 255 255
255 255 255
255 255 255
255 255 255
255 255 255
255 255 255
255 255 255
255 255 255
255 255 255
255 255 255
255 255 255
255 255 255
255 255 255
255 255 255
255 255 255
255 255 255
255 255 255
255 255 255
255 255 255
255 255 255
255 255 255
255 255 255
255 255 255
255 255 255
255 255 255
72 72 85
36 36 0
36 36 0
36 36 0
36 36 0
36 36 0
36 36 0
36 36 0
36 36 0
72 72 85
72 72 85
72 72 85
72 72 85
72 72 85
72 72 85
72 72 85
72 72 85
72 72 85
72 72 85
72 72 85
72 72 85
72 72 85
72 72 85
72 72 85
72 72 85
72 72 85
72 72 85
72 72 85
72 72 85
72 72 85
72 72 85
72 72 85
72 72 85
72 72 85
72 72 85
72 72 85
72 72 85
72 72 85
72 72 85
72 72 85
72 72 85
109 109 85
109 109 85
109 109 85
109 109 85
109 109 85
109 109 85
218 218 255
255 255 255
218 218 255
0 0 0
0 0 0
0 0 0
0 0 0
0 0 0
0 0 0
0 0 0
0 0 0
0 0 0
0 0 0
0 0 0
0 0 0
0 0 0
0 0 0
0 0 0
0 0 0
0 0 0
0 0 0
0 0 0
0 0 0
0 0 0
0 0 0
0 0 0
0 0 0
0 0 0
0 0 0
0 0 0
0 0 0
0 0 0
0 0 0
0 0 0
72 72 85
218 218 255
218 218 255
218 218 255
218 218 255
218 218 255
218 218 255
218 218 255
218 218 255
218 218 255
218 218 255
218 218 255
218 218 255
218 218 255
218 218 255
218 218 255
218 218 255
218 218 255
218 218 255
218 218 255
218 218 255
218 218 255
218 218 255
218 218 255
218 218 255
218 218 255
218 218 255
218 218 255
218 218 255
218 218 255
218 218 255
218 218 255
218 218 255
218 218 255
218 218 255
218 218 255
218 218 255
218 218 255
218 218 255
218 218 255
218 218 255
218 218 255
218 218 255
218 218 255
255 255 255
255 255 255
255 255 255
255 255 255
255 255 255
255 255 255
255 255 255
218 218 255
218 255 255
255 255 255
218 255 255
218 255 255
218 255 255
218 255 255
218 255 255
255 255 255
255 255 255
255 255 255
255 255 255
255 255 255
218 218 255
182 182 170
182 182 170
182 182 170
145 145 170
182 182 170
182 218 170
255 255 255
255 255 255
255 255 255
255 255 255
255 255 255
255 255 255
218 218 255
255 255 255
255 255 255
255 255 255
255 255 255
255 255 255
255 255 255
255 255 255
255 255 255
255 255 255
255 255 255
255 255 255
255 255 255
255 255 255
255 255 255
255 255 255
255 255 255
255 255 255
255 255 255
255 255 255
255 255 255
255 255 255
255 255 255
255 255 255
255 255 255
255 255 255
255 255 255
255 255 255
255 255 255
255 255 255
255 255 255
255 255 255
255 255 255
255 255 255
255 255 255
255 255 255
255 255 255
255 255 255
255 255 255
255 255 255
255 255 255
255 255 255
72 72 85
36 36 0
36 36 0
36 36 0
36 36 0
36 36 0
36 36 0
36 36 0
36 36 0
36 36 0
72 72 85
72 72 85
72 72 85
72 72 85
72 72 85
72 72 85
72 72 85
72 72 85
72 72 85
72 72 85
72 72 85
72 72 85
72 72 85
72 72 85
72 72 85
72 72 85
72 72 85
72 72 85
72 72 85
72 72 85
72 72 85
72 72 85
72 72 85
72 72 85
72 72 85
72 72 85
72 72 85
72 72 85
72 72 85
72 72 85
72 72 85
109 109 85
109 109 85
109 109 85
109 109 85
109 109 85
109 109 85
218 218 255
255 255 255
218 218 255
0 0 0
0 0 0
0 0 0
0 0 0
0 0 0
0 0 0
0 0 0
0 0 0
0 0 0
0 0 0
0 0 0
0 0 0
0 0 0
0 0 0
0 0 0
0 0 0
0 0 0
0 0 0
0 0 0
0 0 0
0 0 0
0 0 0
0 0 0
0 0 0
0 0 0
0 0 0
0 0 0
0 0 0
0 0 0
0 0 0
0 0 0
72 72 85
218 218 255
218 218 255
218 218 255
218 218 255
218 218 255
218 218 255
218 218 255
218 218 255
218 218 255
218 218 255
218 218 255
218 218 255
218 218 255
218 218 255
218 218 255
218 218 255
218 218 255
218 218 255
218 218 255
218 218 255
218 218 255
218 218 255
218 218 255
218 218 255
218 218 255
218 218 255
218 218 255
218 218 255
218 218 255
218 218 255
218 218 255
218 218 255
218 218 255
218 218 255
218 218 255
218 218 255
218 218 255
218 218 255
218 218 255
218 218 255
218 218 255
218 218 255
218 218 255
255 255 255
255 255 255
255 255 255
255 255 255
255 255 255
255 255 255
255 255 255
255 255 255
255 255 255
255 255 255
255 255 255
255 255 255
255 255 255
255 255 255
255 255 255
255 255 255
255 255 255
255 255 255
255 255 255
255 255 255
255 255 255
218 218 255
218 218 255
255 255 255
218 218 255
218 218 255
255 255 255
255 255 255
255 255 255
255 255 255
255 255 255
255 255 255
255 255 255
255 255 255
255 255 255
255 255 255
255 255 255
255 255 255
255 255 255
255 255 255
255 255 255
255 255 255
255 255 255
255 255 255
255 255 255
255 255 255
255 255 255
255 255 255
255 255 255
255 255 255
255 255 255
255 255 255
255 255 255
255 255 255
255 255 255
255 255 255
255 255 255
255 255 255
255 255 255
255 255 255
255 255 255
255 255 255
255 255 255
255 255 255
255 255 255
255 255 255
255 255 255
255 255 255
255 255 255
255 255 255
255 255 255
255 255 255
255 255 255
255 255 255
255 255 255
72 72 85
36 36 0
36 36 0
36 36 0
36 36 0
36 36 0
36 36 0
36 36 0
36 36 0
36 36 0
72 72 85
72 72 85
72 72 85
72 72 85
72 72 85
72 72 85
72 72 85
72 72 85
72 72 85
72 72 85
72 72 85
72 72 85
72 72 85
72 72 85
72 72 85
72 72 85
72 72 85
72 72 85
72 72 85
72 72 85
72 72 85
72 72 85
72 72 85
72 72 85
72 72 85
72 72 85
72 72 85
72 72 85
72 72 85
72 72 85
72 72 85
109 109 85
109 109 85
109 109 85
109 109 85
109 109 85
109 109 85
218 218 255
255 255 255
218 218 255
0 0 0
0 0 0
0 0 0
0 0 0
0 0 0
0 0 0
0 0 0
0 0 0
0 0 0
0 0 0
0 0 0
0 0 0
0 0 0
0 0 0
0 0 0
0 0 0
0 0 0
0 0 0
0 0 0
0 0 0
0 0 0
0 0 0
0 0 0
0 0 0
0 0 0
0 0 0
0 0 0
0 0 0
0 0 0
0 0 0
0 0 0
72 72 85
218 218 255
182 182 170
182 182 170
182 182 170
182 182 170
182 182 170
182 182 170
182 182 170
182 182 170
182 182 170
182 182 170
182 182 170
182 182 170
182 182 170
182 182 170
182 182 170
182 182 170
182 182 170
182 182 170
182 182 170
182 182 170
182 182 170
182 182 170
182 182 170
182 182 170
182 182 170
182 182 170
182 182 170
182 182 170
182 182 170
182 182 170
218 182 255
182 182 170
182 182 170
182 182 170
182 182 170
182 182 170
182 182 170
182 182 170
182 182 170
182 182 170
182 182 170
182 182 170
255 255 255
255 255 255
255 255 255
255 255 255
255 255 255
255 255 255
255 255 255
255 255 255
255 255 255
255 255 255
255 255 255
255 255 255
255 255 255
255 255 255
255 255 255
255 255 255
255 255 255
255 255 255
255 255 255
255 255 255
255 255 255
255 255 255
255 255 255
255 255 255
255 255 255
255 255 255
255 255 255
255 255 255
255 255 255
255 255 255
255 255 255
255 255 255
255 255 255
255 255 255
255 255 255
255 255 255
255 255 255
255 255 255
255 255 255
255 255 255
255 255 255
255 255 255
255 255 255
255 255 255
255 255 255
255 255 255
255 255 255
255 255 255
255 255 255
255 255 255
255 255 255
255 255 255
255 255 255
255 255 255
255 255 255
255 255 255
255 255 255
255 255 255
255 255 255
255 255 255
255 255 255
255 255 255
255 255 255
255 255 255
255 255 255
255 255 255
255 255 255
255 255 255
255 255 255
255 255 255
255 255 255
255 255 255
255 255 255
255 255 255
255 255 255
72 72 85
36 36 0
36 36 0
36 36 0
36 36 0
36 36 0
36 36 0
36 36 0
36 36 0
36 36 0
36 36 0
72 72 85
72 72 85
72 72 85
72 72 85
72 72 85
72 72 85
72 72 85
72 72 85
72 72 85
72 72 85
72 72 85
72 72 85
72 72 85
72 72 85
72 72 85
72 72 85
72 72 85
72 72 85
72 72 85
72 72 85
72 72 85
72 72 85
72 72 85
72 72 85
72 72 85
72 72 85
72 72 85
72 72 85
72 72 85
72 72 85
109 109 85
109 109 85
109 109 85
109 109 85
109 109 85
109 109 85
218 218 255
255 255 255
218 218 255
0 0 0
0 0 0
0 0 0
0 0 0
0 0 0
0 0 0
0 0 0
0 0 0
0 0 0
0 0 0
0 0 0
0 0 0
0 0 0
0 0 0
0 0 0
0 0 0
0 0 0
0 0 0
0 0 0
0 0 0
0 0 0
0 0 0
0 0 0
0 0 0
0 0 0
0 0 0
0 0 0
0 0 0
0 0 0
0 0 0
0 0 0
72 72 85
218 218 255
218 218 255
218 218 255
218 218 255
218 218 255
218 218 255
218 218 255
218 218 255
218 218 255
218 218 255
218 218 255
218 218 255
218 218 255
218 218 255
218 218 255
218 218 255
218 218 255
218 218 255
218 218 255
218 218 255
218 218 255
218 218 255
218 218 255
218 218 255
218 218 255
218 218 255
218 218 255
218 218 255
218 218 255
218 218 255
218 218 255
218 218 255
218 218 255
218 218 255
218 218 255
218 218 255
218 218 255
218 218 255
218 218 255
218 218 255
218 218 255
218 218 255
218 218 255
255 255 255
255 255 255
255 255 255
255 255 255
255 255 255
255 255 255
255 255 255
255 255 255
255 255 255
255 255 255
255 255 255
255 255 255
255 255 255
255 255 255
255 255 255
255 255 255
255 255 255
255 255 255
255 255 255
255 255 255
255 255 255
255 255 255
255 255 255
255 255 255
255 255 255
255 255 255
255 255 255
255 255 255
255 255 255
255 255 255
255 255 255
255 255 255
255 255 255
255 255 255
255 255 255
255 255 255
255 255 255
255 255 255
255 255 255
218 255 255
218 218 255
255 255 255
218 218 255
218 255 255
218 218 255
218 218 255
218 218 255
255 255 255
218 218 255
218 218 255
218 218 255
255 255 255
255 255 255
255 255 255
255 255 255
255 255 255
255 255 255
255 255 255
255 255 255
255 255 255
255 255 255
255 255 255
255 255 255
255 255 255
255 255 255
255 255 255
255 255 255
255 255 255
255 255 255
255 255 255
255 255 255
255 255 255
255 255 255
255 255 255
255 255 255
72 72 85
36 36 0
36 36 0
36 36 0
36 36 0
36 36 0
36 36 0
36 36 0
36 36 0
36 36 0
36 36 0
72 72 85
72 72 85
72 72 85
72 72 85
72 72 85
72 72 85
72 72 85
72 72 85
72 72 85
72 72 85
72 72 85
72 72 85
72 72 85
72 72 85
72 72 85
72 72 85
72 72 85
72 72 85
72 72 85
72 72 85
72 72 85
72 72 85
72 72 85
72 72 85
72 72 85
72 72 85
72 72 85
72 72 85
72 72 85
72 72 85
109 109 85
109 109 85
109 109 85
109 109 85
109 109 85
109 109 85
218 218 255
255 255 255
218 218 255
0 0 0
0 0 0
0 0 0
0 0 0
0 0 0
0 0 0
0 0 0
0 0 0
0 0 0
0 0 0
0 0 0
0 0 0
0 0 0
0 0 0
0 0 0
0 0 0
0 0 0
0 0 0
0 0 0
0 0 0
0 0 0
0 0 0
0 0 0
0 0 0
0 0 0
0 0 0
0 0 0
0 0 0
0 0 0
0 0 0
0 0 0
72 72 85
218 218 255
218 218 255
218 218 255
218 218 255
218 218 255
218 218 255
218 218 255
218 218 255
218 218 255
218 218 255
218 218 255
218 218 255
218 218 255
218 218 255
218 218 255
218 218 255
218 218 255
218 218 255
218 218 255
218 218 255
218 218 255
218 218 255
218 218 255
218 218 255
218 218 255
218 218 255
218 218 255
218 218 255
218 218 255
218 218 255
218 218 255
218 218 255
218 218 255
218 218 255
218 218 255
218 218 255
218 218 255
218 218 255
218 218 255
218 218 255
218 218 255
218 218 255
218 218 255
255 255 255
255 255 255
255 255 255
255 255 255
255 255 255
255 255 255
255 255 255
255 255 255
255 255 255
255 255 255
255 255 255
255 255 255
255 255 255
255 255 255
255 255 255
255 255 255
255 255 255
255 255 255
255 255 255
255 255 255
255 255 255
255 255 255
255 255 255
255 255 255
255 255 255
255 255 255
255 255 255
255 255 255
255 255 255
255 255 255
255 255 255
255 255 255
255 255 255
255 255 255
255 255 255
255 255 255
255 255 255
255 255 255
255 255 255
218 218 255
145 182 170
182 182 170
218 218 255
182 182 170
182 182 170
145 145 170
182 182 170
182 182 170
218 218 255
145 145 170
182 182 170
218 218 255
255 255 255
255 255 255
255 255 255
255 255 255
255 255 255
255 255 255
255 255 255
255 255 255
255 255 255
255 255 255
255 255 255
255 255 255
255 255 255
255 255 255
255 255 255
255 255 255
255 255 255
255 255 255
255 255 255
255 255 255
255 255 255
255 255 255
255 255 255
72 72 85
36 36 0
36 36 0
36 36 0
36 36 0
36 36 0
36 36 0
36 36 0
36 36 0
36 36 0
36 36 0
36 36 0
72 72 85
72 72 85
72 72 85
72 72 85
72 72 85
72 72 85
72 72 85
72 72 85
72 72 85
72 72 85
72 72 85
72 72 85
72 72 85
72 72 85
72 72 85
72 72 85
72 72 85
72 72 85
72 72 85
72 72 85
72 72 85
72 72 85
72 72 85
72 72 85
72 72 85
72 72 85
72 72 85
72 72 85
72 72 85
109 109 85
109 109 85
109 109 85
109 109 85
109 109 85
109 109 85
218 218 255
255 255 255
218 218 255
0 0 0
0 0 0
0 0 0
0 0 0
0 0 0
0 0 0
0 0 0
0 0 0
0 0 0
0 0 0
0 0 0
0 0 0
0 0 0
0 0 0
0 0 0
0 0 0
0 0 0
0 0 0
0 0 0
0 0 0
0 0 0
0 0 0
0 0 0
0 0 0
0 0 0
0 0 0
0 0 0
0 0 0
0 0 0
0 0 0
0 0 0
72 72 85
218 218 255
218 218 255
218 218 255
218 218 255
218 218 255
218 218 255
218 218 255
218 218 255
218 218 255
218 218 255
218 218 255
218 218 255
218 218 255
218 218 255
218 218 255
218 218 255
218 218 255
218 218 255
218 218 255
218 218 255
218 218 255
218 218 255
218 218 255
218 218 255
218 218 255
218 218 255
218 218 255
218 218 255
218 218 255
218 218 255
218 218 255
218 218 255
218 218 255
218 218 255
218 218 255
218 218 255
218 218 255
218 218 255
218 218 255
218 218 255
218 218 255
218 218 255
218 218 255
255 255 255
255 255 255
255 255 255
255 255 255
255 255 255
255 255 255
255 255 255
255 255 255
255 255 255
255 255 255
255 255 255
255 255 255
255 255 255
255 255 255
255 255 255
255 255 255
255 255 255
255 255 255
255 255 255
255 255 255
255 255 255
255 255 255
255 255 255
255 255 255
255 255 255
255 255 255
255 255 255
255 255 255
255 255 255
255 255 255
255 255 255
255 255 255
255 255 255
255 255 255
255 255 255
255 255 255
255 255 255
255 255 255
255 255 255
255 255 255
255 255 255
255 255 255
255 255 255
255 255 255
255 255 255
255 255 255
255 255 255
255 255 255
255 255 255
255 255 255
255 255 255
255 255 255
255 255 255
255 255 255
255 255 255
255 255 255
255 255 255
255 255 255
255 255 255
255 255 255
255 255 255
255 255 255
255 255 255
255 255 255
255 255 255
255 255 255
255 255 255
255 255 255
255 255 255
255 255 255
255 255 255
255 255 255
255 255 255
255 255 255
255 255 255
72 72 85
36 36 0
36 36 0
36 36 0
36 36 0
36 36 0
36 36 0
36 36 0
36 36 0
36 36 0
36 36 0
36 36 0
36 36 0
72 72 85
72 72 85
72 72 85
72 72 85
72 72 85
72 72 85
72 72 85
72 72 85
72 72 85
72 72 85
72 72 85
72 72 85
72 72 85
72 72 85
72 72 85
72 72 85
72 72 85
72 72 85
72 72 85
72 72 85
72 72 85
72 72 85
72 72 85
72 72 85
72 72 85
72 72 85
72 72 85
72 72 85
109 109 85
109 109 85
109 109 85
109 109 85
109 109 85
109 109 85
218 218 255
255 255 255
218 218 255
0 0 0
0 0 0
0 0 0
0 0 0
0 0 0
0 0 0
0 0 0
0 0 0
0 0 0
0 0 0
0 0 0
0 0 0
0 0 0
0 0 0
0 0 0
0 0 0
0 0 0
0 0 0
0 0 0
0 0 0
0 0 0
0 0 0
0 0 0
0 0 0
0 0 0
0 0 0
0 0 0
0 0 0
0 0 0
0 0 0
0 0 0
72 72 85
218 218 255
218 218 255
218 218 255
218 218 255
218 218 255
218 218 255
218 218 255
218 218 255
218 218 255
218 218 255
218 218 255
218 218 255
218 218 255
218 218 255
218 218 255
218 218 255
218 218 255
218 218 255
218 218 255
218 218 255
218 218 255
218 218 255
218 218 255
218 218 255
218 218 255
218 218 255
218 218 255
218 218 255
218 218 255
218 218 255
218 218 255
218 218 255
218 218 255
218 218 255
218 218 255
218 218 255
218 218 255
218 218 255
218 218 255
218 218 255
218 218 255
218 218 255
218 218 255
255 255 255
255 255 255
255 255 255
255 255 255
255 255 255
255 255 255
255 255 255
255 255 255
255 255 255
255 255 255
255 255 255
255 255 255
255 255 255
255 255 255
255 255 255
255 255 255
255 255 255
255 255 255
255 255 255
255 255 255
255 255 255
255 255 255
255 255 255
255 255 255
255 255 255
255 255 255
255 255 255
255 255 255
255 255 255
255 255 255
255 255 255
255 255 255
255 255 255
255 255 255
255 255 255
255 255 255
255 255 255
255 255 255
255 255 255
255 255 255
255 255 255
255 255 255
255 255 255
255 255 255
255 255 255
255 255 255
255 255 255
255 255 255
255 255 255
255 255 255
255 255 255
255 255 255
255 255 255
255 255 255
255 255 255
255 255 255
255 255 255
255 255 255
255 255 255
255 255 255
255 255 255
255 255 255
255 255 255
255 255 255
255 255 255
255 255 255
255 255 255
255 255 255
255 255 255
255 255 255
255 255 255
255 255 255
255 255 255
255 255 255
255 255 255
72 72 85
36 36 0
36 36 0
36 36 0
36 36 0
36 36 0
36 36 0
36 36 0
36 36 0
36 36 0
36 36 0
36 36 0
36 36 0
72 72 85
72 72 85
72 72 85
72 72 85
72 72 85
72 72 85
72 72 85
72 72 85
72 72 85
72 72 85
72 72 85
72 72 85
72 72 85
72 72 85
72 72 85
72 72 85
72 72 85
72 72 85
72 72 85
72 72 85
72 72 85
72 72 85
72 72 85
72 72 85
72 72 85
72 72 85
72 72 85
72 72 85
109 109 85
109 109 85
109 109 85
109 109 85
109 109 85
109 109 85
218 218 255
255 255 255
218 218 255
0 0 0
0 0 0
0 0 0
0 0 0
0 0 0
0 0 0
0 0 0
0 0 0
0 0 0
0 0 0
0 0 0
0 0 0
0 0 0
0 0 0
0 0 0
0 0 0
0 0 0
0 0 0
0 0 0
0 0 0
0 0 0
0 0 0
0 0 0
0 0 0
0 0 0
0 0 0
0 0 0
0 0 0
0 0 0
0 0 0
0 0 0
72 72 85
218 218 255
218 218 255
218 218 255
218 218 255
218 218 255
218 218 255
218 218 255
218 218 255
218 218 255
218 218 255
218 218 255
218 218 255
218 218 255
218 218 255
218 218 255
218 218 255
218 218 255
218 218 255
218 218 255
218 218 255
218 218 255
218 218 255
218 218 255
218 218 255
218 218 255
218 218 255
218 218 255
218 218 255
218 218 255
218 218 255
218 218 255
218 218 255
218 218 255
218 218 255
218 218 255
218 218 255
218 218 255
218 218 255
218 218 255
218 218 255
218 218 255
218 218 255
182 218 170
255 255 255
255 255 255
255 255 255
255 255 255
255 255 255
255 255 255
255 255 255
255 255 255
255 255 255
255 255 255
255 255 255
255 255 255
255 255 255
255 255 255
255 255 255
255 255 255
255 255 255
255 255 255
255 255 255
255 255 255
255 255 255
255 255 255
255 255 255
255 255 255
255 255 255
255 255 255
255 255 255
255 255 255
255 255 255
255 255 255
255 255 255
255 255 255
255 255 255
255 255 255
255 255 255
255 255 255
255 255 255
255 255 255
255 255 255
218 218 255
218 218 255
218 218 255
218 218 255
255 255 255
255 255 255
255 255 255
255 255 255
255 255 255
255 255 255
218 218 255
218 218 255
255 255 255
255 255 255
255 255 255
255 255 255
255 255 255
255 255 255
255 255 255
255 255 255
255 255 255
255 255 255
255 255 255
255 255 255
255 255 255
255 255 255
255 255 255
255 255 255
255 255 255
255 255 255
255 255 255
255 255 255
255 255 255
255 255 255
255 255 255
255 255 255
72 72 85
36 36 0
36 36 0
36 36 0
36 36 0
36 36 0
36 36 0
36 36 0
36 36 0
36 36 0
36 36 0
36 36 0
36 36 0
36 36 0
72 72 85
72 72 85
72 72 85
72 72 85
72 72 85
72 72 85
72 72 85
72 72 85
72 72 85
72 72 85
72 72 85
72 72 85
72 72 85
72 72 85
72 72 85
72 72 85
72 72 85
72 72 85
72 72 85
72 72 85
72 72 85
72 72 85
72 72 85
72 72 85
72 72 85
72 72 85
72 72 85
109 109 85
109 109 85
109 109 85
109 109 85
109 109 85
109 109 85
218 218 255
255 255 255
218 218 255
0 0 0
0 0 0
0 0 0
0 0 0
0 0 0
0 0 0
0 0 0
0 0 0
0 0 0
0 0 0
0 0 0
0 0 0
0 0 0
0 0 0
0 0 0
0 0 0
0 0 0
0 0 0
0 0 0
0 0 0
0 0 0
0 0 0
0 0 0
0 0 0
0 0 0
0 0 0
0 0 0
0 0 0
0 0 0
0 0 0
0 0 0
72 72 85
218 218 255
218 218 255
218 218 255
218 218 255
218 218 255
218 218 255
218 218 255
218 218 255
218 218 255
218 218 255
218 218 255
218 218 255
218 218 255
218 218 255
218 218 255
218 218 255
218 218 255
218 218 255
218 218 255
218 218 255
218 218 255
218 218 255
218 218 255
218 218 255
218 218 255
218 218 255
218 218 255
218 218 255
218 218 255
218 218 255
218 218 255
218 218 255
218 218 255
218 218 255
218 218 255
218 218 255
218 218 255
218 218 255
218 218 255
218 218 255
218 218 255
218 218 255
182 182 170
255 255 255
255 255 255
255 255 255
255 255 255
255 255 255
255 255 255
255 255 255
255 255 255
255 255 255
255 255 255
255 255 255
255 255 255
255 255 255
255 255 255
255 255 255
255 255 255
255 255 255
255 255 255
255 255 255
255 255 255
255 255 255
255 255 255
255 255 255
255 255 255
255 255 255
255 255 255
255 255 255
255 255 255
255 255 255
255 255 255
255 255 255
255 255 255
255 255 255
255 255 255
255 255 255
255 255 255
255 255 255
255 255 255
255 255 255
218 218 255
182 182 170
182 182 170
182 182 170
182 182 170
182 182 170
182 182 170
145 145 170
145 145 170
182 182 170
182 182 170
218 218 255
255 255 255
255 255 255
255 255 255
255 255 255
255 255 255
255 255 255
255 255 255
255 255 255
255 255 255
255 255 255
255 255 255
255 255 255
255 255 255
255 255 255
255 255 255
255 255 255
255 255 255
255 255 255
255 255 255
255 255 255
255 255 255
255 255 255
255 255 255
255 255 255
72 72 85
36 36 0
36 36 0
36 36 0
36 36 0
36 36 0
36 36 0
36 36 0
36 36 0
36 36 0
36 36 0
36 36 0
36 36 0
36 36 0
72 72 85
72 72 85
72 72 85
72 72 85
72 72 85
72 72 85
72 72 85
72 72 85
72 72 85
72 72 85
72 72 85
72 72 85
72 72 85
72 72 85
72 72 85
72 72 85
72 72 85
72 72 85
72 72 85
72 72 85
72 72 85
72 72 85
72 72 85
72 72 85
72 72 85
72 72 85
72 72 85
109 109 85
109 109 85
109 109 85
109 109 85
109 109 85
109 109 85
218 218 255
255 255 255
218 218 255
0 0 0
0 0 0
0 0 0
0 0 0
0 0 0
0 0 0
0 0 0
0 0 0
0 0 0
0 0 0
0 0 0
0 0 0
0 0 0
0 0 0
0 0 0
0 0 0
0 0 0
0 0 0
0 0 0
0 0 0
0 0 0
0 0 0
0 0 0
0 0 0
0 0 0
0 0 0
0 0 0
0 0 0
0 0 0
0 0 0
0 0 0
72 72 85
218 218 255
218 218 255
218 218 255
218 218 255
218 218 255
218 218 255
218 218 255
218 218 255
218 218 255
218 218 255
218 218 255
218 218 255
218 218 255
218 218 255
218 218 255
218 218 255
218 218 255
218 218 255
218 218 255
218 218 255
218 218 255
218 218 255
218 218 255
218 218 255
218 218 255
218 218 255
218 218 255
218 218 255
218 218 255
218 218 255
218 218 255
218 218 255
218 218 255
218 218 255
218 218 255
218 218 255
218 218 255
218 218 255
218 218 255
218 218 255
218 218 255
218 218 255
182 182 170
255 255 255
255 255 255
255 255 255
255 255 255
255 255 255
255 255 255
255 255 255
255 255 255
255 255 255
255 255 255
255 255 255
255 255 255
255 255 255
255 255 255
255 255 255
255 255 255
255 255 255
255 255 255
255 255 255
255 255 255
255 255 255
255 255 255
255 255 255
255 255 255
255 255 255
255 255 255
255 255 255
255 255 255
255 255 255
255 255 255
255 255 255
255 255 255
255 255 255
255 255 255
255 255 255
255 255 255
255 255 255
255 255 255
255 255 255
255 255 255
218 218 255
255 255 255
255 255 255
255 255 255
255 255 255
255 255 255
255 255 255
255 255 255
255 255 255
255 255 255
255 255 255
255 255 255
255 255 255
255 255 255
255 255 255
255 255 255
255 255 255
255 255 255
255 255 255
255 255 255
255 255 255
255 255 255
255 255 255
255 255 255
255 255 255
255 255 255
255 255 255
255 255 255
255 255 255
255 255 255
255 255 255
255 255 255
255 255 255
255 255 255
255 255 255
72 72 85
36 36 0
36 36 0
36 36 0
36 36 0
36 36 0
36 36 0
36 36 0
36 36 0
36 36 0
36 36 0
36 36 0
36 36 0
36 36 0
36 36 0
72 72 85
72 72 85
72 72 85
72 72 85
72 72 85
72 72 85
72 72 85
72 72 85
72 72 85
72 72 85
72 72 85
72 72 85
72 72 85
72 72 85
72 72 85
72 72 85
72 72 85
72 72 85
72 72 85
72 72 85
72 72 85
72 72 85
72 72 85
72 72 85
72 72 85
72 72 85
109 109 85
109 109 85
109 109 85
109 109 85
109 109 85
109 109 85
218 218 255
255 255 255
218 218 255
0 0 0
0 0 0
0 0 0
0 0 0
0 0 0
0 0 0
0 0 0
0 0 0
0 0 0
0 0 0
0 0 0
0 0 0
0 0 0
0 0 0
0 0 0
0 0 0
0 0 0
0 0 0
0 0 0
0 0 0
0 0 0
0 0 0
0 0 0
0 0 0
0 0 0
0 0 0
0 0 0
0 0 0
0 0 0
0 0 0
0 0 0
72 72 85
218 218 255
218 218 255
218 218 255
218 218 255
218 218 255
218 218 255
218 218 255
218 218 255
218 218 255
218 218 255
218 218 255
218 218 255
218 218 255
218 218 255
218 218 255
218 218 255
218 218 255
218 218 255
218 218 255
218 218 255
218 218 255
218 218 255
218 218 255
218 218 255
218 218 255
218 218 255
218 218 255
218 218 255
218 218 255
218 218 255
218 218 255
218 218 255
218 218 255
218 218 255
218 218 255
218 218 255
218 218 255
218 218 255
218 218 255
218 218 255
218 218 255
218 218 255
182 182 170
255 255 255
255 255 255
255 255 255
255 255 255
255 255 255
255 255 255
255 255 255
255 255 255
255 255 255
255 255 255
255 255 255
255 255 255
255 255 255
255 255 255
255 255 255
255 255 255
255 255 255
255 255 255
255 255 255
255 255 255
255 255 255
255 255 255
255 255 255
255 255 255
255 255 255
255 255 255
255 255 255
255 255 255
255 255 255
255 255 255
255 255 255
255 255 255
255 255 255
255 255 255
255 255 255
255 255 255
255 255 255
255 255 255
255 255 255
255 255 255
255 255 255
255 255 255
255 255 255
255 255 255
255 255 255
255 255 255
255 255 255
255 255 255
255 255 255
255 255 255
255 255 255
255 255 255
255 255 255
255 255 255
255 255 255
255 255 255
255 255 255
255 255 255
255 255 255
255 255 255
255 255 255
255 255 255
255 255 255
255 255 255
255 255 255
255 255 255
255 255 255
255 255 255
255 255 255
255 255 255
255 255 255
255 255 255
255 255 255
255 255 255
255 255 255
72 72 85
36 36 0
36 36 0
36 36 0
36 36 0
36 36 0
36 36 0
36 36 0
36 36 0
36 36 0
36 36 0
36 36 0
36 36 0
36 36 0
36 36 0
36 36 0
72 72 85
72 72 85
72 72 85
72 72 85
72 72 85
72 72 85
72 72 85
72 72 85
72 72 85
72 72 85
72 72 85
72 72 85
72 72 85
72 72 85
72 72 85
72 72 85
72 72 85
72 72 85
72 72 85
72 72 85
72 72 85
72 72 85
72 72 85
72 72 85
72 72 85
109 109 85
109 109 85
109 109 85
109 109 85
109 109 85
109 109 85
218 218 255
255 255 255
218 218 255
0 0 0
0 0 0
0 0 0
0 0 0
0 0 0
0 0 0
0 0 0
0 0 0
0 0 0
0 0 0
0 0 0
0 0 0
0 0 0
0 0 0
0 0 0
0 0 0
0 0 0
0 0 0
0 0 0
0 0 0
0 0 0
0 0 0
0 0 0
0 0 0
0 0 0
0 0 0
0 0 0
0 0 0
0 0 0
0 0 0
0 0 0
72 72 85
218 218 255
218 218 255
218 218 255
218 218 255
218 218 255
218 218 255
218 218 255
218 218 255
218 218 255
218 218 255
218 218 255
218 218 255
218 218 255
218 218 255
218 218 255
218 218 255
218 218 255
218 218 255
218 218 255
218 218 255
218 218 255
218 218 255
218 218 255
218 218 255
218 218 255
218 218 255
218 218 255
218 218 255
218 218 255
218 218 255
218 218 255
218 218 255
218 218 255
218 218 255
218 218 255
218 218 255
218 218 255
218 218 255
218 218 255
218 218 255
218 218 255
218 218 255
182 182 170
255 255 255
255 255 255
255 255 255
255 255 255
255 255 255
255 255 255
255 255 255
255 255 255
255 255 255
255 255 255
255 255 255
255 255 255
255 255 255
255 255 255
255 255 255
255 255 255
255 255 255
255 255 255
255 255 255
255 255 255
255 255 255
255 255 255
255 255 255
255 255 255
255 255 255
255 255 255
255 255 255
255 255 255
255 255 255
255 255 255
255 255 255
255 255 255
255 255 255
255 255 255
255 255 255
255 255 255
255 255 255
255 255 255
255 255 255
255 255 255
255 255 255
255 255 255
255 255 255
255 255 255
218 218 255
218 218 255
218 218 255
255 255 255
255 255 255
255 255 255
255 255 255
255 255 255
255 255 255
255 255 255
255 255 255
255 255 255
255 255 255
255 255 255
255 255 255
255 255 255
255 255 255
255 255 255
255 255 255
255 255 255
255 255 255
255 255 255
255 255 255
255 255 255
255 255 255
255 255 255
255 255 255
255 255 255
255 255 255
255 255 255
255 255 255
72 72 85
36 36 0
36 36 0
36 36 0
36 36 0
36 36 0
36 36 0
36 36 0
36 36 0
36 36 0
36 36 0
36 36 0
36 36 0
36 36 0
36 36 0
36 36 0
72 72 85
72 72 85
72 72 85
72 72 85
72 72 85
72 72 85
72 72 85
72 72 85
72 72 85
72 72 85
72 72 85
72 72 85
72 72 85
72 72 85
72 72 85
72 72 85
72 72 85
72 72 85
72 72 85
72 72 85
72 72 85
72 72 85
72 72 85
72 72 85
72 72 85
109 109 85
109 109 85
109 109 85
109 109 85
109 109 85
109 109 85
218 218 255
255 255 255
218 218 255
0 0 0
0 0 0
0 0 0
0 0 0
0 0 0
0 0 0
0 0 0
0 0 0
0 0 0
0 0 0
0 0 0
0 0 0
0 0 0
0 0 0
0 0 0
0 0 0
0 0 0
0 0 0
0 0 0
0 0 0
0 0 0
0 0 0
0 0 0
0 0 0
0 0 0
0 0 0
0 0 0
0 0 0
0 0 0
0 0 0
0 0 0
72 72 85
218 218 255
218 218 255
218 218 255
218 218 255
218 218 255
218 218 255
218 218 255
218 218 255
218 218 255
218 218 255
218 218 255
218 218 255
218 218 255
218 218 255
218 218 255
218 218 255
218 218 255
218 218 255
218 218 255
218 218 255
218 218 255
218 218 255
218 218 255
218 218 255
218 218 255
218 218 255
218 218 255
218 218 255
218 218 255
218 218 255
218 218 255
218 218 255
218 218 255
218 218 255
218 218 255
218 218 255
218 218 255
218 218 255
218 218 255
218 218 255
218 218 255
218 218 255
182 182 170
255 255 255
255 255 255
255 255 255
255 255 255
255 255 255
255 255 255
255 255 255
255 255 255
255 255 255
255 255 255
255 255 255
255 255 255
255 255 255
255 255 255
255 255 255
255 255 255
255 255 255
255 255 255
255 255 255
255 255 255
255 255 255
255 255 255
255 255 255
255 255 255
255 255 255
255 255 255
255 255 255
255 255 255
255 255 255
255 255 255
255 255 255
255 255 255
255 255 255
255 255 255
255 255 255
255 255 255
255 255 255
255 255 255
255 255 255
182 182 170
145 145 170
145 182 170
182 182 170
182 182 170
182 182 170
218 218 255
182 182 170
182 182 170
182 182 170
182 182 170
182 182 170
218 218 255
255 255 255
255 255 255
255 255 255
255 255 255
255 255 255
255 255 255
255 255 255
255 255 255
255 255 255
255 255 255
255 255 255
255 255 255
255 255 255
255 255 255
255 255 255
255 255 255
255 255 255
255 255 255
255 255 255
255 255 255
255 255 255
255 255 255
255 255 255
72 72 85
36 36 0
36 36 0
36 36 0
36 36 0
36 36 0
36 36 0
36 36 0
36 36 0
36 36 0
36 36 0
36 36 0
36 36 0
36 36 0
36 36 0
36 36 0
36 36 0
72 72 85
72 72 85
72 72 85
72 72 85
72 72 85
72 72 85
72 72 85
72 72 85
72 72 85
72 72 85
72 72 85
72 72 85
72 72 85
72 72 85
72 72 85
72 72 85
72 72 85
72 72 85
72 72 85
72 72 85
72 72 85
72 72 85
72 72 85
109 109 85
109 109 85
109 109 85
109 109 85
109 109 85
109 109 85
109 109 85
218 218 255
255 255 255
218 218 255
0 0 0
0 0 0
0 0 0
0 0 0
0 0 0
0 0 0
0 0 0
0 0 0
0 0 0
0 0 0
0 0 0
0 0 0
0 0 0
0 0 0
0 0 0
0 0 0
0 0 0
0 0 0
0 0 0
0 0 0
0 0 0
0 0 0
0 0 0
0 0 0
0 0 0
0 0 0
0 0 0
0 0 0
0 0 0
0 0 0
0 0 0
72 72 85
218 218 255
218 218 255
218 218 255
218 218 255
218 218 255
218 218 255
218 218 255
218 218 255
218 218 255
218 218 255
218 218 255
218 218 255
218 218 255
218 218 255
218 218 255
218 218 255
218 218 255
218 218 255
218 218 255
218 218 255
218 218 255
218 218 255
218 218 255
218 218 255
218 218 255
218 218 255
218 218 255
218 218 255
218 218 255
218 218 255
218 218 255
218 218 255
218 218 255
218 218 255
218 218 255
218 218 255
218 218 255
218 218 255
218 218 255
218 218 255
218 218 255
218 218 255
182 182 170
255 255 255
255 255 255
255 255 255
255 255 255
255 255 255
255 255 255
255 255 255
255 255 255
255 255 255
255 255 255
255 255 255
255 255 255
255 255 255
255 255 255
255 255 255
255 255 255
255 255 255
255 255 255
255 255 255
255 255 255
255 255 255
255 255 255
255 255 255
255 255 255
255 255 255
255 255 255
255 255 255
255 255 255
255 255 255
255 255 255
255 255 255
255 255 255
255 255 255
255 255 255
255 255 255
255 255 255
255 255 255
255 255 255
255 255 255
255 255 255
218 218 255
218 218 255
255 255 255
255 255 255
255 255 255
255 255 255
218 218 255
218 218 255
218 218 255
218 218 255
255 255 255
255 255 255
255 255 255
255 255 255
255 255 255
255 255 255
255 255 255
255 255 255
255 255 255
255 255 255
255 255 255
255 255 255
255 255 255
255 255 255
255 255 255
255 255 255
255 255 255
255 255 255
255 255 255
255 255 255
255 255 255
255 255 255
255 255 255
255 255 255
255 255 255
72 72 85
36 36 0
36 36 0
36 36 0
36 36 0
36 36 0
36 36 0
36 36 0
36 36 0
36 36 0
36 36 0
36 36 0
36 36 0
36 36 0
36 36 0
36 36 0
36 36 0
36 36 0
72 72 85
72 72 85
72 72 85
72 72 85
72 72 85
72 72 85
72 72 85
72 72 85
72 72 85
72 72 85
72 72 85
72 72 85
72 72 85
72 72 85
72 72 85
72 72 85
72 72 85
72 72 85
72 72 85
72 72 85
72 72 85
72 72 85
109 109 85
109 109 85
109 109 85
109 109 85
109 109 85
109 109 85
109 109 85
218 218 255
255 255 255
218 218 255
0 0 0
0 0 0
0 0 0
0 0 0
0 0 0
0 0 0
0 0 0
0 0 0
0 0 0
0 0 0
0 0 0
0 0 0
0 0 0
0 0 0
0 0 0
0 0 0
0 0 0
0 0 0
0 0 0
0 0 0
0 0 0
0 0 0
0 0 0
0 0 0
0 0 0
0 0 0
0 0 0
0 0 0
0 0 0
0 0 0
0 0 0
72 72 85
218 218 255
218 218 255
218 218 255
218 218 255
218 218 255
218 218 255
218 218 255
218 218 255
218 218 255
218 218 255
218 218 255
218 218 255
218 218 255
218 218 255
218 218 255
218 218 255
218 218 255
218 218 255
218 218 255
218 218 255
218 218 255
218 218 255
218 218 255
218 218 255
218 218 255
218 218 255
218 218 255
218 218 255
218 218 255
218 218 255
218 218 255
218 218 255
218 218 255
218 218 255
218 218 255
218 218 255
182 218 170
218 218 255
218 218 255
218 218 255
218 218 255
218 218 255
218 218 255
255 255 255
255 255 255
255 255 255
255 255 255
255 255 255
255 255 255
255 255 255
255 255 255
255 255 255
255 255 255
255 255 255
255 255 255
255 255 255
255 255 255
255 255 255
255 255 255
255 255 255
255 255 255
255 255 255
255 255 255
255 255 255
255 255 255
255 255 255
255 255 255
255 255 255
255 255 255
255 255 255
255 255 255
255 255 255
255 255 255
255 255 255
255 255 255
255 255 255
255 255 255
255 255 255
255 255 255
255 255 255
255 255 255
255 255 255
255 255 255
255 255 255
255 255 255
255 255 255
255 255 255
255 255 255
255 255 255
255 255 255
255 255 255
255 255 255
255 255 255
255 255 255
255 255 255
255 255 255
255 255 255
255 255 255
255 255 255
255 255 255
255 255 255
255 255 255
255 255 255
255 255 255
255 255 255
255 255 255
255 255 255
255 255 255
255 255 255
255 255 255
255 255 255
255 255 255
255 255 255
255 255 255
255 255 255
255 255 255
255 255 255
255 255 255
72 72 85
36 36 0
36 36 0
36 36 0
36 36 0
36 36 0
36 36 0
36 36 0
36 36 0
36 36 0
36 36 0
36 36 0
36 36 0
36 36 0
36 36 0
36 36 0
36 36 0
36 36 0
72 72 85
72 72 85
72 72 85
72 72 85
72 72 85
72 72 85
72 72 85
72 72 85
72 72 85
72 72 85
72 72 85
72 72 85
72 72 85
72 72 85
72 72 85
72 72 85
72 72 85
72 72 85
72 72 85
72 72 85
72 72 85
72 72 85
109 109 85
109 109 85
109 109 85
109 109 85
109 109 85
109 109 85
109 109 85
218 218 255
255 255 255
218 218 255
0 0 0
0 0 0
0 0 0
0 0 0
0 0 0
0 0 0
0 0 0
0 0 0
0 0 0
0 0 0
0 0 0
0 0 0
0 0 0
0 0 0
0 0 0
0 0 0
0 0 0
0 0 0
0 0 0
0 0 0
0 0 0
0 0 0
0 0 0
0 0 0
0 0 0
0 0 0
0 0 0
0 0 0
0 0 0
0 0 0
0 0 0
72 72 85
218 218 255
182 182 170
182 182 170
182 182 170
182 182 170
182 182 170
182 182 170
182 182 170
182 182 170
182 182 170
182 182 170
182 182 170
182 182 170
182 182 170
182 182 170
182 182 170
182 182 170
182 182 170
182 182 170
182 182 170
182 182 170
182 182 170
182 182 170
182 182 170
182 182 170
182 182 170
182 182 170
182 182 170
182 182 170
182 182 170
182 182 170
182 182 170
182 182 170
182 182 170
182 182 170
182 182 170
182 182 170
182 182 170
182 182 170
182 182 170
182 182 170
182 182 170
182 182 170
255 255 255
255 255 255
255 255 255
255 255 255
255 255 255
255 255 255
255 255 255
255 255 255
255 255 255
255 255 255
255 255 255
255 255 255
255 255 255
255 255 255
255 255 255
255 255 255
255 255 255
255 255 255
255 255 255
255 255 255
255 255 255
255 255 255
255 255 255
255 255 255
255 255 255
255 255 255
255 255 255
255 255 255
255 255 255
255 255 255
255 255 255
255 255 255
255 255 255
255 255 255
255 255 255
255 255 255
255 255 255
255 255 255
255 255 255
255 255 255
255 255 255
255 255 255
255 255 255
255 255 255
255 255 255
218 218 255
255 255 255
255 255 255
255 255 255
255 255 255
255 255 255
255 255 255
255 255 255
255 255 255
255 255 255
255 255 255
255 255 255
255 255 255
255 255 255
255 255 255
255 255 255
255 255 255
255 255 255
255 255 255
255 255 255
255 255 255
255 255 255
255 255 255
255 255 255
255 255 255
255 255 255
255 255 255
255 255 255
255 255 255
255 255 255
72 72 85
36 36 0
36 36 0
36 36 0
36 36 0
36 36 0
36 36 0
36 36 0
36 36 0
36 36 0
36 36 0
36 36 0
36 36 0
36 36 0
36 36 0
36 36 0
36 36 0
36 36 0
36 36 0
72 72 85
72 72 85
72 72 85
72 72 85
72 72 85
72 72 85
72 72 85
72 72 85
72 72 85
72 72 85
72 72 85
72 72 85
72 72 85
72 72 85
72 72 85
72 72 85
72 72 85
72 72 85
72 72 85
72 72 85
72 72 85
109 109 85
109 109 85
109 109 85
109 109 85
109 109 85
109 109 85
109 109 85
218 218 255
255 255 255
218 218 255
0 0 0
0 0 0
0 0 0
0 0 0
0 0 0
0 0 0
0 0 0
0 0 0
0 0 0
0 0 0
0 0 0
0 0 0
0 0 0
0 0 0
0 0 0
0 0 0
0 0 0
0 0 0
0 0 0
0 0 0
0 0 0
0 0 0
0 0 0
0 0 0
0 0 0
0 0 0
0 0 0
0 0 0
0 0 0
0 0 0
0 0 0
72 72 85
218 218 255
218 218 255
218 218 255
218 218 255
218 218 255
218 218 255
218 218 255
218 218 255
218 218 255
218 218 255
218 218 255
218 218 255
218 218 255
218 218 255
218 218 255
218 218 255
218 218 255
218 218 255
218 218 255
218 218 255
218 218 255
218 218 255
218 218 255
218 218 255
218 218 255
218 218 255
218 218 255
218 218 255
218 218 255
218 218 255
218 218 255
218 218 255
218 218 255
218 218 255
218 218 255
218 218 255
218 218 255
218 218 255
218 218 255
218 218 255
218 218 255
218 218 255
218 218 255
255 255 255
255 255 255
255 255 255
255 255 255
255 255 255
255 255 255
255 255 255
255 255 255
255 255 255
255 255 255
255 255 255
255 255 255
255 255 255
255 255 255
255 255 255
255 255 255
255 255 255
255 255 255
255 255 255
255 255 255
255 255 255
255 255 255
255 255 255
255 255 255
255 255 255
255 255 255
255 255 255
255 255 255
255 255 255
255 255 255
255 255 255
255 255 255
255 255 255
255 255 255
255 255 255
255 255 255
255 255 255
255 255 255
255 255 255
218 218 255
182 182 170
145 182 170
182 182 170
182 182 170
182 182 170
218 218 255
182 182 170
182 182 170
182 182 170
255 255 255
255 255 255
255 255 255
255 255 255
255 255 255
255 255 255
255 255 255
255 255 255
255 255 255
255 255 255
255 255 255
255 255 255
255 255 255
255 255 255
255 255 255
255 255 255
255 255 255
255 255 255
255 255 255
255 255 255
255 255 255
255 255 255
255 255 255
255 255 255
255 255 255
255 255 255
72 72 85
36 36 0
36 36 0
36 36 0
36 36 0
36 36 0
36 36 0
36 36 0
36 36 0
36 36 0
36 36 0
36 36 0
36 36 0
36 36 0
36 36 0
36 36 0
36 36 0
36 36 0
36 36 0
72 72 85
72 72 85
72 72 85
72 72 85
72 72 85
72 72 85
72 72 85
72 72 85
72 72 85
72 72 85
72 72 85
72 72 85
72 72 85
72 72 85
72 72 85
72 72 85
72 72 85
72 72 85
72 72 85
72 72 85
72 72 85
109 109 85
109 109 85
109 109 85
109 109 85
109 109 85
109 109 85
109 109 85
218 218 255
255 255 255
218 218 255
0 0 0
0 0 0
0 0 0
0 0 0
0 0 0
0 0 0
0 0 0
0 0 0
0 0 0
0 0 0
0 0 0
0 0 0
0 0 0
0 0 0
0 0 0
0 0 0
0 0 0
0 0 0
0 0 0
0 0 0
0 0 0
0 0 0
0 0 0
0 0 0
0 0 0
0 0 0
0 0 0
0 0 0
0 0 0
0 0 0
0 0 0
72 72 85
218 218 255
218 218 255
218 218 255
218 218 255
218 218 255
218 218 255
218 218 255
218 218 255
218 218 255
218 218 255
218 218 255
218 218 255
218 218 255
218 218 255
218 218 255
218 218 255
218 218 255
218 218 255
218 218 255
218 218 255
218 218 255
218 218 255
218 218 255
218 218 255
218 218 255
218 218 255
218 218 255
218 218 255
218 218 255
218 218 255
218 218 255
218 218 255
218 218 255
218 218 255
218 218 255
218 218 255
218 218 255
218 218 255
218 218 255
218 218 255
218 218 255
218 218 255
218 218 255
255 255 255
255 255 255
255 255 255
255 255 255
255 255 255
255 255 255
255 255 255
255 255 255
255 255 255
255 255 255
255 255 255
255 255 255
255 255 255
255 255 255
255 255 255
255 255 255
255 255 255
255 255 255
255 255 255
255 255 255
255 255 255
255 255 255
255 255 255
255 255 255
255 255 255
255 255 255
255 255 255
255 255 255
255 255 255
255 255 255
255 255 255
255 255 255
255 255 255
255 255 255
255 255 255
255 255 255
255 255 255
255 255 255
255 255 255
255 255 255
218 218 255
218 218 255
218 218 255
218 218 255
218 218 255
218 218 255
218 218 255
218 255 255
218 218 255
255 255 255
255 255 255
255 255 255
255 255 255
255 255 255
255 255 255
255 255 255
255 255 255
255 255 255
255 255 255
255 255 255
255 255 255
255 255 255
255 255 255
255 255 255
255 255 255
255 255 255
255 255 255
255 255 255
255 255 255
255 255 255
255 255 255
255 255 255
255 255 255
255 255 255
255 255 255
72 72 85
36 36 0
36 36 0
36 36 0
36 36 0
36 36 0
36 36 0
36 36 0
36 36 0
36 36 0
36 36 0
36 36 0
36 36 0
36 36 0
36 36 0
36 36 0
36 36 0
36 36 0
36 36 0
36 36 0
72 72 85
72 72 85
72 72 85
72 72 85
72 72 85
72 72 85
72 72 85
72 72 85
72 72 85
72 72 85
72 72 85
72 72 85
72 72 85
72 72 85
72 72 85
72 72 85
72 72 85
72 72 85
72 72 85
72 72 85
109 109 85
109 109 85
109 109 85
109 109 85
109 109 85
109 109 85
109 109 85
218 218 255
255 255 255
218 218 255
0 0 0
0 0 0
0 0 0
0 0 0
0 0 0
0 0 0
0 0 0
0 0 0
0 0 0
0 0 0
0 0 0
0 0 0
0 0 0
0 0 0
0 0 0
0 0 0
0 0 0
0 0 0
0 0 0
0 0 0
0 0 0
0 0 0
0 0 0
0 0 0
0 0 0
0 0 0
0 0 0
0 0 0
0 0 0
0 0 0
0 0 0
72 72 85
218 218 255
218 218 255
218 218 255
218 218 255
218 218 255
218 218 255
218 218 255
218 218 255
218 218 255
218 218 255
218 218 255
218 218 255
218 218 255
218 218 255
218 218 255
218 218 255
218 218 255
218 218 255
218 218 255
218 218 255
218 218 255
218 218 255
218 218 255
218 218 255
218 218 255
218 218 255
218 218 255
218 218 255
218 218 255
218 218 255
218 218 255
218 218 255
218 218 255
218 218 255
218 218 255
218 218 255
218 218 255
218 218 255
218 218 255
218 218 255
218 218 255
218 218 255
218 218 255
255 255 255
255 255 255
182 182 170
182 182 170
218 218 255
218 218 255
218 218 255
218 218 255
182 182 170
218 218 255
182 182 170
182 182 170
255 255 255
255 255 255
255 255 255
255 255 255
255 255 255
255 255 255
255 255 255
255 255 255
255 255 255
255 255 255
255 255 255
255 255 255
255 255 255
255 255 255
255 255 255
255 255 255
255 255 255
255 255 255
255 255 255
255 255 255
255 255 255
255 255 255
255 255 255
255 255 255
255 255 255
255 255 255
255 255 255
255 255 255
255 255 255
255 255 255
255 255 255
255 255 255
255 255 255
255 255 255
255 255 255
255 255 255
255 255 255
255 255 255
255 255 255
255 255 255
255 255 255
255 255 255
255 255 255
255 255 255
255 255 255
255 255 255
255 255 255
255 255 255
255 255 255
255 255 255
255 255 255
255 255 255
255 255 255
255 255 255
255 255 255
255 255 255
255 255 255
255 255 255
255 255 255
255 255 255
255 255 255
255 255 255
255 255 255
72 72 85
36 36 0
36 36 0
36 36 0
36 36 0
36 36 0
36 36 0
36 36 0
36 36 0
36 36 0
36 36 0
36 36 0
36 36 0
36 36 0
36 36 0
36 36 0
36 36 0
36 36 0
36 36 0
36 36 0
36 36 0
72 72 85
72 72 85
72 72 85
72 72 85
72 72 85
72 72 85
72 72 85
72 72 85
72 72 85
72 72 85
72 72 85
72 72 85
72 72 85
72 72 85
72 72 85
72 72 85
72 72 85
72 72 85
72 72 85
109 109 85
109 109 85
109 109 85
109 109 85
109 109 85
109 109 85
109 109 85
218 218 255
255 255 255
218 218 255
0 0 0
0 0 0
0 0 0
0 0 0
0 0 0
0 0 0
0 0 0
0 0 0
0 0 0
0 0 0
0 0 0
0 0 0
0 0 0
0 0 0
0 0 0
0 0 0
0 0 0
0 0 0
0 0 0
0 0 0
0 0 0
0 0 0
0 0 0
0 0 0
0 0 0
0 0 0
0 0 0
0 0 0
0 0 0
0 0 0
0 0 0
72 72 85
218 218 255
218 218 255
218 218 255
218 218 255
218 218 255
218 218 255
218 218 255
218 218 255
218 218 255
218 218 255
218 218 255
218 218 255
218 218 255
218 218 255
218 218 255
218 218 255
218 218 255
218 218 255
218 218 255
218 218 255
218 218 255
218 218 255
218 218 255
218 218 255
218 218 255
218 218 255
218 218 255
218 218 255
218 218 255
218 218 255
218 218 255
218 218 255
218 218 255
218 218 255
218 218 255
218 218 255
218 218 255
218 218 255
218 218 255
218 218 255
218 218 255
218 218 255
218 218 255
255 255 255
255 255 255
218 218 255
182 182 170
218 218 255
218 218 255
182 182 170
182 182 170
218 182 255
182 182 170
218 182 255
182 182 170
255 255 255
255 255 255
255 255 255
255 255 255
255 255 255
255 255 255
255 255 255
255 255 255
255 255 255
255 255 255
255 255 255
255 255 255
255 255 255
255 255 255
255 255 255
255 255 255
255 255 255
255 255 255
255 255 255
255 255 255
255 255 255
255 255 255
255 255 255
255 255 255
255 255 255
255 255 255
255 255 255
255 255 255
255 255 255
255 255 255
255 255 255
255 255 255
255 255 255
255 255 255
255 255 255
255 255 255
255 255 255
255 255 255
255 255 255
255 255 255
255 255 255
255 255 255
255 255 255
255 255 255
255 255 255
255 255 255
255 255 255
255 255 255
255 255 255
255 255 255
255 255 255
255 255 255
255 255 255
255 255 255
255 255 255
255 255 255
255 255 255
255 255 255
255 255 255
255 255 255
255 255 255
255 255 255
255 255 255
72 72 85
36 36 0
36 36 0
36 36 0
36 36 0
36 36 0
36 36 0
36 36 0
36 36 0
36 36 0
36 36 0
36 36 0
36 36 0
36 36 0
36 36 0
36 36 0
36 36 0
36 36 0
36 36 0
36 36 0
36 36 0
72 72 85
72 72 85
72 72 85
72 72 85
72 72 85
72 72 85
72 72 85
72 72 85
72 72 85
72 72 85
72 72 85
72 72 85
72 72 85
72 72 85
72 72 85
72 72 85
72 72 85
72 72 85
72 72 85
109 109 85
109 109 85
109 109 85
109 109 85
109 109 85
109 109 85
109 109 85
218 218 255
255 255 255
218 218 255
0 0 0
0 0 0
0 0 0
0 0 0
0 0 0
0 0 0
0 0 0
0 0 0
0 0 0
0 0 0
0 0 0
0 0 0
0 0 0
0 0 0
0 0 0
0 0 0
0 0 0
0 0 0
0 0 0
0 0 0
0 0 0
0 0 0
0 0 0
0 0 0
0 0 0
0 0 0
0 0 0
0 0 0
0 0 0
0 0 0
0 0 0
72 72 85
218 218 255
218 218 255
218 218 255
218 218 255
218 218 255
218 218 255
218 218 255
218 218 255
218 218 255
218 218 255
218 218 255
218 218 255
218 218 255
218 218 255
218 218 255
218 218 255
218 218 255
218 218 255
218 218 255
218 218 255
218 218 255
218 218 255
218 218 255
218 218 255
218 218 255
218 218 255
218 218 255
218 218 255
218 218 255
218 218 255
218 218 255
218 218 255
218 218 255
218 218 255
218 218 255
218 218 255
218 218 255
218 218 255
218 218 255
218 218 255
218 218 255
218 218 255
218 218 255
255 255 255
255 255 255
255 255 255
255 255 255
255 255 255
255 255 255
255 255 255
255 255 255
255 255 255
255 255 255
255 255 255
255 255 255
255 255 255
255 255 255
255 255 255
255 255 255
255 255 255
255 255 255
255 255 255
255 255 255
255 255 255
255 255 255
255 255 255
255 255 255
255 255 255
255 255 255
255 255 255
255 255 255
255 255 255
255 255 255
255 255 255
255 255 255
255 255 255
255 255 255
255 255 255
255 255 255
255 255 255
255 255 255
255 255 255
182 182 170
145 145 170
182 182 170
182 182 170
182 182 170
182 182 170
182 182 170
218 218 255
255 255 255
255 255 255
255 255 255
255 255 255
255 255 255
255 255 255
255 255 255
255 255 255
255 255 255
255 255 255
255 255 255
255 255 255
255 255 255
255 255 255
255 255 255
255 255 255
255 255 255
255 255 255
255 255 255
255 255 255
255 255 255
255 255 255
255 255 255
255 255 255
255 255 255
255 255 255
255 255 255
255 255 255
72 72 85
36 36 0
36 36 0
36 36 0
36 36 0
36 36 0
36 36 0
36 36 0
36 36 0
36 36 0
36 36 0
36 36 0
36 36 0
36 36 0
36 36 0
36 36 0
36 36 0
36 36 0
36 36 0
36 36 0
36 36 0
36 36 0
72 72 85
72 72 85
72 72 85
72 72 85
72 72 85
72 72 85
72 72 85
72 72 85
72 72 85
72 72 85
72 72 85
72 72 85
72 72 85
72 72 85
72 72 85
72 72 85
72 72 85
72 72 85
109 109 85
109 109 85
109 109 85
109 109 85
109 109 85
109 109 85
109 109 85
218 218 255
255 255 255
218 218 255
0 0 0
0 0 0
0 0 0
0 0 0
0 0 0
0 0 0
0 0 0
0 0 0
0 0 0
0 0 0
0 0 0
0 0 0
0 0 0
0 0 0
0 0 0
0 0 0
0 0 0
0 0 0
0 0 0
0 0 0
0 0 0
0 0 0
0 0 0
0 0 0
0 0 0
0 0 0
0 0 0
0 0 0
0 0 0
0 0 0
0 0 0
72 72 85
218 218 255
218 218 255
218 218 255
218 218 255
218 218 255
218 218 255
218 218 255
218 218 255
218 218 255
218 218 255
218 218 255
218 218 255
218 218 255
218 218 255
218 218 255
218 218 255
218 218 255
218 218 255
218 218 255
218 218 255
218 218 255
218 218 255
218 218 255
218 218 255
218 218 255
218 218 255
218 218 255
218 218 255
218 218 255
218 218 255
218 218 255
218 218 255
218 218 255
218 218 255
218 218 255
218 218 255
218 218 255
218 218 255
218 218 255
218 218 255
218 218 255
218 218 255
218 218 255
255 255 255
255 255 255
255 255 255
255 255 255
255 255 255
255 255 255
255 255 255
255 255 255
255 255 255
255 255 255
255 255 255
255 255 255
255 255 255
255 255 255
255 255 255
255 255 255
255 255 255
255 255 255
255 255 255
255 255 255
255 255 255
255 255 255
255 255 255
255 255 255
255 255 255
255 255 255
255 255 255
255 255 255
255 255 255
255 255 255
255 255 255
255 255 255
255 255 255
255 255 255
255 255 255
255 255 255
255 255 255
255 255 255
255 255 255
255 255 255
218 218 255
218 218 255
218 218 255
218 218 255
218 218 255
218 218 255
218 218 255
255 255 255
255 255 255
255 255 255
255 255 255
255 255 255
255 255 255
255 255 255
255 255 255
255 255 255
255 255 255
255 255 255
255 255 255
255 255 255
255 255 255
255 255 255
255 255 255
255 255 255
255 255 255
255 255 255
255 255 255
255 255 255
255 255 255
255 255 255
255 255 255
255 255 255
255 255 255
255 255 255
255 255 255
72 72 85
36 36 0
36 36 0
36 36 0
36 36 0
36 36 0
36 36 0
36 36 0
36 36 0
36 36 0
36 36 0
36 36 0
36 36 0
36 36 0
36 36 0
36 36 0
36 36 0
36 36 0
36 36 0
36 36 0
36 36 0
36 36 0
72 72 85
72 72 85
72 72 85
72 72 85
72 72 85
72 72 85
72 72 85
72 72 85
72 72 85
72 72 85
72 72 85
72 72 85
72 72 85
72 72 85
72 72 85
72 72 85
72 72 85
72 72 85
109 109 85
109 109 85
109 109 85
109 109 85
109 109 85
109 109 85
109 109 85
218 218 255
255 255 255
218 218 255
0 0 0
0 0 0
0 0 0
0 0 0
0 0 0
0 0 0
0 0 0
0 0 0
0 0 0
0 0 0
0 0 0
0 0 0
0 0 0
0 0 0
0 0 0
0 0 0
0 0 0
0 0 0
0 0 0
0 0 0
0 0 0
0 0 0
0 0 0
0 0 0
0 0 0
0 0 0
0 0 0
0 0 0
0 0 0
0 0 0
0 0 0
72 72 85
218 218 255
218 218 255
218 218 255
218 218 255
218 218 255
218 218 255
218 218 255
218 218 255
218 218 255
218 218 255
218 218 255
218 218 255
218 218 255
218 218 255
218 218 255
218 218 255
218 218 255
218 218 255
218 218 255
218 218 255
218 218 255
218 218 255
218 218 255
218 218 255
218 218 255
218 218 255
218 218 255
218 218 255
218 218 255
218 218 255
218 218 255
218 218 255
218 218 255
218 218 255
218 218 255
218 218 255
218 218 255
218 218 255
218 218 255
218 218 255
218 218 255
218 218 255
218 218 255
255 255 255
255 255 255
255 255 255
255 255 255
255 255 255
255 255 255
255 255 255
255 255 255
255 255 255
255 255 255
255 255 255
255 255 255
255 255 255
255 255 255
255 255 255
255 255 255
255 255 255
255 255 255
255 255 255
255 255 255
255 255 255
255 255 255
255 255 255
255 255 255
255 255 255
255 255 255
255 255 255
255 255 255
255 255 255
255 255 255
255 255 255
255 255 255
255 255 255
255 255 255
255 255 255
255 255 255
255 255 255
255 255 255
255 255 255
255 255 255
255 255 255
255 255 255
255 255 255
255 255 255
255 255 255
255 255 255
255 255 255
255 255 255
255 255 255
255 255 255
255 255 255
255 255 255
255 255 255
255 255 255
255 255 255
255 255 255
255 255 255
255 255 255
255 255 255
255 255 255
255 255 255
255 255 255
255 255 255
255 255 255
255 255 255
255 255 255
255 255 255
255 255 255
255 255 255
255 255 255
255 255 255
255 255 255
255 255 255
255 255 255
255 255 255
72 72 85
36 36 0
36 36 0
36 36 0
36 36 0
36 36 0
36 36 0
36 36 0
36 36 0
36 36 0
36 36 0
36 36 0
36 36 0
36 36 0
36 36 0
36 36 0
36 36 0
36 36 0
36 36 0
36 36 0
36 36 0
36 36 0
36 36 0
72 72 85
72 72 85
72 72 85
72 72 85
72 72 85
72 72 85
72 72 85
72 72 85
72 72 85
72 72 85
72 72 85
72 72 85
72 72 85
72 72 85
72 72 85
72 72 85
72 72 85
109 109 85
109 109 85
109 109 85
109 109 85
109 109 85
109 109 85
109 109 85
218 218 255
255 255 255
218 218 255
0 0 0
0 0 0
0 0 0
0 0 0
0 0 0
0 0 0
0 0 0
0 0 0
0 0 0
0 0 0
0 0 0
0 0 0
0 0 0
0 0 0
0 0 0
0 0 0
0 0 0
0 0 0
0 0 0
0 0 0
0 0 0
0 0 0
0 0 0
0 0 0
0 0 0
0 0 0
0 0 0
0 0 0
0 0 0
0 0 0
0 0 0
72 72 85
218 218 255
218 218 255
218 218 255
218 218 255
218 218 255
218 218 255
218 218 255
218 218 255
218 218 255
218 218 255
218 218 255
218 218 255
218 218 255
218 218 255
218 218 255
218 218 255
218 218 255
218 218 255
218 218 255
218 218 255
218 218 255
218 218 255
218 218 255
218 218 255
218 218 255
218 218 255
218 218 255
218 218 255
218 218 255
218 218 255
218 218 255
218 218 255
218 218 255
218 218 255
218 218 255
218 218 255
218 218 255
218 218 255
218 218 255
218 218 255
218 218 255
218 218 255
218 218 255
255 255 255
255 255 255
255 255 255
218 218 255
218 218 255
218 218 255
255 218 255
255 255 255
255 255 255
255 255 255
255 255 255
255 255 255
255 255 255
255 255 255
255 255 255
255 255 255
255 255 255
255 255 255
255 255 255
255 255 255
255 255 255
255 255 255
255 255 255
255 255 255
255 255 255
255 255 255
255 255 255
255 255 255
255 255 255
255 255 255
255 255 255
255 255 255
255 255 255
255 255 255
255 255 255
255 255 255
255 255 255
255 255 255
255 255 255
255 255 255
255 255 255
255 255 255
255 255 255
255 255 255
255 255 255
255 255 255
255 255 255
255 255 255
255 255 255
255 255 255
255 255 255
255 255 255
255 255 255
255 255 255
255 255 255
255 255 255
255 255 255
255 255 255
255 255 255
255 255 255
255 255 255
255 255 255
255 255 255
255 255 255
255 255 255
255 255 255
255 255 255
255 255 255
255 255 255
255 255 255
255 255 255
255 255 255
255 255 255
255 255 255
255 255 255
72 72 85
36 36 0
36 36 0
36 36 0
36 36 0
36 36 0
36 36 0
36 36 0
36 36 0
36 36 0
36 36 0
36 36 0
36 36 0
36 36 0
36 36 0
36 36 0
36 36 0
36 36 0
36 36 0
36 36 0
36 36 0
36 36 0
36 36 0
36 36 0
72 72 85
72 72 85
72 72 85
72 72 85
72 72 85
72 72 85
72 72 85
72 72 85
72 72 85
72 72 85
72 72 85
72 72 85
72 72 85
72 72 85
72 72 85
72 72 85
109 109 85
109 109 85
109 109 85
109 109 85
109 109 85
109 109 85
109 109 85
218 218 255
255 255 255
218 218 255
0 0 0
0 0 0
0 0 0
0 0 0
0 0 0
0 0 0
0 0 0
0 0 0
0 0 0
0 0 0
0 0 0
0 0 0
0 0 0
0 0 0
0 0 0
0 0 0
0 0 0
0 0 0
0 0 0
0 0 0
0 0 0
0 0 0
0 0 0
0 0 0
0 0 0
0 0 0
0 0 0
0 0 0
0 0 0
0 0 0
0 0 0
72 72 85
218 218 255
218 218 255
218 218 255
218 218 255
218 218 255
218 218 255
218 218 255
218 218 255
218 218 255
218 218 255
218 218 255
218 218 255
218 218 255
218 218 255
218 218 255
218 218 255
218 218 255
218 218 255
218 218 255
218 218 255
218 218 255
218 218 255
218 218 255
218 218 255
218 218 255
218 218 255
218 218 255
218 218 255
218 218 255
218 218 255
218 218 255
218 218 255
218 218 255
218 218 255
218 218 255
218 218 255
218 218 255
218 218 255
218 218 255
218 218 255
218 218 255
218 218 255
218 218 255
255 255 255
255 255 255
255 255 255
218 218 255
145 145 170
182 182 170
182 182 170
255 255 255
255 255 255
255 255 255
255 255 255
255 255 255
255 255 255
255 255 255
255 255 255
255 255 255
255 255 255
255 255 255
255 255 255
255 255 255
255 255 255
255 255 255
255 255 255
255 255 255
255 255 255
255 255 255
255 255 255
255 255 255
255 255 255
255 255 255
255 255 255
255 255 255
255 255 255
255 218 255
255 255 255
255 255 255
255 255 255
255 255 255
255 255 255
218 218 255
182 182 170
182 182 170
182 182 170
182 218 170
182 182 170
182 182 170
182 182 170
182 182 170
182 182 170
182 182 170
182 182 170
255 255 255
255 255 255
255 255 255
255 255 255
255 255 255
255 255 255
255 255 255
255 255 255
255 255 255
255 255 255
255 255 255
255 255 255
255 255 255
255 255 255
255 255 255
255 255 255
255 255 255
255 255 255
255 255 255
255 255 255
255 255 255
255 255 255
255 255 255
255 255 255
72 72 85
36 36 0
36 36 0
36 36 0
36 36 0
36 36 0
36 36 0
36 36 0
36 36 0
36 36 0
36 36 0
36 36 0
36 36 0
36 36 0
36 36 0
36 36 0
36 36 0
36 36 0
36 36 0
36 36 0
36 36 0
36 36 0
36 36 0
36 36 0
72 72 85
72 72 85
72 72 85
72 72 85
72 72 85
72 72 85
72 72 85
72 72 85
72 72 85
72 72 85
72 72 85
72 72 85
72 72 85
72 72 85
72 72 85
72 72 85
109 109 85
109 109 85
109 109 85
109 109 85
109 109 85
109 109 85
109 109 85
218 218 255
255 255 255
218 218 255
0 0 0
0 0 0
0 0 0
0 0 0
0 0 0
0 0 0
0 0 0
0 0 0
0 0 0
0 0 0
0 0 0
0 0 0
0 0 0
0 0 0
0 0 0
0 0 0
0 0 0
0 0 0
0 0 0
0 0 0
0 0 0
0 0 0
0 0 0
0 0 0
0 0 0
0 0 0
0 0 0
0 0 0
0 0 0
0 0 0
0 0 0
72 72 85
218 218 255
218 218 255
218 218 255
218 218 255
218 218 255
218 218 255
218 218 255
218 218 255
218 218 255
218 218 255
218 218 255
218 218 255
218 218 255
218 218 255
218 218 255
218 218 255
218 218 255
218 218 255
218 218 255
218 218 255
218 218 255
218 218 255
218 218 255
218 218 255
218 218 255
218 218 255
218 218 255
218 218 255
218 218 255
218 218 255
218 218 255
218 218 255
218 218 255
218 218 255
218 218 255
218 218 255
218 218 255
218 218 255
218 218 255
218 218 255
218 218 255
218 218 255
218 218 255
255 255 255
255 255 255
255 255 255
255 255 255
255 255 255
255 255 255
255 255 255
255 255 255
255 255 255
255 255 255
255 255 255
255 255 255
255 255 255
255 255 255
255 255 255
255 255 255
255 255 255
255 255 255
255 255 255
255 255 255
255 255 255
255 255 255
255 255 255
255 255 255
255 255 255
255 255 255
255 255 255
255 255 255
255 255 255
255 255 255
255 255 255
255 255 255
255 255 255
255 255 255
255 255 255
255 255 255
255 255 255
255 255 255
255 255 255
218 218 255
218 218 255
218 218 255
218 218 255
218 218 255
255 255 255
218 218 255
218 218 255
218 218 255
218 218 255
218 218 255
182 182 170
255 255 255
255 255 255
255 255 255
255 255 255
255 255 255
255 255 255
255 255 255
255 255 255
255 255 255
255 255 255
255 255 255
255 255 255
255 255 255
255 255 255
255 255 255
255 255 255
255 255 255
255 255 255
255 255 255
255 255 255
255 255 255
255 255 255
255 255 255
255 255 255
72 72 85
36 36 0
36 36 0
36 36 0
36 36 0
36 36 0
36 36 0
36 36 0
36 36 0
36 36 0
36 36 0
36 36 0
36 36 0
36 36 0
36 36 0
36 36 0
36 36 0
36 36 0
36 36 0
36 36 0
36 36 0
36 36 0
36 36 0
36 36 0
36 36 0
72 72 85
72 72 85
72 72 85
72 72 85
72 72 85
72 72 85
72 72 85
72 72 85
72 72 85
72 72 85
72 72 85
72 72 85
72 72 85
72 72 85
72 72 85
109 109 85
109 109 85
109 109 85
109 109 85
109 109 85
109 109 85
109 109 85
218 218 255
255 255 255
218 218 255
0 0 0
0 0 0
0 0 0
0 0 0
0 0 0
0 0 0
0 0 0
0 0 0
0 0 0
0 0 0
0 0 0
0 0 0
0 0 0
0 0 0
0 0 0
0 0 0
0 0 0
0 0 0
0 0 0
0 0 0
0 0 0
0 0 0
0 0 0
0 0 0
0 0 0
0 0 0
0 0 0
0 0 0
0 0 0
0 0 0
0 0 0
72 72 85
218 218 255
218 218 255
218 218 255
218 182 170
218 218 255
218 218 255
218 218 255
218 218 255
218 218 255
218 218 255
218 218 255
218 218 255
218 218 255
218 218 255
218 218 255
218 218 255
218 218 255
218 218 255
218 218 255
218 218 255
218 218 255
218 218 255
218 218 255
218 218 255
218 218 255
218 218 255
218 218 255
218 218 255
218 218 255
218 218 255
218 218 255
218 218 255
218 218 255
218 218 255
218 218 255
218 218 255
218 218 255
218 218 255
218 218 255
218 218 255
218 218 255
218 218 255
218 218 255
255 255 255
255 255 255
255 255 255
255 255 255
255 255 255
255 255 255
255 255 255
255 255 255
255 255 255
255 255 255
255 255 255
255 255 255
255 255 255
255 255 255
255 255 255
255 255 255
255 255 255
255 255 255
255 255 255
255 255 255
255 255 255
255 255 255
255 255 255
255 255 255
255 255 255
255 255 255
255 255 255
255 255 255
255 255 255
255 255 255
255 255 255
255 255 255
255 255 255
255 255 255
255 255 255
255 255 255
255 255 255
255 255 255
255 255 255
255 255 255
255 255 255
255 255 255
255 255 255
255 255 255
255 255 255
255 255 255
255 255 255
255 255 255
255 255 255
255 255 255
255 255 255
255 255 255
255 255 255
255 255 255
255 255 255
255 255 255
255 255 255
255 255 255
255 255 255
255 255 255
255 255 255
255 255 255
255 255 255
255 255 255
255 255 255
255 255 255
255 255 255
255 255 255
255 255 255
255 255 255
255 255 255
255 255 255
255 255 255
255 255 255
255 255 255
72 72 85
36 36 0
36 36 0
36 36 0
36 36 0
36 36 0
36 36 0
36 36 0
36 36 0
36 36 0
36 36 0
36 36 0
36 36 0
36 36 0
36 36 0
36 36 0
36 36 0
36 36 0
36 36 0
36 36 0
36 36 0
36 36 0
36 36 0
36 36 0
36 36 0
36 36 0
72 72 85
72 72 85
72 72 85
72 72 85
72 72 85
72 72 85
72 72 85
72 72 85
72 72 85
72 72 85
72 72 85
72 72 85
72 72 85
72 72 85
109 109 85
109 109 85
109 109 85
109 109 85
109 109 85
109 109 85
109 109 85
218 218 255
255 255 255
218 218 255
0 0 0
0 0 0
0 0 0
0 0 0
0 0 0
0 0 0
0 0 0
0 0 0
0 0 0
0 0 0
0 0 0
0 0 0
0 0 0
0 0 0
0 0 0
0 0 0
0 0 0
0 0 0
0 0 0
0 0 0
0 0 0
0 0 0
0 0 0
0 0 0
0 0 0
0 0 0
0 0 0
0 0 0
0 0 0
0 0 0
0 0 0
72 72 85
218 218 255
218 218 255
255 109 85
255 72 0
218 182 170
218 218 255
218 218 255
182 182 170
218 218 170
218 218 255
218 218 255
218 218 255
218 218 255
218 218 255
218 218 255
218 218 255
218 218 255
218 218 255
218 218 255
218 218 255
218 218 255
218 218 255
218 218 255
218 218 255
218 218 255
218 218 255
218 218 255
218 218 255
218 218 255
218 218 255
218 218 255
218 218 255
218 218 255
218 218 255
218 218 255
218 218 255
218 218 255
218 218 255
218 218 255
218 218 255
218 218 255
218 218 255
218 218 255
255 255 255
255 255 255
255 255 255
255 255 255
255 255 255
255 255 255
255 255 255
255 255 255
255 255 255
255 255 255
255 255 255
255 255 255
255 255 255
255 255 255
255 255 255
255 255 255
255 255 255
255 255 255
255 255 255
255 255 255
255 255 255
255 255 255
255 255 255
255 255 255
255 255 255
255 255 255
255 255 255
255 255 255
255 255 255
255 255 255
255 255 255
255 255 255
255 255 255
255 255 255
255 255 255
255 255 255
255 255 255
255 255 255
255 255 255
255 255 255
255 255 255
255 255 255
255 255 255
255 255 255
255 255 255
255 255 255
255 255 255
255 255 255
255 255 255
255 255 255
255 255 255
255 255 255
255 255 255
255 255 255
255 255 255
255 255 255
255 255 255
255 255 255
255 255 255
255 255 255
255 255 255
255 255 255
255 255 255
255 255 255
255 255 255
255 255 255
255 255 255
255 255 255
255 255 255
255 255 255
255 255 255
255 255 255
255 255 255
255 255 255
255 255 255
72 72 85
36 36 0
36 36 0
36 36 0
36 36 0
36 36 0
36 36 0
36 36 0
36 36 0
36 36 0
36 36 0
36 36 0
36 36 0
36 36 0
36 36 0
36 36 0
36 36 0
36 36 0
36 36 0
36 36 0
36 36 0
36 36 0
36 36 0
36 36 0
36 36 0
36 36 0
72 72 85
72 72 85
72 72 85
72 72 85
72 72 85
72 72 85
72 72 85
72 72 85
72 72 85
72 72 85
72 72 85
72 72 85
72 72 85
72 72 85
109 109 85
109 109 85
109 109 85
109 109 85
109 109 85
109 109 85
109 109 85
218 218 255
255 255 255
218 218 255
0 0 0
0 0 0
0 0 0
0 0 0
0 0 0
0 0 0
0 0 0
0 0 0
0 0 0
0 0 0
0 0 0
0 0 0
0 0 0
0 0 0
0 0 0
0 0 0
0 0 0
0 0 0
0 0 0
0 0 0
0 0 0
0 0 0
0 0 0
0 0 0
0 0 0
0 0 0
0 0 0
0 0 0
0 0 0
0 0 0
0 0 0
72 72 85
218 218 255
218 145 170
255 72 0
255 72 0
255 109 85
218 218 255
218 182 170
255 109 0
255 109 85
218 218 255
218 218 255
218 218 255
218 218 255
218 218 255
218 218 255
218 218 255
218 218 255
218 218 255
218 218 255
218 218 255
218 218 255
218 218 255
218 218 255
218 218 255
218 218 255
218 218 255
218 218 255
218 218 255
218 218 255
218 218 255
218 218 255
218 218 255
218 218 255
218 218 255
218 218 255
218 218 255
218 218 255
218 218 255
218 218 255
218 218 255
218 218 255
218 218 255
218 218 255
255 255 255
255 255 255
255 255 255
255 255 255
255 255 255
255 255 255
255 255 255
255 255 255
255 255 255
255 255 255
255 255 255
255 255 255
255 255 255
255 255 255
255 255 255
255 255 255
255 255 255
255 255 255
255 255 255
255 255 255
255 255 255
255 255 255
255 255 255
255 255 255
255 255 255
255 255 255
255 255 255
255 255 255
255 255 255
255 255 255
255 255 255
255 255 255
255 255 255
255 255 255
255 255 255
255 255 255
255 255 255
255 255 255
255 255 255
255 255 255
255 255 255
255 255 255
255 255 255
255 255 255
255 255 255
255 255 255
255 255 255
255 255 255
255 255 255
255 255 255
255 255 255
255 255 255
255 255 255
255 255 255
255 255 255
255 255 255
255 255 255
255 255 255
255 255 255
255 255 255
255 255 255
255 255 255
255 255 255
255 255 255
255 255 255
255 255 255
255 255 255
255 255 255
255 255 255
255 255 255
255 255 255
255 255 255
255 255 255
255 255 255
255 255 255
72 72 85
36 36 0
36 36 0
36 36 0
36 36 0
36 36 0
36 36 0
36 36 0
36 36 0
36 36 0
36 36 0
36 36 0
36 36 0
36 36 0
36 36 0
36 36 0
36 36 0
36 36 0
36 36 0
36 36 0
36 36 0
36 36 0
36 36 0
36 36 0
36 36 0
36 36 0
36 36 0
72 72 85
72 72 85
72 72 85
72 72 85
72 72 85
72 72 85
72 72 85
72 72 85
72 72 85
72 72 85
72 72 85
72 72 85
72 72 85
109 109 85
109 109 85
109 109 85
109 109 85
109 109 85
109 109 85
109 109 85
218 218 255
255 255 255
218 218 255
0 0 0
0 0 0
0 0 0
0 0 0
0 0 0
0 0 0
0 0 0
0 0 0
0 0 0
0 0 0
0 0 0
0 0 0
0 0 0
0 0 0
0 0 0
0 0 0
0 0 0
0 0 0
0 0 0
0 0 0
0 0 0
0 0 0
0 0 0
0 0 0
0 0 0
0 0 0
0 0 0
0 0 0
0 0 0
0 0 0
0 0 0
72 72 85
218 218 255
255 109 85
182 36 0
182 36 0
218 72 0
218 182 170
218 145 170
255 72 0
255 72 0
218 182 170
218 218 255
218 218 255
218 218 255
218 218 255
218 218 255
218 218 255
218 218 255
218 218 255
218 218 255
218 218 255
218 218 255
218 218 255
218 218 255
218 218 255
218 218 255
218 218 255
218 218 255
218 218 255
218 218 255
218 218 255
218 218 255
218 218 255
218 218 255
218 218 255
218 218 255
218 218 255
218 218 255
218 218 255
218 218 255
218 218 255
218 218 255
218 218 255
218 218 255
255 255 255
255 255 255
255 255 255
255 255 255
255 255 255
255 255 255
255 255 255
255 255 255
255 255 255
255 255 255
255 255 255
255 255 255
255 255 255
255 255 255
255 255 255
255 255 255
255 255 255
255 255 255
255 255 255
255 255 255
255 255 255
255 255 255
255 255 255
255 255 255
255 255 255
255 255 255
255 255 255
255 255 255
255 255 255
255 255 255
255 255 255
255 255 255
255 255 255
255 255 255
255 255 255
255 255 255
255 255 255
255 255 255
255 255 255
255 255 255
255 255 255
255 255 255
255 255 255
255 255 255
255 255 255
255 255 255
255 255 255
255 255 255
255 255 255
255 255 255
255 255 255
255 255 255
255 255 255
255 255 255
255 255 255
255 255 255
255 255 255
255 255 255
255 255 255
255 255 255
255 255 255
255 255 255
255 255 255
255 255 255
255 255 255
255 255 255
255 255 255
255 255 255
255 255 255
255 255 255
255 255 255
255 255 255
255 255 255
255 255 255
255 255 255
72 72 85
36 36 0
36 36 0
36 36 0
36 36 0
36 36 0
36 36 0
36 36 0
36 36 0
36 36 0
36 36 0
36 36 0
36 36 0
36 36 0
36 36 0
36 36 0
36 36 0
36 36 0
36 36 0
36 36 0
36 36 0
36 36 0
36 36 0
36 36 0
36 36 0
36 36 0
36 36 0
72 72 85
72 72 85
72 72 85
72 72 85
72 72 85
72 72 85
72 72 85
72 72 85
72 72 85
72 72 85
72 72 85
72 72 85
72 72 85
109 109 85
109 109 85
109 109 85
109 109 85
109 109 85
109 109 85
109 109 85
218 218 255
255 255 255
218 218 255
0 0 0
0 0 0
0 0 0
0 0 0
0 0 0
0 0 0
0 0 0
0 0 0
0 0 0
0 0 0
0 0 0
0 0 0
0 0 0
0 0 0
0 0 0
0 0 0
0 0 0
0 0 0
0 0 0
0 0 0
0 0 0
0 0 0
0 0 0
0 0 0
0 0 0
0 0 0
0 0 0
0 0 0
0 0 0
0 0 0
0 0 0
72 72 85
218 218 255
255 109 85
182 36 0
145 36 0
218 72 0
218 182 170
218 145 85
145 36 0
182 36 0
218 145 170
218 218 255
218 218 255
218 218 255
218 218 255
218 218 255
218 218 255
218 218 255
218 218 255
218 218 255
218 218 255
218 218 255
218 218 255
218 218 255
218 218 255
218 218 255
218 218 255
218 218 255
218 218 255
218 218 255
218 218 255
218 218 255
218 218 255
218 218 255
218 218 255
218 218 255
218 218 255
218 218 255
218 218 255
218 218 255
218 218 255
218 218 255
218 218 255
218 218 255
255 255 255
255 255 255
255 255 255
255 255 255
255 255 255
255 255 255
255 255 255
255 255 255
255 255 255
255 255 255
255 255 255
255 255 255
255 255 255
255 255 255
255 255 255
255 255 255
255 255 255
255 255 255
255 255 255
255 255 255
255 255 255
255 255 255
255 255 255
255 255 255
255 255 255
255 255 255
255 255 255
255 255 255
255 255 255
255 255 255
255 255 255
255 255 255
255 255 255
255 255 255
255 255 255
255 255 255
255 255 255
255 255 255
255 255 255
255 255 255
255 255 255
255 255 255
255 255 255
255 255 255
255 255 255
255 255 255
255 255 255
255 255 255
255 255 255
255 255 255
255 255 255
255 255 255
255 255 255
255 255 255
255 255 255
255 255 255
255 255 255
255 255 255
255 255 255
255 255 255
255 255 255
255 255 255
255 255 255
255 255 255
255 255 255
255 255 255
255 255 255
255 255 255
255 255 255
255 255 255
255 255 255
255 255 255
255 255 255
255 255 255
255 255 255
72 72 85
36 36 0
36 36 0
36 36 0
36 36 0
36 36 0
36 36 0
36 36 0
36 36 0
36 36 0
36 36 0
36 36 0
36 36 0
36 36 0
36 36 0
36 36 0
36 36 0
36 36 0
36 36 0
36 36 0
36 36 0
36 36 0
36 36 0
36 36 0
36 36 0
36 36 0
36 36 0
36 36 0
72 72 85
72 72 85
72 72 85
72 72 85
72 72 85
72 72 85
72 72 85
72 72 85
72 72 85
72 72 85
72 72 85
72 72 85
109 109 85
109 109 85
109 109 85
109 109 85
109 109 85
109 109 85
109 109 85
218 218 255
255 255 255
218 218 255
0 0 0
0 0 0
0 0 0
0 0 0
0 0 0
0 0 0
0 0 0
0 0 0
0 0 0
0 0 0
0 0 0
0 0 0
0 0 0
0 0 0
0 0 0
0 0 0
0 0 0
0 0 0
0 0 0
0 0 0
0 0 0
0 0 0
0 0 0
0 0 0
0 0 0
0 0 0
0 0 0
0 0 0
0 0 0
0 0 0
0 0 0
72 72 85
218 218 255
255 145 85
182 36 0
182 36 0
218 72 0
218 182 170
218 145 170
255 72 0
255 72 0
218 182 170
218 218 255
218 218 255
218 218 255
218 218 255
218 218 255
218 218 255
218 218 255
218 218 255
218 218 255
218 218 255
218 218 255
218 218 255
218 218 255
218 218 255
218 218 255
218 218 255
218 218 255
218 218 255
218 218 255
218 218 255
218 218 255
218 218 255
218 218 255
218 218 255
218 218 255
218 218 255
218 218 255
218 218 255
218 218 255
218 218 255
218 218 255
218 218 255
218 218 255
255 255 255
255 255 255
255 255 255
255 255 255
255 255 255
255 255 255
255 255 255
255 255 255
255 255 255
255 255 255
255 255 255
255 255 255
255 255 255
255 255 255
255 255 255
255 255 255
255 255 255
255 255 255
255 255 255
255 255 255
255 255 255
255 255 255
255 255 255
255 255 255
255 255 255
255 255 255
255 255 255
255 255 255
255 255 255
255 255 255
255 255 255
255 255 255
255 255 255
255 255 255
255 255 255
255 255 255
255 255 255
255 255 255
255 255 255
255 255 255
255 255 255
255 255 255
255 255 255
255 255 255
255 255 255
255 255 255
255 255 255
255 255 255
255 255 255
255 255 255
255 255 255
255 255 255
255 255 255
255 255 255
255 255 255
255 255 255
255 255 255
255 255 255
255 255 255
255 255 255
255 255 255
255 255 255
255 255 255
255 255 255
255 255 255
255 255 255
255 255 255
255 255 255
255 255 255
255 255 255
255 255 255
255 255 255
255 255 255
255 255 255
255 255 255
72 72 85
36 36 0
36 36 0
36 36 0
36 36 0
36 36 0
36 36 0
36 36 0
36 36 0
36 36 0
36 36 0
36 36 0
36 36 0
36 36 0
36 36 0
36 36 0
36 36 0
36 36 0
36 36 0
36 36 0
36 36 0
36 36 0
36 36 0
36 36 0
36 36 0
36 36 0
36 36 0
36 36 0
36 36 0
72 72 85
72 72 85
72 72 85
72 72 85
72 72 85
72 72 85
72 72 85
72 72 85
72 72 85
72 72 85
72 72 85
109 109 85
109 109 85
109 109 85
109 109 85
109 109 85
109 109 85
109 109 85
218 218 255
255 255 255
218 218 255
0 0 0
0 0 0
0 0 0
0 0 0
0 0 0
0 0 0
0 0 0
0 0 0
0 0 0
0 0 0
0 0 0
0 0 0
0 0 0
0 0 0
0 0 0
0 0 0
0 0 0
0 0 0
0 0 0
0 0 0
0 0 0
0 0 0
0 0 0
0 0 0
0 0 0
0 0 0
0 0 0
0 0 0
0 0 0
0 0 0
0 0 0
72 72 85
218 218 255
218 182 170
255 72 0
255 72 0
255 145 85
182 218 255
182 182 170
218 145 85
218 145 85
218 218 255
218 218 255
218 218 255
218 218 255
218 218 255
218 218 255
218 218 255
218 218 255
218 218 255
218 218 255
218 218 255
218 218 255
218 218 255
218 218 255
218 218 255
218 218 255
218 218 255
218 218 255
218 218 255
218 218 255
218 218 255
218 218 255
218 218 255
218 218 255
218 218 255
218 218 255
218 218 255
218 218 255
218 218 255
218 218 255
218 218 255
218 218 255
218 218 255
218 218 255
218 218 255
255 255 255
255 218 255
255 218 255
218 218 255
218 218 255
218 218 255
218 218 255
218 218 255
218 218 255
218 218 255
218 218 255
218 218 255
218 218 255
218 218 255
218 218 255
218 218 255
218 218 255
218 218 255
218 218 255
218 218 255
218 218 255
218 218 255
218 218 255
218 218 255
218 218 255
218 218 255
218 218 255
218 218 255
218 218 255
218 218 255
218 218 255
218 218 255
218 218 255
218 218 255
218 218 255
218 218 255
218 218 255
218 218 255
218 218 255
218 218 255
218 218 255
218 218 255
218 218 255
218 218 255
218 218 255
218 218 255
218 218 255
218 218 255
218 218 255
218 218 255
218 218 255
218 218 255
218 218 255
218 218 255
218 218 255
218 218 255
218 218 255
218 218 255
218 218 255
218 218 255
218 218 255
218 218 255
218 218 255
218 218 255
218 218 255
218 218 255
218 218 255
218 218 255
218 218 255
218 218 255
218 218 255
255 255 255
255 255 255
255 255 255
72 72 85
36 36 0
36 36 0
36 36 0
36 36 0
36 36 0
36 36 0
36 36 0
36 36 0
36 36 0
36 36 0
36 36 0
36 36 0
36 36 0
36 36 0
36 36 0
36 36 0
36 36 0
36 36 0
36 36 0
36 36 0
36 36 0
36 36 0
36 36 0
36 36 0
36 36 0
36 36 0
36 36 0
36 36 0
72 72 85
72 72 85
72 72 85
72 72 85
72 72 85
72 72 85
72 72 85
72 72 85
72 72 85
72 72 85
109 109 85
109 109 85
109 109 85
109 109 85
109 109 85
109 109 85
109 109 85
109 109 85
218 218 255
255 255 255
218 218 255
0 0 0
0 0 0
0 0 0
0 0 0
0 0 0
0 0 0
0 0 0
0 0 0
0 0 0
0 0 0
0 0 0
0 0 0
0 0 0
0 0 0
0 0 0
0 0 0
0 0 0
0 0 0
0 0 0
0 0 0
0 0 0
0 0 0
0 0 0
0 0 0
0 0 0
0 0 0
0 0 0
0 0 0
0 0 0
0 0 0
0 0 0
72 72 85
218 218 255
182 182 170
218 145 85
218 109 85
182 182 170
182 182 170
182 182 170
182 182 170
182 182 170
182 182 170
182 218 170
182 218 170
182 218 170
182 182 170
182 182 170
182 218 170
182 218 170
182 218 170
182 218 170
182 218 170
182 218 170
182 182 170
182 182 170
182 218 170
182 218 170
182 218 170
182 218 170
182 218 170
182 218 170
182 182 170
182 182 170
182 218 170
182 218 170
182 218 170
182 218 170
182 218 170
182 218 170
182 182 170
182 182 170
182 218 170
182 218 170
218 218 255
182 182 170
182 182 170
182 182 170
182 182 170
182 182 170
182 182 170
182 182 170
182 182 170
182 182 170
182 182 170
182 182 170
182 182 170
182 182 170
182 182 170
182 182 170
182 182 170
182 182 170
182 182 170
182 182 170
182 182 170
182 182 170
182 182 170
182 182 170
182 182 170
182 182 170
182 182 170
182 182 170
182 182 170
182 182 170
182 182 170
182 182 170
182 182 170
182 182 170
182 182 170
182 182 170
182 182 170
182 182 170
182 182 170
182 182 170
182 182 170
182 182 170
182 182 170
182 182 170
182 182 170
182 182 170
182 182 170
182 182 170
182 182 170
182 182 170
182 182 170
182 182 170
182 182 170
182 182 170
182 182 170
182 182 170
182 182 170
182 182 170
182 182 170
182 182 170
182 182 170
182 182 170
182 182 170
182 182 170
182 182 170
182 182 170
182 182 170
182 182 170
182 182 170
182 182 170
182 182 170
182 182 170
218 182 170
218 218 255
255 255 255
255 255 255
255 255 255
109 109 85
36 36 0
36 36 0
36 36 0
36 36 0
36 36 0
36 36 0
36 36 0
36 36 0
36 36 0
36 36 0
36 36 0
36 36 0
36 36 0
36 36 0
36 36 0
36 36 0
36 36 0
36 36 0
36 36 0
36 36 0
36 36 0
36 36 0
36 36 0
36 36 0
36 36 0
36 36 0
36 36 0
36 36 0
36 36 0
72 72 85
72 72 85
72 72 85
72 72 85
72 72 85
72 72 85
72 72 85
72 72 85
72 72 85
109 109 85
109 109 85
109 109 85
109 109 85
109 109 85
109 109 85
109 109 85
109 109 85
218 218 255
255 255 255
218 218 255
0 0 0
0 0 0
0 0 0
0 0 0
0 0 0
0 0 0
0 0 0
0 0 0
0 0 0
0 0 0
0 0 0
0 0 0
0 0 0
0 0 0
0 0 0
0 0 0
0 0 0
0 0 0
0 0 0
0 0 0
0 0 0
0 0 0
0 0 0
0 0 0
0 0 0
0 0 0
0 0 0
0 0 0
0 0 0
0 0 0
0 0 0
72 72 85
218 218 255
182 182 170
182 182 170
182 182 170
182 182 170
182 182 170
218 218 255
182 182 170
182 182 170
218 218 255
218 218 255
218 218 255
218 218 255
182 182 170
218 218 255
218 218 255
218 218 255
218 218 255
218 218 255
218 218 255
218 218 255
182 182 170
218 218 255
218 218 255
218 218 255
218 218 255
218 218 255
218 218 255
218 218 255
182 182 170
182 218 170
218 218 255
218 218 255
218 218 255
218 218 255
218 218 255
218 218 255
182 182 170
182 182 170
218 218 255
218 218 255
218 218 255
182 182 170
145 145 170
109 109 85
182 145 170
145 145 170
145 145 170
145 145 170
182 182 170
182 182 170
182 182 170
182 182 170
182 182 170
182 182 170
182 182 170
182 182 170
182 182 170
182 182 170
182 182 170
182 182 170
182 182 170
182 182 170
182 182 170
182 182 170
182 182 170
182 182 170
182 182 170
182 182 170
182 182 170
182 182 170
182 182 170
182 182 170
182 182 170
182 182 170
182 182 170
182 182 170
182 182 170
182 182 170
182 182 170
182 182 170
182 182 170
182 182 170
182 182 170
182 182 170
182 182 170
182 182 170
182 182 170
182 182 170
182 182 170
182 182 170
182 182 170
182 182 170
182 182 170
182 182 170
182 182 170
182 182 170
182 182 170
182 182 170
182 182 170
182 182 170
182 182 170
182 182 170
182 182 170
182 182 170
182 182 170
182 182 170
182 182 170
182 182 170
182 182 170
182 182 170
182 182 170
182 182 255
218 145 170
218 182 170
255 255 255
255 255 255
255 255 255
72 72 85
36 36 0
36 36 0
36 36 0
36 36 0
36 36 0
36 36 0
36 36 0
36 36 0
36 36 0
36 36 0
36 36 0
36 36 0
36 36 0
36 36 0
36 36 0
36 36 0
36 36 0
36 36 0
36 36 0
36 36 0
36 36 0
36 36 0
36 36 0
36 36 0
36 36 0
36 36 0
36 36 0
36 36 0
36 36 0
72 36 85
72 72 85
72 72 85
72 72 85
72 72 85
72 72 85
72 72 85
72 72 85
72 72 85
109 109 85
109 109 85
109 109 85
109 109 85
109 109 85
109 109 85
109 109 85
109 109 85
218 218 255
255 255 255
218 218 255
0 0 0
0 0 0
0 0 0
0 0 0
0 0 0
0 0 0
0 0 0
0 0 0
0 0 0
0 0 0
0 0 0
0 0 0
0 0 0
0 0 0
0 0 0
0 0 0
0 0 0
0 0 0
0 0 0
0 0 0
0 0 0
0 0 0
0 0 0
0 0 0
0 0 0
0 0 0
0 0 0
0 0 0
0 0 0
0 0 0
0 0 0
72 72 85
218 218 255
218 218 255
218 218 255
218 218 255
218 218 255
218 218 255
218 218 255
218 218 255
218 218 255
218 218 255
218 218 255
218 218 255
218 218 255
218 218 255
218 218 255
218 218 255
218 218 255
218 218 255
218 218 255
218 218 255
218 218 255
218 218 255
218 218 255
218 218 255
218 218 255
218 218 255
218 218 255
218 218 255
218 218 255
218 218 255
218 218 255
218 218 255
218 218 255
218 218 255
218 218 255
218 218 255
218 218 255
218 218 255
218 218 255
218 218 255
218 218 255
218 218 255
182 182 170
145 145 170
109 109 85
182 182 170
145 145 170
145 145 170
145 145 170
182 182 170
182 182 170
182 182 170
182 182 170
182 182 170
182 182 170
182 182 170
182 182 170
182 182 170
182 182 170
182 182 170
182 182 170
182 182 170
182 182 170
182 182 170
182 182 170
182 182 170
182 182 170
182 182 170
182 182 170
182 182 170
182 182 170
182 182 170
182 182 170
182 182 170
182 182 170
182 182 170
182 182 170
182 182 170
182 182 170
182 182 170
182 182 170
182 182 170
182 182 170
182 182 170
182 182 170
182 182 170
182 182 170
182 182 170
182 182 170
182 182 170
182 182 170
182 182 170
182 182 170
182 182 170
182 182 170
182 182 170
182 182 170
182 182 170
182 182 170
182 182 170
182 182 170
182 182 170
182 182 170
182 182 170
182 182 170
182 182 170
182 182 170
182 182 170
182 182 170
182 182 170
182 182 170
182 182 170
182 182 170
218 182 170
218 182 170
255 255 255
255 255 255
255 255 255
72 72 85
36 36 0
36 36 0
36 36 0
36 36 0
36 36 0
36 36 0
36 36 0
36 36 0
36 36 0
36 36 0
36 36 0
36 36 0
36 36 0
36 36 0
36 36 0
36 36 0
36 36 0
36 36 0
36 36 0
36 36 0
36 36 0
36 36 0
36 36 0
36 36 0
36 36 0
36 36 0
36 36 0
36 36 0
36 36 0
36 36 0
72 72 85
72 72 85
72 72 85
72 72 85
72 72 85
72 72 85
72 72 85
72 72 85
109 109 85
109 109 85
109 109 85
109 109 85
109 109 85
109 109 85
109 109 85
109 109 85
218 218 255
255 255 255
218 218 255
0 0 0
0 0 0
0 0 0
0 0 0
0 0 0
0 0 0
0 0 0
0 0 0
0 0 0
0 0 0
0 0 0
0 0 0
0 0 0
0 0 0
0 0 0
0 0 0
0 0 0
0 0 0
0 0 0
0 0 0
0 0 0
0 0 0
0 0 0
0 0 0
0 0 0
0 0 0
0 0 0
0 0 0
0 0 0
0 0 0
0 0 0
72 72 85
218 218 255
218 218 255
218 218 255
218 218 255
218 218 255
218 218 255
218 218 255
218 218 255
218 218 255
218 218 255
218 218 255
218 218 255
218 218 255
218 218 255
218 218 255
218 218 255
218 218 255
218 218 255
218 218 255
218 218 255
218 218 255
218 218 255
218 218 255
218 218 255
218 218 255
218 218 255
218 218 255
218 218 255
218 218 255
218 218 255
218 218 255
218 218 255
218 218 255
218 218 255
218 218 255
218 218 255
218 218 255
218 218 255
218 218 255
218 218 255
218 218 255
218 218 255
182 182 170
218 218 255
218 218 255
218 218 255
218 218 255
218 218 255
218 218 255
218 218 255
218 218 255
218 218 255
218 218 255
218 218 255
218 218 255
218 218 255
218 218 255
218 218 255
218 218 255
218 218 255
218 218 255
218 218 255
218 218 255
218 218 255
218 218 255
218 218 255
218 218 255
218 218 255
218 218 255
218 218 255
218 218 255
218 218 255
218 218 255
218 218 255
218 218 255
218 218 255
218 218 255
218 218 255
218 218 255
218 218 255
218 218 255
218 218 255
218 218 255
218 218 255
218 218 255
218 218 255
218 218 255
218 218 255
218 218 255
218 218 255
218 218 255
218 218 255
218 218 255
218 218 255
218 218 255
218 218 255
218 218 255
218 218 255
218 218 255
218 218 255
218 218 255
218 218 255
218 218 255
218 218 255
218 218 255
218 218 255
218 218 255
218 218 255
218 218 255
218 218 255
218 218 255
218 218 255
218 218 255
218 218 255
218 218 255
255 255 255
255 255 255
255 255 255
72 72 85
36 36 0
36 36 0
36 36 0
36 36 0
36 36 0
36 36 0
36 36 0
36 36 0
36 36 0
36 36 0
36 36 0
36 36 0
36 36 0
36 36 0
36 36 0
36 36 0
36 36 0
36 36 0
36 36 0
36 36 0
36 36 0
36 36 0
36 36 0
36 36 0
36 36 0
36 36 0
36 36 0
36 36 0
36 36 0
36 36 0
36 36 0
72 72 85
72 72 85
72 72 85
72 72 85
72 72 85
72 72 85
72 72 85
109 109 85
109 109 85
109 109 85
109 109 85
109 109 85
109 109 85
109 109 85
109 109 85
218 218 255
255 255 255
218 218 255
0 0 0
0 0 0
0 0 0
0 0 0
0 0 0
0 0 0
0 0 0
0 0 0
0 0 0
0 0 0
0 0 0
0 0 0
0 0 0
0 0 0
0 0 0
0 0 0
0 0 0
0 0 0
0 0 0
0 0 0
0 0 0
0 0 0
0 0 0
0 0 0
0 0 0
0 0 0
0 0 0
0 0 0
0 0 0
0 0 0
0 0 0
72 72 85
218 218 255
218 218 255
218 218 255
218 218 255
218 218 255
218 218 255
218 218 255
218 218 255
218 218 255
218 218 255
218 218 255
218 218 255
218 218 255
218 218 255
218 218 255
218 218 255
218 218 255
218 218 255
218 218 255
218 218 255
218 218 255
218 218 255
218 218 255
218 218 255
218 218 255
218 218 255
218 218 255
218 218 255
218 218 255
218 218 255
218 218 255
218 218 255
218 218 255
218 218 255
218 218 255
218 218 255
218 218 255
218 218 255
218 218 255
218 218 255
218 218 255
218 218 255
218 218 255
255 255 255
255 255 255
255 255 255
255 255 255
255 255 255
255 255 255
255 255 255
255 255 255
255 255 255
255 255 255
255 255 255
255 255 255
255 255 255
255 255 255
255 255 255
255 255 255
255 255 255
255 255 255
255 255 255
255 255 255
255 255 255
255 255 255
255 255 255
255 255 255
255 255 255
255 255 255
255 255 255
255 255 255
255 255 255
255 255 255
255 255 255
255 255 255
255 255 255
255 255 255
255 255 255
255 255 255
255 255 255
255 255 255
255 255 255
255 255 255
255 255 255
255 255 255
255 255 255
255 255 255
255 255 255
255 255 255
255 255 255
255 255 255
255 255 255
255 255 255
255 255 255
255 255 255
255 255 255
255 255 255
255 255 255
255 255 255
255 255 255
255 255 255
255 255 255
255 255 255
255 255 255
255 255 255
255 255 255
255 255 255
255 255 255
255 255 255
255 255 255
255 255 255
255 255 255
255 255 255
255 255 255
255 255 255
255 255 255
255 255 255
255 255 255
72 72 85
36 36 0
36 36 0
36 36 0
36 36 0
36 36 0
36 36 0
36 36 0
36 36 0
36 36 0
36 36 0
36 36 0
36 36 0
36 36 0
36 36 0
36 36 0
36 36 0
36 36 0
36 36 0
36 36 0
36 36 0
36 36 0
36 36 0
36 36 0
36 36 0
36 36 0
36 36 0
36 36 0
36 36 0
36 36 0
36 36 0
36 36 0
72 72 85
72 72 85
72 72 85
72 72 85
72 72 85
72 72 85
72 72 85
109 109 85
109 109 85
109 109 85
109 109 85
109 109 85
109 109 85
109 109 85
109 109 85
218 218 255
255 255 255
218 218 255
0 0 0
0 0 0
0 0 0
0 0 0
0 0 0
0 0 0
0 0 0
0 0 0
0 0 0
0 0 0
0 0 0
0 0 0
0 0 0
0 0 0
0 0 0
0 0 0
0 0 0
0 0 0
0 0 0
0 0 0
0 0 0
0 0 0
0 0 0
0 0 0
0 0 0
0 0 0
0 0 0
0 0 0
0 0 0
0 0 0
0 0 0
72 72 85
218 218 255
218 218 255
218 218 255
218 218 255
182 182 170
218 218 255
218 218 255
218 218 255
218 218 255
218 218 255
218 218 255
218 218 255
218 218 255
218 218 255
218 218 255
218 218 255
218 218 255
218 218 255
218 218 255
218 218 255
218 218 255
182 182 170
218 218 255
218 218 255
218 218 255
218 218 255
218 218 255
218 218 255
218 218 255
182 218 170
218 218 255
218 218 255
218 218 255
218 218 255
218 218 255
218 218 255
218 218 255
218 218 255
182 182 170
218 218 255
218 218 255
218 218 255
182 182 170
255 255 255
255 255 255
255 255 255
255 255 255
255 255 255
255 255 255
255 255 255
255 255 255
255 255 255
255 255 255
255 255 255
255 255 255
255 255 255
255 255 255
255 255 255
255 255 255
255 255 255
255 255 255
255 255 255
255 255 255
255 255 255
255 255 255
255 255 255
255 255 255
255 255 255
255 255 255
255 255 255
255 255 255
255 255 255
255 255 255
255 255 255
255 255 255
255 255 255
255 255 255
255 255 255
255 255 255
255 255 255
255 255 255
255 255 255
255 255 255
255 255 255
255 255 255
255 255 255
255 255 255
255 255 255
255 255 255
255 255 255
255 255 255
255 255 255
255 255 255
255 255 255
255 255 255
255 255 255
255 255 255
255 255 255
255 255 255
255 255 255
255 255 255
255 255 255
255 255 255
255 255 255
255 255 255
255 255 255
255 255 255
255 255 255
255 255 255
255 255 255
255 255 255
255 255 255
255 255 255
255 255 255
255 255 255
255 255 255
255 255 255
255 255 255
72 72 85
36 36 0
36 36 0
36 36 0
36 36 0
36 36 0
36 36 0
36 36 0
36 36 0
36 36 0
36 36 0
36 36 0
36 36 0
36 36 0
36 36 0
36 36 0
36 36 0
36 36 0
36 36 0
36 36 0
36 36 0
36 36 0
36 36 0
36 36 0
36 36 0
36 36 0
36 36 0
36 36 0
36 36 0
36 36 0
36 36 0
36 36 0
36 36 0
72 72 85
72 72 85
72 72 85
72 72 85
72 72 85
72 72 85
109 109 85
109 109 85
109 109 85
109 109 85
109 109 85
109 109 85
109 109 85
109 109 85
218 218 255
255 255 255
218 218 255
0 0 0
0 0 0
0 0 0
0 0 0
0 0 0
0 0 0
0 0 0
0 0 0
0 0 0
0 0 0
0 0 0
0 0 0
0 0 0
0 0 0
0 0 0
0 0 0
0 0 0
0 0 0
0 0 0
0 0 0
0 0 0
0 0 0
0 0 0
0 0 0
0 0 0
0 0 0
0 0 0
0 0 0
0 0 0
0 0 0
0 0 0
72 72 85
182 182 170
182 182 170
182 182 170
182 182 170
182 182 170
182 182 170
182 182 170
182 182 170
182 182 170
182 182 170
182 182 170
182 182 170
182 182 170
182 182 170
182 182 170
182 182 170
182 182 170
182 182 170
182 182 170
182 182 170
182 182 170
182 182 170
182 182 170
182 182 170
182 182 170
182 182 170
182 182 170
182 182 170
182 182 170
182 182 170
182 182 170
182 182 170
182 182 170
182 182 170
182 182 170
182 182 170
182 182 170
182 182 170
182 182 170
182 182 170
182 182 170
182 182 170
182 182 170
182 182 170
218 218 255
218 218 255
255 255 255
218 218 255
182 182 170
182 182 170
218 218 255
218 218 255
218 218 255
218 218 255
218 218 255
182 182 170
182 182 170
218 218 255
218 218 255
255 255 255
218 218 255
218 218 255
218 218 255
218 218 255
255 255 255
255 255 255
255 255 255
255 255 255
255 255 255
255 255 255
255 255 255
255 255 255
255 255 255
255 255 255
255 255 255
218 218 255
255 255 255
255 255 255
255 255 255
255 255 255
255 255 255
255 255 255
255 255 255
255 255 255
255 255 255
255 255 255
255 255 255
255 255 255
255 255 255
255 255 255
255 255 255
255 255 255
255 255 255
255 255 255
255 255 255
255 255 255
255 255 255
255 255 255
255 255 255
255 255 255
255 255 255
255 255 255
255 255 255
255 255 255
255 255 255
255 255 255
255 255 255
255 255 255
255 255 255
218 218 255
218 218 255
218 218 255
255 255 255
255 255 255
255 255 255
255 255 255
255 255 255
255 255 255
72 72 85
36 36 0
36 36 0
36 36 0
36 36 0
36 36 0
36 36 0
36 36 0
36 36 0
36 36 0
36 36 0
36 36 0
36 36 0
36 36 0
36 36 0
36 36 0
36 36 0
36 36 0
36 36 0
36 36 0
36 36 0
36 36 0
36 36 0
36 36 0
36 36 0
36 36 0
36 36 0
36 36 0
36 36 0
36 36 0
36 36 0
36 36 0
36 36 0
36 36 0
72 72 85
72 72 85
72 72 85
72 72 85
72 72 85
109 109 85
109 109 85
109 109 85
109 109 85
109 109 85
109 109 85
109 109 85
109 109 85
182 182 170
255 255 255
218 218 255
0 0 0
0 0 0
0 0 0
0 0 0
0 0 0
0 0 0
0 0 0
0 0 0
0 0 0
0 0 0
0 0 0
0 0 0
0 0 0
0 0 0
0 0 0
0 0 0
0 0 0
0 0 0
0 0 0
0 0 0
0 0 0
0 0 0
0 0 0
0 0 0
0 0 0
0 0 0
0 0 0
0 0 0
0 0 0
0 0 0
0 0 0
0 0 0
36 36 0
0 0 0
0 36 0
36 36 0
36 36 0
36 36 0
36 36 0
36 36 0
36 36 0
36 36 0
36 36 0
36 36 0
36 36 0
36 36 0
36 36 0
36 36 0
36 36 0
36 36 0
36 36 0
36 36 0
36 36 0
36 36 0
36 36 0
36 36 0
36 36 0
36 36 0
36 36 0
36 36 0
36 36 0
36 36 0
36 36 0
36 36 0
36 36 0
36 36 0
36 36 0
36 36 0
36 36 0
36 36 0
36 36 0
36 36 0
36 36 0
36 36 0
36 36 0
182 182 170
145 145 170
182 182 170
255 255 255
218 218 255
182 182 170
182 182 170
218 218 255
218 218 255
182 182 170
182 182 170
218 218 255
182 182 170
182 182 170
182 182 170
218 182 255
218 218 255
182 182 170
182 182 170
182 182 170
182 182 170
218 218 255
255 255 255
255 255 255
255 255 255
255 255 255
255 255 255
255 255 255
255 255 255
255 255 255
255 255 255
255 255 255
255 255 255
255 255 255
255 255 255
255 255 255
255 255 255
255 255 255
255 255 255
255 255 255
255 255 255
255 255 255
255 255 255
255 255 255
255 255 255
255 255 255
255 255 255
255 255 255
255 255 255
255 255 255
255 255 255
255 255 255
255 255 255
255 255 255
255 255 255
255 255 255
255 255 255
255 255 255
255 255 255
255 255 255
255 255 255
255 255 255
255 255 255
255 255 255
255 255 255
255 255 255
182 182 170
182 182 170
182 182 170
255 255 255
255 255 255
255 255 255
255 255 255
255 255 255
255 255 255
72 72 85
36 36 0
36 36 0
36 36 0
36 36 0
36 36 0
36 36 0
36 36 0
36 36 0
36 36 0
36 36 0
36 36 0
36 36 0
36 36 0
36 36 0
36 36 0
36 36 0
36 36 0
36 36 0
36 36 0
36 36 0
36 36 0
36 36 0
36 36 0
36 36 0
36 36 0
36 36 0
36 36 0
36 36 0
36 36 0
36 36 0
36 36 0
36 36 0
36 36 0
72 72 85
72 72 85
72 72 85
72 72 85
72 72 85
109 109 85
109 109 85
109 109 85
109 109 85
109 109 85
109 109 85
109 109 85
36 36 0
182 182 170
255 255 255
218 218 255
0 0 0
0 0 0
0 0 0
0 0 0
0 0 0
0 0 0
0 0 0
0 0 0
0 0 0
0 0 0
0 0 0
0 0 0
0 0 0
0 0 0
0 0 0
0 0 0
0 0 0
0 0 0
0 0 0
0 0 0
0 0 0
0 0 0
0 0 0
0 0 0
0 0 0
0 0 0
0 0 0
0 0 0
0 0 0
0 0 0
0 0 0
0 0 0
0 0 0
0 0 0
0 0 0
0 0 0
0 0 0
0 0 0
0 0 0
0 0 0
0 0 0
0 0 0
0 0 0
0 0 0
0 0 0
0 0 0
0 0 0
0 0 0
0 0 0
0 0 0
0 0 0
0 0 0
0 0 0
0 0 0
0 0 0
0 0 0
0 0 0
0 0 0
0 0 0
0 0 0
0 0 0
0 0 0
0 0 0
0 0 0
0 0 0
0 0 0
0 0 0
0 0 0
0 0 0
0 0 0
0 0 0
0 0 0
0 0 0
0 0 0
36 36 0
218 218 255
218 218 255
255 255 255
255 255 255
255 255 255
255 255 255
255 255 255
255 255 255
255 255 255
255 255 255
218 218 255
218 218 255
255 255 255
255 255 255
255 255 255
255 218 255
218 218 255
255 255 255
218 218 255
255 255 255
255 255 255
255 255 255
255 255 255
255 255 255
255 255 255
255 255 255
255 255 255
255 255 255
255 255 255
255 255 255
255 255 255
255 255 255
255 255 255
255 255 255
255 255 255
255 255 255
255 255 255
255 255 255
255 255 255
255 255 255
255 255 255
255 255 255
255 255 255
255 255 255
255 255 255
255 255 255
255 255 255
255 255 255
255 255 255
255 255 255
255 255 255
255 255 255
255 255 255
255 255 255
255 255 255
255 255 255
255 255 255
255 255 255
255 255 255
255 255 255
255 255 255
255 255 255
255 255 255
255 255 255
255 255 255
255 255 255
255 255 255
255 255 255
255 255 255
255 255 255
255 255 255
255 255 255
255 255 255
255 255 255
255 255 255
72 72 85
36 36 0
36 36 0
36 36 0
36 36 0
36 36 0
36 36 0
36 36 0
36 36 0
36 36 0
36 36 0
36 36 0
36 36 0
36 36 0
36 36 0
36 36 0
36 36 0
36 36 0
36 36 0
36 36 0
36 36 0
36 36 0
36 36 0
36 36 0
36 36 0
36 36 0
36 36 0
36 36 0
36 36 0
36 36 0
36 36 0
36 36 0
36 36 0
36 36 0
36 36 0
72 72 85
72 72 85
72 72 85
72 72 85
109 109 85
109 109 85
109 109 85
109 109 85
109 109 85
109 109 85
72 72 85
36 36 0
182 182 170
255 255 255
218 218 255
0 0 0
0 0 0
0 0 0
0 0 0
0 0 0
0 0 0
0 0 0
0 0 0
0 0 0
0 0 0
0 0 0
0 0 0
0 0 0
0 0 0
0 0 0
0 0 0
0 0 0
0 0 0
0 0 0
0 0 0
0 0 0
0 0 0
0 0 0
0 0 0
0 0 0
0 0 0
0 0 0
0 0 0
0 0 0
0 0 0
0 0 0
0 0 0
0 0 0
0 0 0
0 0 0
0 0 0
0 0 0
0 0 0
0 0 0
0 0 0
0 0 0
0 0 0
0 0 0
0 0 0
0 0 0
0 0 0
0 0 0
0 0 0
0 0 0
0 0 0
0 0 0
0 0 0
0 0 0
0 0 0
0 0 0
0 0 0
0 0 0
0 0 0
0 0 0
0 0 0
0 0 0
0 0 0
0 0 0
0 0 0
0 0 0
0 0 0
0 0 0
0 0 0
0 0 0
0 0 0
0 0 0
0 0 0
0 0 0
0 0 0
36 36 0
255 255 255
255 255 255
255 255 255
255 255 255
255 255 255
255 255 255
255 255 255
255 255 255
255 255 255
255 255 255
255 255 255
255 255 255
255 255 255
255 255 255
255 255 255
255 255 255
255 255 255
255 255 255
255 255 255
255 255 255
255 255 255
255 255 255
255 255 255
255 255 255
255 255 255
255 255 255
255 255 255
255 255 255
255 255 255
255 255 255
255 255 255
255 255 255
255 255 255
255 255 255
255 255 255
255 255 255
255 255 255
255 255 255
255 255 255
255 255 255
255 255 255
255 255 255
255 255 255
255 255 255
255 255 255
255 255 255
255 255 255
255 255 255
255 255 255
255 255 255
255 255 255
255 255 255
255 255 255
255 255 255
255 255 255
255 255 255
255 255 255
255 255 255
255 255 255
255 255 255
255 255 255
255 255 255
255 255 255
255 255 255
255 255 255
255 255 255
255 255 255
255 255 255
255 255 255
255 255 255
255 255 255
255 255 255
255 255 255
255 255 255
255 255 255
72 72 85
36 36 0
36 36 0
36 36 0
36 36 0
36 36 0
36 36 0
36 36 0
36 36 0
36 36 0
36 36 0
36 36 0
36 36 0
36 36 0
36 36 0
36 36 0
36 36 0
36 36 0
36 36 0
36 36 0
36 36 0
36 36 0
36 36 0
36 36 0
36 36 0
36 36 0
36 36 0
36 36 0
36 36 0
36 36 0
36 36 0
36 36 0
36 36 0
36 36 0
36 36 0
72 72 85
72 72 85
72 72 85
72 72 85
109 109 85
109 109 85
109 109 85
109 109 85
109 109 85
72 72 85
36 36 0
36 36 0
182 182 170
255 255 255
218 218 255
0 0 0
0 0 0
0 0 0
0 0 0
0 0 0
0 0 0
0 0 0
0 0 0
0 0 0
0 0 0
0 0 0
0 0 0
0 0 0
0 0 0
0 0 0
0 0 0
0 0 0
0 0 0
0 0 0
0 0 0
0 0 0
0 0 0
0 0 0
0 0 0
0 0 0
0 0 0
0 0 0
0 0 0
0 0 0
0 0 0
0 0 0
0 0 0
0 0 0
0 0 0
0 0 0
0 0 0
0 0 0
0 0 0
0 0 0
0 0 0
0 0 0
0 0 0
0 0 0
0 0 0
0 0 0
0 0 0
0 0 0
0 0 0
0 0 0
0 0 0
0 0 0
0 0 0
0 0 0
0 0 0
0 0 0
0 0 0
0 0 0
0 0 0
0 0 0
0 0 0
0 0 0
0 0 0
0 0 0
0 0 0
0 0 0
0 0 0
0 0 0
0 0 0
0 0 0
0 0 0
0 0 0
0 0 0
0 0 0
0 0 0
36 36 0
255 255 255
255 255 255
255 255 255
255 255 255
255 255 255
255 255 255
255 255 255
255 255 255
255 255 255
255 255 255
255 255 255
255 255 255
255 255 255
255 255 255
255 255 255
255 255 255
255 255 255
255 255 255
255 255 255
255 255 255
255 255 255
255 255 255
255 255 255
255 255 255
255 255 255
255 255 255
255 255 255
255 255 255
255 255 255
255 255 255
255 255 255
255 255 255
255 255 255
255 255 255
255 255 255
255 255 255
255 255 255
255 255 255
255 255 255
255 255 255
255 255 255
255 255 255
255 255 255
255 255 255
255 255 255
255 255 255
255 255 255
255 255 255
255 255 255
255 255 255
255 255 255
255 255 255
255 255 255
255 255 255
255 255 255
255 255 255
255 255 255
255 255 255
255 255 255
255 255 255
255 255 255
255 255 255
255 255 255
255 255 255
255 255 255
255 255 255
255 255 255
255 255 255
255 255 255
255 255 255
255 255 255
255 255 255
255 255 255
255 255 255
255 255 255
72 72 85
36 36 0
36 36 0
36 36 0
36 36 0
36 36 0
36 36 0
36 36 0
36 36 0
36 36 0
36 36 0
36 36 0
36 36 0
36 36 0
36 36 0
36 36 0
36 36 0
36 36 0
36 36 0
36 36 0
36 36 0
36 36 0
36 36 0
36 36 0
36 36 0
36 36 0
36 36 0
36 36 0
36 36 0
36 36 0
36 36 0
36 36 0
36 36 0
36 36 0
36 36 0
36 36 0
72 72 85
72 72 85
72 72 85
109 109 85
109 109 85
109 109 85
109 109 85
72 72 85
36 36 0
36 36 0
36 36 0
182 182 170
255 255 255
218 218 255
0 0 0
0 0 0
0 0 0
0 0 0
0 0 0
0 0 0
0 0 0
0 0 0
0 0 0
0 0 0
0 0 0
0 0 0
0 0 0
0 0 0
0 0 0
0 0 0
0 0 0
0 0 0
0 0 0
0 0 0
0 0 0
0 0 0
0 0 0
0 0 0
0 0 0
0 0 0
0 0 0
0 0 0
0 0 0
0 0 0
0 0 0
0 0 0
0 0 0
0 0 0
0 0 0
0 0 0
0 0 0
0 0 0
0 0 0
0 0 0
0 0 0
0 0 0
0 0 0
0 0 0
0 0 0
0 0 0
0 0 0
0 0 0
0 0 0
0 0 0
0 0 0
0 0 0
0 0 0
0 0 0
0 0 0
0 0 0
0 0 0
0 0 0
0 0 0
0 0 0
0 0 0
0 0 0
0 0 0
0 0 0
0 0 0
0 0 0
0 0 0
0 0 0
0 0 0
0 0 0
0 0 0
0 0 0
0 0 0
0 0 0
36 36 0
255 255 255
255 255 255
218 218 255
218 218 255
218 218 255
218 218 255
218 218 255
218 218 255
182 218 170
182 182 170
218 218 255
255 255 255
255 255 255
255 255 255
255 255 255
255 255 255
255 255 255
255 255 255
255 255 255
255 255 255
255 255 255
255 255 255
255 255 255
255 255 255
255 255 255
255 255 255
255 255 255
255 255 255
255 255 255
255 255 255
255 255 255
255 255 255
255 255 255
255 255 255
255 255 255
255 255 255
182 182 170
182 182 170
182 182 170
182 182 170
218 218 255
218 218 255
218 218 255
255 255 255
218 218 255
182 182 170
182 182 170
218 218 255
182 182 170
255 255 255
182 182 170
218 218 255
218 218 255
218 218 255
218 218 255
218 218 255
255 255 255
255 255 255
255 255 255
255 255 255
255 255 255
255 255 255
255 255 255
255 255 255
255 255 255
255 255 255
255 255 255
255 255 255
255 255 255
255 255 255
255 255 255
218 218 255
255 255 255
255 255 255
255 255 255
72 72 85
36 36 0
36 36 0
36 36 0
36 36 0
36 36 0
36 36 0
36 36 0
36 36 0
36 36 0
36 36 0
36 36 0
36 36 0
36 36 0
36 36 0
36 36 0
36 36 0
36 36 0
36 36 0
36 36 0
36 36 0
36 36 0
36 36 0
36 36 0
36 36 0
36 36 0
36 36 0
36 36 0
36 36 0
36 36 0
36 36 0
36 36 0
36 36 0
36 36 0
36 36 0
36 36 0
36 36 0
72 72 85
72 72 85
109 109 85
109 109 85
109 109 85
72 72 85
36 36 0
36 36 0
36 36 0
36 36 0
182 182 170
255 255 255
218 218 255
0 0 0
0 0 0
0 0 0
0 0 0
0 0 0
0 0 0
0 0 0
0 0 0
0 0 0
0 0 0
0 0 0
0 0 0
0 0 0
0 0 0
0 0 0
0 0 0
0 0 0
0 0 0
0 0 0
0 0 0
0 0 0
0 0 0
0 0 0
0 0 0
0 0 0
0 0 0
0 0 0
0 0 0
0 0 0
0 0 0
0 0 0
0 0 0
0 0 0
0 0 0
0 0 0
0 0 0
0 0 0
0 0 0
0 0 0
0 0 0
0 0 0
0 0 0
0 0 0
0 0 0
0 0 0
0 0 0
0 0 0
0 0 0
0 0 0
0 0 0
0 0 0
0 0 0
0 0 0
0 0 0
0 0 0
0 0 0
0 0 0
0 0 0
0 0 0
0 0 0
0 0 0
0 0 0
0 0 0
0 0 0
0 0 0
0 0 0
0 0 0
0 0 0
0 0 0
0 0 0
0 0 0
0 0 0
0 0 0
0 0 0
36 36 0
255 255 255
255 255 255
182 182 170
145 145 170
145 145 170
145 145 170
109 109 85
182 182 170
182 182 170
109 109 85
109 109 85
182 182 170
255 255 255
255 255 255
255 255 255
255 255 255
255 255 255
255 255 255
255 255 255
255 255 255
255 255 255
255 255 255
255 255 255
255 255 255
255 255 255
255 255 255
255 255 255
255 255 255
255 255 255
255 255 255
255 255 255
255 255 255
255 255 255
255 255 255
255 255 255
255 255 255
145 145 170
145 145 170
109 109 85
145 145 170
182 182 170
145 145 170
109 145 85
218 218 255
145 145 170
109 109 85
109 109 85
109 109 85
145 145 170
218 218 255
109 109 85
109 109 85
109 109 85
109 145 85
109 109 85
218 218 255
255 255 255
255 255 255
255 255 255
255 255 255
255 255 255
255 255 255
255 255 255
255 255 255
255 255 255
255 255 255
255 255 255
255 255 255
255 255 255
255 255 255
255 255 255
218 218 255
255 255 255
255 255 255
255 255 255
72 72 85
36 36 0
36 36 0
36 36 0
36 36 0
36 36 0
36 36 0
36 36 0
36 36 0
36 36 0
36 36 0
36 36 0
36 36 0
36 36 0
36 36 0
36 36 0
36 36 0
36 36 0
36 36 0
36 36 0
36 36 0
36 36 0
36 36 0
36 36 0
36 36 0
36 36 0
36 36 0
36 36 0
36 36 0
36 36 0
36 36 0
36 36 0
36 36 0
36 36 0
36 36 0
36 36 0
36 36 0
72 72 85
72 72 85
109 109 85
109 145 85
72 72 85
36 36 0
36 36 0
36 36 0
36 36 0
36 36 0
182 182 170
255 255 255
218 218 255
0 0 0
0 0 0
0 0 0
0 0 0
0 0 0
0 0 0
0 0 0
0 0 0
0 0 0
0 0 0
0 0 0
0 0 0
0 0 0
0 0 0
0 0 0
0 0 0
0 0 0
0 0 0
0 0 0
0 0 0
0 0 0
0 0 0
0 0 0
0 0 0
0 0 0
0 0 0
0 0 0
0 0 0
0 0 0
0 0 0
0 0 0
0 0 0
0 0 0
0 0 0
0 0 0
0 0 0
0 0 0
0 0 0
0 0 0
0 0 0
0 0 0
0 0 0
0 0 0
0 0 0
0 0 0
0 0 0
0 0 0
0 0 0
0 0 0
0 0 0
0 0 0
0 0 0
0 0 0
0 0 0
0 0 0
0 0 0
0 0 0
0 0 0
0 0 0
0 0 0
0 0 0
0 0 0
0 0 0
0 0 0
0 0 0
0 0 0
0 0 0
0 0 0
0 0 0
0 0 0
0 0 0
0 0 0
0 0 0
0 0 0
36 36 0
255 255 255
255 255 255
255 255 255
255 255 255
255 255 255
255 255 255
255 255 255
255 255 255
255 255 255
255 255 255
255 255 255
255 255 255
255 255 255
255 255 255
255 255 255
255 255 255
255 255 255
255 255 255
255 255 255
255 255 255
255 255 255
255 255 255
255 255 255
255 255 255
255 255 255
255 255 255
255 255 255
255 255 255
255 255 255
255 255 255
255 255 255
255 255 255
255 255 255
255 255 255
255 255 255
255 255 255
255 255 255
255 255 255
255 255 255
255 255 255
255 255 255
255 255 255
255 255 255
218 218 255
255 255 255
255 255 255
255 255 255
255 255 255
255 255 255
218 218 255
255 255 255
255 255 255
218 218 255
255 255 255
255 255 255
255 255 255
255 255 255
255 255 255
255 255 255
255 255 255
255 255 255
255 255 255
255 255 255
255 255 255
255 255 255
255 255 255
255 255 255
255 255 255
255 255 255
255 255 255
255 255 255
255 255 255
255 255 255
255 255 255
255 255 255
72 72 85
36 36 0
36 36 0
36 36 0
36 36 0
36 36 0
36 36 0
36 36 0
36 36 0
36 36 0
36 36 0
36 36 0
36 36 0
36 36 0
36 36 0
36 36 0
36 36 0
36 36 0
36 36 0
36 36 0
36 36 0
36 36 0
36 36 0
36 36 0
36 36 0
36 36 0
36 36 0
36 36 0
36 36 0
36 36 0
36 36 0
36 36 0
36 36 0
36 36 0
36 36 0
36 36 0
36 36 0
36 36 0
72 72 85
109 109 85
72 72 85
36 36 0
36 36 0
36 36 0
36 36 0
36 36 0
36 36 0
182 182 170
255 255 255
218 218 255
0 0 0
0 0 0
0 0 0
0 0 0
0 0 0
0 0 0
0 0 0
0 0 0
0 0 0
0 0 0
0 0 0
0 0 0
0 0 0
0 0 0
0 0 0
0 0 0
0 0 0
0 0 0
0 0 0
0 0 0
0 0 0
0 0 0
0 0 0
0 0 0
0 0 0
0 0 0
0 0 0
0 0 0
0 0 0
0 0 0
0 0 0
0 0 0
0 0 0
0 0 0
0 0 0
0 0 0
0 0 0
0 0 0
0 0 0
0 0 0
0 0 0
0 0 0
0 0 0
0 0 0
0 0 0
0 0 0
0 0 0
0 0 0
0 0 0
0 0 0
0 0 0
0 0 0
0 0 0
0 0 0
0 0 0
0 0 0
0 0 0
0 0 0
0 0 0
0 0 0
0 0 0
0 0 0
0 0 0
0 0 0
0 0 0
0 0 0
0 0 0
0 0 0
0 0 0
0 0 0
0 0 0
0 0 0
0 0 0
0 0 0
36 36 0
255 255 255
255 255 255
255 255 255
255 255 255
218 218 255
182 182 170
218 218 255
218 218 255
218 218 255
218 218 255
218 218 255
182 182 170
218 218 255
218 218 255
218 218 255
218 218 255
255 255 255
255 255 255
255 255 255
255 255 255
255 255 255
255 255 255
255 255 255
255 255 255
255 255 255
255 255 255
255 255 255
255 255 255
255 255 255
255 255 255
255 255 255
255 255 255
255 255 255
255 255 255
255 255 255
255 255 255
218 218 255
218 218 255
218 218 255
255 255 255
255 255 255
255 255 255
255 255 255
255 255 255
255 255 255
255 255 255
255 255 255
255 255 255
255 255 255
255 255 255
255 255 255
255 255 255
255 255 255
255 255 255
255 255 255
255 255 255
255 255 255
255 255 255
255 255 255
255 255 255
255 255 255
255 255 255
255 255 255
255 255 255
255 255 255
255 255 255
255 255 255
255 255 255
255 255 255
255 255 255
255 255 255
255 255 255
255 255 255
255 255 255
255 255 255
72 72 85
36 36 0
36 36 0
36 36 0
36 36 0
36 36 0
36 36 0
36 36 0
36 36 0
36 36 0
36 36 0
36 36 0
36 36 0
36 36 0
36 36 0
36 36 0
36 36 0
36 36 0
36 36 0
36 36 0
36 36 0
36 36 0
36 36 0
36 36 0
36 36 0
36 36 0
36 36 0
36 36 0
36 36 0
36 36 0
36 36 0
36 36 0
36 36 0
36 36 0
36 36 0
36 36 0
36 36 0
36 36 0
72 72 85
72 72 85
36 36 0
36 36 0
36 36 0
36 36 0
36 36 0
36 36 0
36 36 0
182 182 170
255 255 255
218 218 255
0 0 0
0 0 0
0 0 0
0 0 0
0 0 0
0 0 0
0 0 0
0 0 0
0 0 0
0 0 0
0 0 0
0 0 0
0 0 0
0 0 0
0 0 0
0 0 0
0 0 0
0 0 0
0 0 0
0 0 0
0 0 0
0 0 0
0 0 0
0 0 0
0 0 0
0 0 0
0 0 0
0 0 0
0 0 0
0 0 0
0 0 0
0 0 0
0 0 0
0 0 0
0 0 0
0 0 0
0 0 0
0 0 0
0 0 0
0 0 0
0 0 0
0 0 0
0 0 0
0 0 0
0 0 0
0 0 0
0 0 0
0 0 0
0 0 0
0 0 0
0 0 0
0 0 0
0 0 0
0 0 0
0 0 0
0 0 0
0 0 0
0 0 0
0 0 0
0 0 0
0 0 0
0 0 0
0 0 0
0 0 0
0 0 0
0 0 0
0 0 0
0 0 0
0 0 0
0 0 0
0 0 0
0 0 0
0 0 0
0 0 0
36 36 0
255 255 255
255 255 255
255 255 255
255 255 255
218 218 255
182 182 170
182 182 170
218 218 255
218 218 255
182 182 170
218 218 255
182 182 170
182 182 170
182 182 170
182 182 170
182 182 170
255 255 255
255 255 255
255 255 255
255 255 255
255 255 255
255 255 255
255 255 255
255 255 255
255 255 255
255 255 255
255 255 255
255 255 255
255 255 255
255 255 255
255 255 255
255 255 255
255 255 255
255 255 255
255 255 255
255 255 255
218 218 255
218 218 255
218 218 255
255 255 255
255 255 255
255 255 255
255 255 255
255 255 255
255 255 255
255 255 255
255 255 255
255 255 255
255 255 255
255 255 255
255 255 255
255 255 255
255 255 255
255 255 255
255 255 255
255 255 255
255 255 255
255 255 255
255 255 255
255 255 255
255 255 255
255 255 255
255 255 255
255 255 255
255 255 255
255 255 255
255 255 255
255 255 255
255 255 255
255 255 255
255 255 255
255 255 255
255 255 255
255 255 255
255 255 255
72 72 85
36 36 0
36 36 0
36 36 0
36 36 0
36 36 0
36 36 0
36 36 0
36 36 0
36 36 0
36 36 0
36 36 0
36 36 0
36 36 0
36 36 0
36 36 0
36 36 0
36 36 0
36 36 0
36 36 0
36 36 0
36 36 0
36 36 0
36 36 0
36 36 0
36 36 0
36 36 0
36 36 0
36 36 0
36 36 0
36 36 0
36 36 0
36 36 0
36 36 0
36 36 0
36 36 0
36 36 0
36 36 0
36 36 0
36 36 0
36 36 0
36 36 0
36 36 0
36 36 0
36 36 0
36 36 0
36 36 0
182 182 170
255 255 255
218 218 255
0 0 0
0 0 0
0 0 0
0 0 0
0 0 0
0 0 0
0 0 0
0 0 0
0 0 0
0 0 0
0 0 0
0 0 0
0 0 0
0 0 0
0 0 0
0 0 0
0 0 0
0 0 0
0 0 0
0 0 0
0 0 0
0 0 0
0 0 0
0 0 0
0 0 0
0 0 0
0 0 0
0 0 0
0 0 0
0 0 0
0 0 0
0 0 0
0 0 0
0 0 0
0 0 0
0 0 0
0 0 0
0 0 0
0 0 0
0 0 0
0 0 0
0 0 0
0 0 0
0 0 0
0 0 0
0 0 0
0 0 0
0 0 0
0 0 0
0 0 0
0 0 0
0 0 0
0 0 0
0 0 0
0 0 0
0 0 0
0 0 0
0 0 0
0 0 0
0 0 0
0 0 0
0 0 0
0 0 0
0 0 0
0 0 0
0 0 0
0 0 0
0 0 0
0 0 0
0 0 0
0 0 0
0 0 0
0 0 0
0 0 0
36 36 0
255 255 255
255 255 255
255 255 255
255 255 255
255 255 255
255 255 255
255 255 255
255 255 255
255 255 255
255 255 255
255 255 255
255 255 255
255 255 255
255 255 255
255 255 255
255 255 255
255 255 255
255 255 255
255 255 255
255 255 255
255 255 255
255 255 255
255 255 255
255 255 255
255 255 255
255 255 255
255 255 255
255 255 255
255 255 255
255 255 255
255 255 255
255 255 255
255 255 255
255 255 255
255 255 255
255 255 255
255 255 255
255 255 255
255 255 255
255 255 255
255 255 255
255 255 255
255 255 255
255 255 255
255 255 255
255 255 255
255 255 255
255 255 255
255 255 255
255 255 255
255 255 255
255 255 255
255 255 255
255 255 255
255 255 255
255 255 255
255 255 255
255 255 255
255 255 255
255 255 255
255 255 255
255 255 255
255 255 255
255 255 255
255 255 255
255 255 255
255 255 255
255 255 255
255 255 255
255 255 255
255 255 255
255 255 255
255 255 255
255 255 255
255 255 255
72 72 85
36 36 0
36 36 0
36 36 0
36 36 0
36 36 0
36 36 0
36 36 0
36 36 0
36 36 0
36 36 0
36 36 0
36 36 0
36 36 0
36 36 0
36 36 0
36 36 0
36 36 0
36 36 0
36 36 0
36 36 0
36 36 0
36 36 0
36 36 0
36 36 0
36 36 0
36 36 0
36 36 0
36 36 0
36 36 0
36 36 0
36 36 0
36 36 0
36 36 0
36 36 0
36 36 0
36 36 0
36 36 0
36 36 0
36 36 0
36 36 0
36 36 0
36 36 0
36 36 0
36 36 0
36 36 0
36 36 0
182 182 170
255 255 255
218 218 255
0 0 0
0 0 0
0 0 0
0 0 0
0 0 0
0 0 0
0 0 0
0 0 0
0 0 0
0 0 0
0 0 0
0 0 0
0 0 0
0 0 0
0 0 0
0 0 0
0 0 0
0 0 0
0 0 0
0 0 0
0 0 0
0 0 0
0 0 0
0 0 0
0 0 0
0 0 0
0 0 0
0 0 0
0 0 0
0 0 0
0 0 0
0 0 0
0 0 0
0 0 0
0 0 0
0 0 0
0 0 0
0 0 0
0 0 0
0 0 0
0 0 0
0 0 0
0 0 0
0 0 0
0 0 0
0 0 0
0 0 0
0 0 0
0 0 0
0 0 0
0 0 0
0 0 0
0 0 0
0 0 0
0 0 0
0 0 0
0 0 0
0 0 0
0 0 0
0 0 0
0 0 0
0 0 0
0 0 0
0 0 0
0 0 0
0 0 0
0 0 0
0 0 0
0 0 0
0 0 0
0 0 0
0 0 0
0 0 0
0 0 0
36 36 0
255 255 255
255 255 255
255 255 255
255 255 255
218 218 255
182 182 170
182 182 170
182 182 170
218 218 255
218 218 255
182 182 170
182 182 170
255 255 255
255 255 255
255 255 255
255 255 255
255 255 255
255 255 255
255 255 255
255 255 255
255 255 255
255 255 255
255 255 255
255 255 255
255 255 255
255 255 255
255 255 255
255 255 255
255 255 255
255 255 255
255 255 255
255 255 255
255 255 255
255 255 255
255 255 255
255 255 255
255 255 255
255 255 255
255 255 255
255 255 255
255 255 255
255 255 255
255 255 255
255 255 255
255 255 255
255 255 255
255 255 255
255 255 255
255 255 255
255 255 255
255 255 255
255 255 255
255 255 255
255 255 255
255 255 255
255 255 255
255 255 255
255 255 255
255 255 255
255 255 255
255 255 255
255 255 255
255 255 255
255 255 255
255 255 255
255 255 255
255 255 255
255 255 255
255 255 255
255 255 255
255 255 255
255 255 255
255 255 255
255 255 255
255 255 255
72 72 85
36 36 0
36 36 0
36 36 0
36 36 0
36 36 0
36 36 0
36 36 0
36 36 0
36 36 0
36 36 0
36 36 0
36 36 0
36 36 0
36 36 0
36 36 0
36 36 0
36 36 0
36 36 0
36 36 0
36 36 0
36 36 0
36 36 0
36 36 0
36 36 0
36 36 0
36 36 0
36 36 0
36 36 0
36 36 0
36 36 0
36 36 0
36 36 0
36 36 0
36 36 0
36 36 0
36 36 0
36 36 0
36 36 0
36 36 0
36 36 0
36 36 0
36 36 0
36 36 0
36 36 0
36 36 0
36 36 0
182 182 170
255 255 255
218 218 255
0 0 0
0 0 0
0 0 0
0 0 0
0 0 0
0 0 0
0 0 0
0 0 0
0 0 0
0 0 0
0 0 0
0 0 0
0 0 0
0 0 0
0 0 0
0 0 0
0 0 0
0 0 0
0 0 0
0 0 0
0 0 0
0 0 0
0 0 0
0 0 0
0 0 0
0 0 0
0 0 0
0 0 0
0 0 0
0 0 0
0 0 0
0 0 0
0 0 0
0 0 0
0 0 0
0 0 0
0 0 0
0 0 0
0 0 0
0 0 0
0 0 0
0 0 0
0 0 0
0 0 0
0 0 0
0 0 0
0 0 0
0 0 0
0 0 0
0 0 0
0 0 0
0 0 0
0 0 0
0 0 0
0 0 0
0 0 0
0 0 0
0 0 0
0 0 0
0 0 0
0 0 0
0 0 0
0 0 0
0 0 0
0 0 0
0 0 0
0 0 0
0 0 0
0 0 0
0 0 0
0 0 0
0 0 0
0 0 0
0 0 0
36 36 0
255 255 255
255 255 255
255 255 255
255 255 255
255 255 255
218 218 255
218 218 255
218 218 255
218 218 255
218 218 255
218 218 255
218 218 255
255 255 255
255 255 255
255 255 255
255 255 255
255 255 255
255 255 255
255 255 255
255 255 255
255 255 255
255 255 255
255 255 255
255 255 255
255 255 255
255 255 255
255 255 255
255 255 255
255 255 255
255 255 255
255 255 255
255 255 255
255 255 255
255 255 255
255 255 255
255 255 255
255 255 255
255 255 255
255 255 255
255 255 255
255 255 255
255 255 255
255 255 255
255 255 255
255 255 255
255 255 255
255 255 255
255 255 255
255 255 255
255 255 255
255 255 255
255 255 255
255 255 255
255 255 255
255 255 255
255 255 255
255 255 255
255 255 255
255 255 255
255 255 255
255 255 255
255 255 255
255 255 255
255 255 255
255 255 255
255 255 255
255 255 255
255 255 255
255 255 255
255 255 255
255 255 255
255 255 255
255 255 255
255 255 255
255 255 255
72 72 85
36 36 0
36 36 0
36 36 0
36 36 0
36 36 0
36 36 0
36 36 0
36 36 0
36 36 0
36 36 0
36 36 0
36 36 0
36 36 0
36 36 0
36 36 0
36 36 0
36 36 0
36 36 0
36 36 0
36 36 0
36 36 0
36 36 0
36 36 0
36 36 0
36 36 0
36 36 0
36 36 0
36 36 0
36 36 0
36 36 0
36 36 0
36 36 0
36 36 0
36 36 0
36 36 0
36 36 0
36 36 0
36 36 0
36 36 0
36 36 0
36 36 0
36 36 0
36 36 0
36 36 0
36 36 0
36 36 0
182 182 170
255 255 255
218 218 255
0 0 0
0 0 0
0 0 0
0 0 0
0 0 0
0 0 0
0 0 0
0 0 0
0 0 0
0 0 0
0 0 0
0 0 0
0 0 0
0 0 0
0 0 0
0 0 0
0 0 0
0 0 0
0 0 0
0 0 0
0 0 0
0 0 0
0 0 0
0 0 0
0 0 0
0 0 0
0 0 0
0 0 0
0 0 0
0 0 0
0 0 0
0 0 0
0 0 0
0 0 0
0 0 0
0 0 0
0 0 0
0 0 0
0 0 0
0 0 0
0 0 0
0 0 0
0 0 0
0 0 0
0 0 0
0 0 0
0 0 0
0 0 0
0 0 0
0 0 0
0 0 0
0 0 0
0 0 0
0 0 0
0 0 0
0 0 0
0 0 0
0 0 0
0 0 0
0 0 0
0 0 0
0 0 0
0 0 0
0 0 0
0 0 0
0 0 0
0 0 0
0 0 0
0 0 0
0 0 0
0 0 0
0 0 0
0 0 0
0 0 0
36 36 0
255 255 255
255 255 255
255 255 255
255 255 255
255 255 255
255 255 255
255 255 255
255 255 255
255 255 255
255 255 255
255 255 255
255 255 255
255 255 255
255 255 255
255 255 255
255 255 255
255 255 255
255 255 255
255 255 255
255 255 255
255 255 255
255 255 255
255 255 255
255 255 255
255 255 255
255 255 255
255 255 255
255 255 255
255 255 255
255 255 255
255 255 255
255 255 255
255 255 255
255 255 255
255 255 255
255 255 255
255 255 255
255 255 255
255 255 255
255 255 255
255 255 255
255 255 255
255 255 255
255 255 255
255 255 255
255 255 255
255 255 255
255 255 255
255 255 255
255 255 255
255 255 255
255 255 255
255 255 255
255 255 255
255 255 255
255 255 255
255 255 255
255 255 255
255 255 255
255 255 255
255 255 255
255 255 255
255 255 255
255 255 255
255 255 255
255 255 255
255 255 255
255 255 255
255 255 255
255 255 255
255 255 255
255 255 255
255 255 255
255 255 255
255 255 255
72 72 85
36 36 0
36 36 0
36 36 0
36 36 0
36 36 0
36 36 0
36 36 0
36 36 0
36 36 0
36 36 0
36 36 0
36 36 0
36 36 0
36 36 0
36 36 0
36 36 0
36 36 0
36 36 0
36 36 0
36 36 0
36 36 0
36 36 0
36 36 0
36 36 0
36 36 0
36 36 0
36 36 0
36 36 0
36 36 0
36 36 0
36 36 0
36 36 0
36 36 0
36 36 0
36 36 0
36 36 0
36 36 0
36 36 0
36 36 0
36 36 0
36 36 0
36 36 0
36 36 0
36 36 0
36 36 0
36 36 0
182 182 170
255 255 255
218 218 255
0 0 0
0 0 0
0 0 0
0 0 0
0 0 0
0 0 0
0 0 0
0 0 0
0 0 0
0 0 0
0 0 0
0 0 0
0 0 0
0 0 0
0 0 0
0 0 0
0 0 0
0 0 0
0 0 0
0 0 0
0 0 0
0 0 0
0 0 0
0 0 0
0 0 0
0 0 0
0 0 0
0 0 0
0 0 0
0 0 0
0 0 0
0 0 0
0 0 0
0 0 0
0 0 0
0 0 0
0 0 0
0 0 0
0 0 0
0 0 0
0 0 0
0 0 0
0 0 0
0 0 0
0 0 0
0 0 0
0 0 0
0 0 0
0 0 0
0 0 0
0 0 0
0 0 0
0 0 0
0 0 0
0 0 0
0 0 0
0 0 0
0 0 0
0 0 0
0 0 0
0 0 0
0 0 0
0 0 0
0 0 0
0 0 0
0 0 0
0 0 0
0 0 0
0 0 0
0 0 0
0 0 0
0 0 0
0 0 0
0 0 0
36 36 0
255 255 255
255 255 255
255 255 255
255 255 255
218 218 255
145 182 170
182 182 170
182 182 170
218 218 255
182 182 170
182 182 170
182 182 170
218 218 255
255 255 255
255 255 255
255 255 255
255 255 255
255 255 255
255 255 255
255 255 255
255 255 255
255 255 255
255 255 255
255 255 255
255 255 255
255 255 255
255 255 255
255 255 255
255 255 255
255 255 255
255 255 255
255 255 255
255 255 255
255 255 255
255 255 255
255 255 255
182 182 170
182 182 170
182 182 170
182 182 170
255 255 255
255 255 255
255 255 255
255 255 255
255 255 255
255 255 255
255 255 255
255 255 255
255 255 255
255 255 255
255 255 255
255 255 255
255 255 255
255 255 255
255 255 255
255 255 255
255 255 255
255 255 255
255 255 255
255 255 255
255 255 255
255 255 255
255 255 255
255 255 255
255 255 255
255 255 255
255 255 255
255 255 255
255 255 255
255 255 255
255 255 255
255 218 255
255 255 255
255 255 255
255 255 255
72 72 85
36 36 0
36 36 0
36 36 0
36 36 0
36 36 0
36 36 0
36 36 0
36 36 0
36 36 0
36 36 0
36 36 0
36 36 0
36 36 0
36 36 0
36 36 0
36 36 0
36 36 0
36 36 0
36 36 0
36 36 0
36 36 0
36 36 0
36 36 0
36 36 0
36 36 0
36 36 0
36 36 0
36 36 0
36 36 0
36 36 0
36 36 0
36 36 0
36 36 0
36 36 0
36 36 0
36 36 0
36 36 0
36 36 0
36 36 0
36 36 0
36 36 0
36 36 0
36 36 0
36 36 0
36 36 0
36 36 0
182 182 170
255 255 255
218 218 255
0 0 0
0 0 0
0 0 0
0 0 0
0 0 0
0 0 0
0 0 0
0 0 0
0 0 0
0 0 0
0 0 0
0 0 0
0 0 0
0 0 0
0 0 0
0 0 0
0 0 0
0 0 0
0 0 0
0 0 0
0 0 0
0 0 0
0 0 0
0 0 0
0 0 0
0 0 0
0 0 0
0 0 0
0 0 0
0 0 0
0 0 0
0 0 0
0 0 0
0 0 0
0 0 0
0 0 0
0 0 0
0 0 0
0 0 0
0 0 0
0 0 0
0 0 0
0 0 0
0 0 0
0 0 0
0 0 0
0 0 0
0 0 0
0 0 0
0 0 0
0 0 0
0 0 0
0 0 0
0 0 0
0 0 0
0 0 0
0 0 0
0 0 0
0 0 0
0 0 0
0 0 0
0 0 0
0 0 0
0 0 0
0 0 0
0 0 0
0 0 0
0 0 0
0 0 0
0 0 0
0 0 0
0 0 0
0 0 0
0 0 0
36 36 0
255 255 255
255 255 255
255 255 255
255 255 255
255 255 255
218 218 255
218 218 255
218 218 255
255 255 255
255 255 255
218 218 255
255 255 255
255 255 255
255 255 255
255 255 255
255 255 255
255 255 255
255 255 255
255 255 255
255 255 255
255 255 255
255 255 255
255 255 255
255 255 255
255 255 255
255 255 255
255 255 255
255 255 255
255 255 255
255 255 255
255 255 255
255 255 255
255 255 255
255 255 255
255 255 255
255 255 255
255 255 255
218 218 255
255 255 255
255 255 255
255 255 255
255 255 255
255 255 255
255 255 255
255 255 255
255 255 255
255 255 255
255 255 255
255 255 255
255 255 255
255 255 255
255 255 255
255 255 255
255 255 255
255 255 255
255 255 255
255 255 255
255 255 255
255 255 255
255 255 255
255 255 255
255 255 255
255 255 255
255 255 255
255 255 255
255 255 255
255 255 255
255 255 255
255 255 255
255 255 255
255 255 255
255 255 255
255 255 255
255 255 255
255 255 255
72 72 85
36 36 0
36 36 0
36 36 0
36 36 0
36 36 0
36 36 0
36 36 0
36 36 0
36 36 0
36 36 0
36 36 0
36 36 0
36 36 0
36 36 0
36 36 0
36 36 0
36 36 0
36 36 0
36 36 0
36 36 0
36 36 0
36 36 0
36 36 0
36 36 0
36 36 0
36 36 0
36 36 0
36 36 0
36 36 0
36 36 0
36 36 0
36 36 0
36 36 0
36 36 0
36 36 0
36 36 0
36 36 0
36 36 0
36 36 0
36 36 0
36 36 0
36 36 0
36 36 0
36 36 0
36 36 0
36 36 0
182 182 170
255 255 255
218 218 255
0 0 0
0 0 0
0 0 0
0 0 0
0 0 0
0 0 0
0 0 0
0 0 0
0 0 0
0 0 0
0 0 0
0 0 0
0 0 0
0 0 0
0 0 0
0 0 0
0 0 0
0 0 0
0 0 0
0 0 0
0 0 0
0 0 0
0 0 0
0 0 0
0 0 0
0 0 0
0 0 0
0 0 0
0 0 0
0 0 0
0 0 0
0 0 0
0 0 0
0 0 0
0 0 0
0 0 0
0 0 0
0 0 0
0 0 0
0 0 0
0 0 0
0 0 0
0 0 0
0 0 0
0 0 0
0 0 0
0 0 0
0 0 0
0 0 0
0 0 0
0 0 0
0 0 0
0 0 0
0 0 0
0 0 0
0 0 0
0 0 0
0 0 0
0 0 0
0 0 0
0 0 0
0 0 0
0 0 0
0 0 0
0 0 0
0 0 0
0 0 0
0 0 0
0 0 0
0 0 0
0 0 0
0 0 0
0 0 0
0 0 0
36 36 0
255 255 255
255 255 255
255 255 255
255 255 255
255 255 255
218 218 255
218 218 255
255 255 255
255 255 255
255 255 255
255 255 255
255 255 255
255 255 255
255 255 255
255 255 255
255 255 255
255 255 255
255 255 255
255 255 255
255 255 255
255 255 255
255 255 255
255 255 255
255 255 255
255 255 255
255 255 255
255 255 255
255 255 255
255 255 255
255 255 255
255 255 255
255 255 255
255 255 255
255 255 255
255 255 255
255 255 255
255 255 255
255 255 255
255 255 255
255 255 255
255 255 255
255 255 255
255 255 255
255 255 255
255 255 255
255 255 255
255 255 255
255 255 255
255 255 255
255 255 255
255 255 255
255 255 255
255 255 255
255 255 255
255 255 255
255 255 255
255 255 255
255 255 255
255 255 255
255 255 255
255 255 255
255 255 255
255 255 255
255 255 255
255 255 255
255 255 255
255 255 255
255 255 255
255 255 255
255 255 255
255 255 255
255 255 255
255 255 255
255 255 255
255 255 255
72 72 85
36 36 0
36 36 0
36 36 0
36 36 0
36 36 0
36 36 0
36 36 0
36 36 0
36 36 0
36 36 0
36 36 0
36 36 0
36 36 0
36 36 0
36 36 0
36 36 0
36 36 0
36 36 0
36 36 0
36 36 0
36 36 0
36 36 0
36 36 0
36 36 0
36 36 0
36 36 0
36 36 0
36 36 0
36 36 0
36 36 0
36 36 0
36 36 0
36 36 0
36 36 0
36 36 0
36 36 0
36 36 0
36 36 0
36 36 0
36 36 0
36 36 0
36 36 0
36 36 0
36 36 0
36 36 0
36 36 0
182 182 170
255 255 255
218 218 255
0 0 0
0 0 0
0 0 0
0 0 0
0 0 0
0 0 0
0 0 0
0 0 0
0 0 0
0 0 0
0 0 0
0 0 0
0 0 0
0 0 0
0 0 0
0 0 0
0 0 0
0 0 0
0 0 0
0 0 0
0 0 0
0 0 0
0 0 0
0 0 0
0 0 0
0 0 0
0 0 0
0 0 0
0 0 0
0 0 0
0 0 0
0 0 0
0 0 0
0 0 0
0 0 0
0 0 0
0 0 0
0 0 0
0 0 0
0 0 0
0 0 0
0 0 0
0 0 0
0 0 0
0 0 0
0 0 0
0 0 0
0 0 0
0 0 0
0 0 0
0 0 0
0 0 0
0 0 0
0 0 0
0 0 0
0 0 0
0 0 0
0 0 0
0 0 0
0 0 0
0 0 0
0 0 0
0 0 0
0 0 0
0 0 0
0 0 0
0 0 0
0 0 0
0 0 0
0 0 0
0 0 0
0 0 0
0 0 0
0 0 0
36 36 0
255 255 255
255 255 255
255 255 255
255 255 255
218 218 255
182 182 170
182 182 170
182 182 170
182 182 170
182 182 170
255 255 255
255 255 255
255 255 255
255 255 255
255 255 255
255 255 255
255 255 255
255 255 255
255 255 255
255 255 255
255 255 255
255 255 255
255 255 255
255 255 255
255 255 255
255 255 255
255 255 255
255 255 255
255 255 255
255 255 255
255 255 255
255 255 255
255 255 255
255 255 255
255 255 255
255 255 255
218 218 255
255 255 255
255 255 255
255 255 255
255 255 255
255 255 255
255 255 255
255 255 255
255 255 255
255 255 255
255 255 255
255 255 255
255 255 255
255 255 255
255 255 255
255 255 255
255 255 255
255 255 255
255 255 255
255 255 255
255 255 255
255 255 255
255 255 255
255 255 255
255 255 255
255 255 255
255 255 255
255 255 255
255 255 255
255 255 255
255 255 255
255 255 255
255 255 255
255 255 255
255 255 255
255 255 255
255 255 255
255 255 255
255 255 255
72 72 85
36 36 0
36 36 0
36 36 0
36 36 0
36 36 0
36 36 0
36 36 0
36 36 0
36 36 0
36 36 0
36 36 0
36 36 0
36 36 0
36 36 0
36 36 0
36 36 0
36 36 0
36 36 0
36 36 0
36 36 0
36 36 0
36 36 0
36 36 0
36 36 0
36 36 0
36 36 0
36 36 0
36 36 0
36 36 0
36 36 0
36 36 0
36 36 0
36 36 0
36 36 0
36 36 0
36 36 0
36 36 0
36 36 0
36 36 0
36 36 0
36 36 0
36 36 0
36 36 0
36 36 0
36 36 0
36 36 0
182 182 170
255 255 255
218 218 255
0 0 0
0 0 0
0 0 0
0 0 0
0 0 0
0 0 0
0 0 0
0 0 0
0 0 0
0 0 0
0 0 0
0 0 0
0 0 0
0 0 0
0 0 0
0 0 0
0 0 0
0 0 0
0 0 0
0 0 0
0 0 0
0 0 0
0 0 0
0 0 0
0 0 0
0 0 0
0 0 0
0 0 0
0 0 0
0 0 0
0 0 0
0 0 0
0 0 0
0 0 0
0 0 0
0 0 0
0 0 0
0 0 0
0 0 0
0 0 0
0 0 0
0 0 0
0 0 0
0 0 0
0 0 0
0 0 0
0 0 0
0 0 0
0 0 0
0 0 0
0 0 0
0 0 0
0 0 0
0 0 0
0 0 0
0 0 0
0 0 0
0 0 0
0 0 0
0 0 0
0 0 0
0 0 0
0 0 0
0 0 0
0 0 0
0 0 0
0 0 0
0 0 0
0 0 0
0 0 0
0 0 0
0 0 0
0 0 0
0 0 0
36 36 0
255 255 255
255 255 255
255 255 255
255 255 255
255 255 255
255 255 255
255 255 255
255 255 255
255 255 255
255 255 255
255 255 255
255 255 255
255 255 255
255 255 255
255 255 255
255 255 255
255 255 255
255 255 255
255 255 255
255 255 255
255 255 255
255 255 255
255 255 255
255 255 255
255 255 255
255 255 255
255 255 255
255 255 255
255 255 255
255 255 255
255 255 255
255 255 255
255 255 255
255 255 255
255 255 255
255 255 255
255 255 255
255 255 255
255 255 255
255 255 255
255 255 255
255 255 255
255 255 255
255 255 255
255 255 255
255 255 255
255 255 255
255 255 255
255 255 255
255 255 255
255 255 255
255 255 255
255 255 255
255 255 255
255 255 255
255 255 255
255 255 255
255 255 255
255 255 255
255 255 255
255 255 255
255 255 255
255 255 255
255 255 255
255 255 255
255 255 255
255 255 255
255 255 255
255 255 255
255 255 255
255 255 255
255 255 255
255 255 255
255 255 255
255 255 255
72 72 85
36 36 0
36 36 0
36 36 0
36 36 0
36 36 0
36 36 0
36 36 0
36 36 0
36 36 0
36 36 0
36 36 0
36 36 0
36 36 0
36 36 0
36 36 0
36 36 0
36 36 0
36 36 0
36 36 0
36 36 0
36 36 0
36 36 0
36 36 0
36 36 0
36 36 0
36 36 0
36 36 0
36 36 0
36 36 0
36 36 0
36 36 0
36 36 0
36 36 0
36 36 0
36 36 0
36 36 0
36 36 0
36 36 0
36 36 0
36 36 0
36 36 0
36 36 0
36 36 0
36 36 0
36 36 0
36 36 0
182 182 170
255 255 255
218 218 255
0 0 0
0 0 0
0 0 0
0 0 0
0 0 0
0 0 0
0 0 0
0 0 0
0 0 0
0 0 0
0 0 0
0 0 0
0 0 0
0 0 0
0 0 0
0 0 0
0 0 0
0 0 0
0 0 0
0 0 0
0 0 0
0 0 0
0 0 0
0 0 0
0 0 0
0 0 0
0 0 0
0 0 0
0 0 0
0 0 0
0 0 0
0 0 0
0 0 0
0 0 0
0 0 0
0 0 0
0 0 0
0 0 0
0 0 0
0 0 0
0 0 0
0 0 0
0 0 0
0 0 0
0 0 0
0 0 0
0 0 0
0 0 0
0 0 0
0 0 0
0 0 0
0 0 0
0 0 0
0 0 0
0 0 0
0 0 0
0 0 0
0 0 0
0 0 0
0 0 0
0 0 0
0 0 0
0 0 0
0 0 0
0 0 0
0 0 0
0 0 0
0 0 0
0 0 0
0 0 0
0 0 0
0 0 0
0 0 0
0 0 0
36 36 0
255 255 255
255 255 255
255 255 255
255 255 255
218 218 255
218 218 255
218 255 255
218 218 255
218 218 255
218 218 255
218 218 255
218 218 255
218 218 255
218 218 255
218 218 255
255 255 255
255 255 255
255 255 255
255 255 255
255 255 255
255 255 255
255 255 255
255 255 255
255 255 255
255 255 255
255 255 255
255 255 255
255 255 255
255 255 255
255 255 255
255 255 255
255 255 255
255 255 255
255 255 255
255 255 255
255 255 255
218 218 255
218 218 255
182 218 170
255 255 255
255 255 255
255 255 255
255 255 255
255 255 255
255 255 255
255 255 255
255 255 255
255 255 255
255 255 255
255 255 255
255 255 255
255 255 255
255 255 255
255 255 255
255 255 255
255 255 255
255 255 255
255 255 255
255 255 255
255 255 255
255 255 255
255 255 255
255 255 255
255 255 255
255 255 255
255 255 255
255 255 255
255 255 255
255 255 255
255 255 255
255 255 255
218 218 255
255 255 255
255 255 255
255 255 255
72 72 85
36 36 0
36 36 0
36 36 0
36 36 0
36 36 0
36 36 0
36 36 0
36 36 0
36 36 0
36 36 0
36 36 0
36 36 0
36 36 0
36 36 0
36 36 0
36 36 0
36 36 0
36 36 0
36 36 0
36 36 0
36 36 0
36 36 0
36 36 0
36 36 0
36 36 0
36 36 0
36 36 0
36 36 0
36 36 0
36 36 0
36 36 0
36 36 0
36 36 0
36 36 0
36 36 0
36 36 0
36 36 0
36 36 0
36 36 0
36 36 0
36 36 0
36 36 0
36 36 0
36 36 0
36 36 0
36 36 0
182 182 170
255 255 255
218 218 255
0 0 0
0 0 0
0 0 0
0 0 0
0 0 0
0 0 0
0 0 0
0 0 0
0 0 0
0 0 0
0 0 0
0 0 0
0 0 0
0 0 0
0 0 0
0 0 0
0 0 0
0 0 0
0 0 0
0 0 0
0 0 0
0 0 0
0 0 0
0 0 0
0 0 0
0 0 0
0 0 0
0 0 0
0 0 0
0 0 0
0 0 0
0 0 0
0 0 0
0 0 0
0 0 0
0 0 0
0 0 0
0 0 0
0 0 0
0 0 0
0 0 0
0 0 0
0 0 0
0 0 0
0 0 0
0 0 0
0 0 0
0 0 0
0 0 0
0 0 0
0 0 0
0 0 0
0 0 0
0 0 0
0 0 0
0 0 0
0 0 0
0 0 0
0 0 0
0 0 0
0 0 0
0 0 0
0 0 0
0 0 0
0 0 0
0 0 0
0 0 0
0 0 0
0 0 0
0 0 0
0 0 0
0 0 0
0 0 0
0 0 0
36 36 0
255 255 255
255 255 255
255 255 255
255 255 255
218 218 255
182 182 170
182 182 170
218 218 255
218 218 255
182 182 170
145 145 170
182 182 170
218 218 255
182 182 170
182 182 170
255 255 255
255 255 255
255 255 255
255 255 255
255 255 255
255 255 255
255 255 255
255 255 255
255 255 255
255 255 255
255 255 255
255 255 255
255 255 255
255 255 255
255 255 255
255 255 255
255 255 255
255 255 255
255 255 255
255 255 255
255 255 255
218 218 255
218 218 255
182 182 170
255 255 255
255 255 255
255 255 255
255 255 255
255 255 255
255 255 255
255 255 255
255 255 255
255 255 255
255 255 255
255 255 255
255 255 255
255 255 255
255 255 255
255 255 255
255 255 255
255 255 255
255 255 255
255 255 255
255 255 255
255 255 255
255 255 255
255 255 255
255 255 255
255 255 255
255 255 255
255 255 255
255 255 255
255 255 255
255 255 255
255 255 255
255 255 255
218 218 255
255 255 255
255 255 255
255 255 255
72 72 85
36 36 0
36 36 0
36 36 0
36 36 0
36 36 0
36 36 0
36 36 0
36 36 0
36 36 0
36 36 0
36 36 0
36 36 0
36 36 0
36 36 0
36 36 0
36 36 0
36 36 0
36 36 0
36 36 0
36 36 0
36 36 0
36 36 0
36 36 0
36 36 0
36 36 0
36 36 0
36 36 0
36 36 0
36 36 0
36 36 0
36 36 0
36 36 0
36 36 0
36 36 0
36 36 0
36 36 0
36 36 0
36 36 0
36 36 0
36 36 0
36 36 0
36 36 0
36 36 0
36 36 0
36 36 0
36 36 0
182 182 170
255 255 255
218 218 255
0 0 0
0 0 0
0 0 0
0 0 0
0 0 0
0 0 0
0 0 0
0 0 0
0 0 0
0 0 0
0 0 0
0 0 0
0 0 0
0 0 0
0 0 0
0 0 0
0 0 0
0 0 0
0 0 0
0 0 0
0 0 0
0 0 0
0 0 0
0 0 0
0 0 0
0 0 0
0 0 0
0 0 0
0 0 0
0 0 0
0 0 0
0 0 0
0 0 0
0 0 0
0 0 0
0 0 0
0 0 0
0 0 0
0 0 0
0 0 0
0 0 0
0 0 0
0 0 0
0 0 0
0 0 0
0 0 0
0 0 0
0 0 0
0 0 0
0 0 0
0 0 0
0 0 0
0 0 0
0 0 0
0 0 0
0 0 0
0 0 0
0 0 0
0 0 0
0 0 0
0 0 0
0 0 0
0 0 0
0 0 0
0 0 0
0 0 0
0 0 0
0 0 0
0 0 0
0 0 0
0 0 0
0 0 0
0 0 0
0 0 0
36 36 0
255 255 255
255 255 255
255 255 255
255 255 255
255 255 255
255 255 255
255 255 255
255 255 255
255 255 255
255 255 255
218 218 255
255 255 255
255 255 255
255 255 255
255 255 255
255 255 255
255 255 255
255 255 255
255 255 255
255 255 255
255 255 255
255 255 255
255 255 255
255 255 255
255 255 255
255 255 255
255 255 255
255 255 255
255 255 255
255 255 255
255 255 255
255 255 255
255 255 255
255 255 255
255 255 255
255 255 255
255 255 255
255 255 255
255 255 255
255 255 255
255 255 255
255 255 255
255 255 255
255 255 255
255 255 255
255 255 255
255 255 255
255 255 255
255 255 255
255 255 255
255 255 255
255 255 255
255 255 255
255 255 255
255 255 255
255 255 255
255 255 255
255 255 255
255 255 255
255 255 255
255 255 255
255 255 255
255 255 255
255 255 255
255 255 255
255 255 255
255 255 255
255 255 255
255 255 255
255 255 255
255 255 255
255 255 255
255 255 255
255 255 255
255 255 255
72 72 85
36 36 0
36 36 0
36 36 0
36 36 0
36 36 0
36 36 0
36 36 0
36 36 0
36 36 0
36 36 0
36 36 0
36 36 0
36 36 0
36 36 0
36 36 0
36 36 0
36 36 0
36 36 0
36 36 0
36 36 0
36 36 0
36 36 0
36 36 0
36 36 0
36 36 0
36 36 0
36 36 0
36 36 0
36 36 0
36 36 0
36 36 0
36 36 0
36 36 0
36 36 0
36 36 0
36 36 0
36 36 0
36 36 0
36 36 0
36 36 0
36 36 0
36 36 0
36 36 0
36 36 0
36 36 0
36 36 0
182 182 170
255 255 255
218 218 255
0 0 0
0 0 0
0 0 0
0 0 0
0 0 0
0 0 0
0 0 0
0 0 0
0 0 0
0 0 0
0 0 0
0 0 0
0 0 0
0 0 0
0 0 0
0 0 0
0 0 0
0 0 0
0 0 0
0 0 0
0 0 0
0 0 0
0 0 0
0 0 0
0 0 0
0 0 0
0 0 0
0 0 0
0 0 0
0 0 0
0 0 0
0 0 0
0 0 0
0 0 0
0 0 0
0 0 0
0 0 0
0 0 0
0 0 0
0 0 0
0 0 0
0 0 0
0 0 0
0 0 0
0 0 0
0 0 0
0 0 0
0 0 0
0 0 0
0 0 0
0 0 0
0 0 0
0 0 0
0 0 0
0 0 0
0 0 0
0 0 0
0 0 0
0 0 0
0 0 0
0 0 0
0 0 0
0 0 0
0 0 0
0 0 0
0 0 0
0 0 0
0 0 0
0 0 0
0 0 0
0 0 0
0 0 0
0 0 0
0 0 0
36 36 0
255 255 255
255 255 255
255 255 255
255 255 255
255 255 255
255 255 255
255 255 255
255 255 255
255 255 255
255 255 255
255 255 255
255 255 255
255 255 255
255 255 255
255 255 255
255 255 255
255 255 255
255 255 255
255 255 255
255 255 255
255 255 255
255 255 255
255 255 255
255 255 255
255 255 255
255 255 255
255 255 255
255 255 255
255 255 255
255 255 255
255 255 255
255 255 255
255 255 255
255 255 255
255 255 255
255 255 255
255 255 255
255 255 255
255 255 255
255 255 255
255 255 255
255 255 255
255 255 255
255 255 255
255 255 255
255 255 255
255 255 255
255 255 255
255 255 255
255 255 255
255 255 255
255 255 255
255 255 255
255 255 255
255 255 255
255 255 255
255 255 255
255 255 255
255 255 255
255 255 255
255 255 255
255 255 255
255 255 255
255 255 255
255 255 255
255 255 255
255 255 255
255 255 255
255 255 255
255 255 255
255 255 255
255 255 255
255 255 255
255 255 255
255 255 255
72 72 85
36 36 0
36 36 0
36 36 0
36 36 0
36 36 0
36 36 0
36 36 0
36 36 0
36 36 0
36 36 0
36 36 0
36 36 0
36 36 0
36 36 0
36 36 0
36 36 0
36 36 0
36 36 0
36 36 0
36 36 0
36 36 0
36 36 0
36 36 0
36 36 0
36 36 0
36 36 0
36 36 0
36 36 0
36 36 0
36 36 0
36 36 0
36 36 0
36 36 0
36 36 0
36 36 0
36 36 0
36 36 0
36 36 0
36 36 0
36 36 0
36 36 0
36 36 0
36 36 0
36 36 0
36 36 0
36 36 0
182 182 170
255 255 255
218 218 255
0 0 0
0 0 0
0 0 0
0 0 0
0 0 0
0 0 0
0 0 0
0 0 0
0 0 0
0 0 0
0 0 0
0 0 0
0 0 0
0 0 0
0 0 0
0 0 0
0 0 0
0 0 0
0 0 0
0 0 0
0 0 0
0 0 0
0 0 0
0 0 0
0 0 0
0 0 0
0 0 0
0 0 0
0 0 0
0 0 0
0 0 0
0 0 0
0 0 0
0 0 0
0 0 0
0 0 0
0 0 0
0 0 0
0 0 0
0 0 0
0 0 0
0 0 0
0 0 0
0 0 0
0 0 0
0 0 0
0 0 0
0 0 0
0 0 0
0 0 0
0 0 0
0 0 0
0 0 0
0 0 0
0 0 0
0 0 0
0 0 0
0 0 0
0 0 0
0 0 0
0 0 0
0 0 0
0 0 0
0 0 0
0 0 0
0 0 0
0 0 0
0 0 0
0 0 0
0 0 0
0 0 0
0 0 0
0 0 0
0 0 0
36 36 0
255 255 255
255 255 255
255 255 255
255 255 255
255 255 255
255 255 255
255 255 255
255 255 255
255 255 255
255 255 255
255 255 255
255 255 255
255 255 255
255 255 255
255 255 255
255 255 255
255 255 255
255 255 255
255 255 255
255 255 255
255 255 255
255 255 255
255 255 255
255 255 255
255 255 255
255 255 255
255 255 255
255 255 255
255 255 255
255 255 255
255 255 255
255 255 255
255 255 255
255 255 255
255 255 255
255 255 255
255 255 255
255 255 255
255 255 255
255 255 255
255 255 255
255 255 255
255 255 255
255 255 255
255 255 255
255 255 255
255 255 255
255 255 255
255 255 255
255 255 255
255 255 255
255 255 255
255 255 255
255 255 255
255 255 255
255 255 255
255 255 255
255 255 255
255 255 255
255 255 255
255 255 255
255 255 255
255 255 255
255 255 255
255 255 255
255 255 255
255 255 255
255 255 255
255 255 255
255 255 255
255 255 255
255 255 255
255 255 255
255 255 255
255 255 255
72 72 85
36 36 0
36 36 0
36 36 0
36 36 0
36 36 0
36 36 0
36 36 0
36 36 0
36 36 0
36 36 0
36 36 0
36 36 0
36 36 0
36 36 0
36 36 0
36 36 0
36 36 0
36 36 0
36 36 0
36 36 0
36 36 0
36 36 0
36 36 0
36 36 0
36 36 0
36 36 0
36 36 0
36 36 0
36 36 0
36 36 0
36 36 0
36 36 0
36 36 0
36 36 0
36 36 0
36 36 0
36 36 0
36 36 0
36 36 0
36 36 0
36 36 0
36 36 0
36 36 0
36 36 0
36 36 0
36 36 0
182 182 170
255 255 255
218 218 255
0 0 0
0 0 0
0 0 0
0 0 0
0 0 0
0 0 0
0 0 0
0 0 0
0 0 0
0 0 0
0 0 0
0 0 0
0 0 0
0 0 0
0 0 0
0 0 0
0 0 0
0 0 0
0 0 0
0 0 0
0 0 0
0 0 0
0 0 0
0 0 0
0 0 0
0 0 0
0 0 0
0 0 0
0 0 0
0 0 0
0 0 0
0 0 0
0 0 0
0 0 0
0 0 0
0 0 0
0 0 0
0 0 0
0 0 0
0 0 0
0 0 0
0 0 0
0 0 0
0 0 0
0 0 0
0 0 0
0 0 0
0 0 0
0 0 0
0 0 0
0 0 0
0 0 0
0 0 0
0 0 0
0 0 0
0 0 0
0 0 0
0 0 0
0 0 0
0 0 0
0 0 0
0 0 0
0 0 0
0 0 0
0 0 0
0 0 0
0 0 0
0 0 0
0 0 0
0 0 0
0 0 0
0 0 0
0 0 0
0 0 0
0 0 0
255 255 255
255 255 255
255 255 255
255 255 255
255 255 255
255 255 255
255 255 255
255 255 255
255 255 255
255 255 255
218 218 255
218 218 255
218 218 255
255 255 255
255 255 255
255 255 255
255 255 255
255 255 255
255 255 255
255 255 255
255 255 255
255 255 255
255 255 255
255 255 255
255 255 255
255 255 255
255 255 255
255 255 255
255 255 255
255 255 255
255 255 255
255 255 255
255 255 255
218 218 255
182 182 170
218 218 255
218 218 255
218 218 255
255 255 255
255 255 255
255 255 255
255 255 255
255 255 255
255 255 255
255 255 255
255 255 255
255 255 255
255 255 255
255 255 255
255 255 255
255 255 255
255 255 255
255 255 255
255 255 255
255 255 255
255 255 255
255 255 255
218 218 255
182 182 170
218 218 255
218 218 255
182 182 170
218 218 255
255 255 255
255 255 255
255 255 255
255 255 255
255 255 255
255 255 255
255 255 255
255 255 255
255 255 255
255 255 255
255 255 255
255 255 255
72 72 85
36 36 0
36 36 0
36 36 0
36 36 0
36 36 0
36 36 0
36 36 0
36 36 0
36 36 0
36 36 0
36 36 0
36 36 0
36 36 0
36 36 0
36 36 0
36 36 0
36 36 0
36 36 0
36 36 0
36 36 0
36 36 0
36 36 0
36 36 0
36 36 0
36 36 0
36 36 0
36 36 0
36 36 0
36 36 0
36 36 0
36 36 0
36 36 0
36 36 0
36 36 0
36 36 0
36 36 0
36 36 0
36 36 0
36 36 0
36 36 0
36 36 0
36 36 0
36 36 0
36 36 0
36 36 0
36 36 0
182 182 170
255 255 255
255 255 255
36 36 0
36 36 0
36 36 0
36 36 0
36 36 0
36 36 0
36 36 0
36 36 0
36 36 0
36 36 0
36 36 0
36 36 0
36 36 0
36 36 0
36 36 0
36 36 0
36 36 0
36 36 0
36 36 0
36 36 0
36 36 0
36 36 0
36 36 0
36 36 0
36 36 0
36 36 0
36 36 0
36 36 0
36 36 0
36 36 0
36 36 0
36 36 0
36 36 0
36 36 0
36 36 0
36 36 0
36 36 0
36 36 0
36 36 0
36 36 0
36 36 0
36 36 0
36 36 0
36 36 0
36 36 0
36 36 0
36 36 0
36 36 0
36 36 0
36 36 0
36 36 0
36 36 0
36 36 0
36 36 0
36 36 0
36 36 0
36 36 0
36 36 0
36 36 0
36 36 0
36 36 0
36 36 0
36 36 0
36 36 0
36 36 0
36 36 0
36 36 0
36 36 0
36 36 0
36 36 0
36 36 0
36 36 0
36 36 0
36 36 0
72 72 85
182 182 170
182 182 170
182 182 170
182 182 170
182 182 170
182 182 170
182 182 170
182 182 170
182 182 170
182 182 170
145 145 170
109 109 85
145 145 170
182 182 170
182 182 170
182 182 170
182 182 170
182 182 170
182 182 170
182 182 170
182 182 170
182 182 170
182 182 170
182 182 170
182 182 170
182 182 170
182 182 170
182 182 170
182 182 170
182 182 170
182 182 170
182 182 170
182 182 170
145 145 170
145 145 170
145 145 170
145 145 170
109 109 85
182 182 170
182 182 170
182 182 170
182 182 170
182 182 170
182 182 170
182 182 170
182 182 170
182 182 170
182 182 170
182 182 170
182 182 170
182 182 170
182 182 170
182 182 170
182 182 170
182 182 170
182 182 170
182 182 170
145 145 170
145 145 170
145 145 170
145 145 170
145 145 170
145 145 170
182 182 170
182 182 170
182 182 170
182 182 170
182 182 170
182 182 170
182 182 170
182 182 170
182 182 170
182 182 170
182 182 170
182 182 170
109 109 85
72 72 85
72 72 85
72 72 85
72 72 85
72 72 85
72 72 85
72 72 85
72 72 85
72 72 85
72 72 85
72 72 85
72 72 85
72 72 85
72 72 85
72 72 85
72 72 85
72 72 85
72 72 85
72 72 85
72 72 85
72 72 85
72 72 85
72 72 85
72 72 85
72 72 85
72 72 85
72 72 85
72 72 85
72 72 85
72 72 85
72 72 85
72 72 85
72 72 85
72 72 85
72 72 85
72 72 85
72 72 85
72 72 85
72 72 85
72 72 85
72 72 85
72 72 85
72 72 85
72 72 85
72 72 85
72 72 85
145 145 170
182 182 170
182 182 170
218 218 255
255 255 255
218 218 255
218 218 255
255 218 255
218 218 255
218 218 255
255 218 255
218 218 255
218 218 255
218 218 255
218 218 255
255 255 255
218 218 255
218 218 170
218 218 170
218 218 170
218 218 170
218 218 170
218 218 170
218 218 170
218 218 170
218 218 170
218 218 170
218 218 170
218 218 170
218 218 170
218 218 170
218 218 170
218 218 170
218 218 170
218 218 170
218 218 170
218 218 170
218 218 170
218 218 170
218 218 170
218 218 170
218 218 170
218 218 170
218 218 170
218 218 170
218 218 170
218 218 170
182 182 170
218 218 170
218 218 170
218 218 170
218 218 170
218 218 170
218 218 170
218 218 170
218 218 170
218 218 170
218 218 170
218 218 170
218 218 170
218 218 170
218 218 170
218 218 170
218 218 170
218 218 170
218 218 170
218 218 170
218 218 170
218 218 170
218 218 170
218 218 170
218 218 170
218 218 170
218 218 170
218 218 170
218 218 170
218 218 170
218 218 170
182 182 170
182 182 170
218 182 170
218 182 170
218 182 170
218 182 170
218 182 170
218 182 170
218 182 170
218 182 170
218 182 170
218 218 170
218 218 170
218 182 170
218 182 170
218 182 170
218 182 170
218 182 170
218 182 170
218 182 170
218 182 170
218 182 170
218 182 170
218 182 170
218 182 170
218 182 170
218 182 170
218 182 170
218 182 170
218 182 170
218 182 170
182 182 170
182 182 170
218 218 170
218 218 170
218 182 170
218 218 170
218 218 170
218 182 170
218 182 170
218 182 170
218 182 170
218 182 170
218 182 170
218 182 170
218 182 170
218 182 170
218 182 170
218 182 170
218 182 170
218 182 170
218 182 170
218 182 170
218 182 170
218 182 170
218 182 170
218 182 170
218 182 170
218 218 170
218 182 170
218 218 170
218 218 170
182 182 170
182 182 170
218 182 170
218 182 170
218 182 170
218 182 170
218 182 170
218 182 170
218 182 170
218 182 170
218 182 170
218 182 170
218 182 170
218 218 170
218 218 170
218 218 170
218 218 170
218 218 170
218 218 170
218 218 170
218 218 170
218 218 170
218 218 170
218 218 170
218 218 170
218 218 170
218 218 170
218 218 170
218 218 170
218 218 170
218 218 170
182 182 170
218 218 170
218 218 170
218 218 170
218 218 170
218 218 170
218 218 170
218 218 170
218 218 170
218 218 170
218 218 170
218 218 170
218 218 170
218 218 170
218 218 170
218 218 170
218 218 170
218 218 170
218 218 170
218 218 170
218 218 170
218 218 170
218 218 170
218 218 170
218 218 170
218 218 170
218 218 170
218 218 170
218 218 170
218 182 170
218 182 170
182 145 170
218 218 255
218 218 255
218 218 255
182 145 170
182 182 170
218 182 170
218 182 170
182 182 170
182 182 170
182 182 170
145 145 170
182 182 170
255 218 255
218 218 255
255 255 255
255 255 255
255 255 255
255 255 255
255 255 255
255 255 255
255 255 255
255 255 255
255 255 255
255 255 255
255 255 255
255 255 255
255 255 255
255 255 255
255 255 255
255 255 255
255 255 255
255 255 255
255 255 255
255 255 255
255 255 255
255 255 255
255 255 255
255 255 255
255 255 255
255 255 255
255 255 255
255 255 255
255 255 255
255 255 255
255 218 255
255 218 170
255 255 255
255 255 255
255 255 255
255 255 255
255 255 255
255 255 255
255 255 255
255 255 255
255 255 255
255 255 255
255 255 255
255 255 255
255 255 255
255 255 255
255 255 255
255 255 255
255 255 255
255 255 255
255 255 255
255 255 255
255 255 255
255 255 255
255 255 255
255 255 255
255 255 255
255 255 255
255 255 255
255 255 255
255 255 255
255 218 255
255 255 255
255 255 255
255 255 255
255 255 255
255 255 255
255 255 255
255 255 255
255 255 255
255 255 255
255 255 255
255 255 255
255 255 255
255 255 255
255 255 255
255 255 255
255 255 255
255 255 255
255 255 255
255 255 255
255 255 255
255 255 255
255 255 255
255 255 255
255 255 255
255 255 255
255 255 255
255 255 255
255 255 255
255 255 255
255 255 255
255 255 255
255 255 255
255 255 255
255 255 255
255 255 255
255 255 255
255 255 255
255 255 255
255 255 255
255 255 255
255 255 255
255 255 255
255 255 255
255 255 255
255 255 255
255 255 255
255 255 255
255 255 255
255 255 255
255 255 255
255 255 255
255 255 255
255 255 255
255 255 255
255 255 255
255 255 255
255 255 255
255 255 255
255 255 255
255 255 255
255 255 255
255 218 255
255 255 255
255 255 255
255 255 255
255 255 255
255 255 255
255 255 255
255 255 255
255 255 255
255 255 255
255 255 255
255 255 255
255 255 255
255 255 255
255 255 255
255 255 255
255 255 255
255 255 255
255 255 255
255 255 255
255 255 255
255 255 255
255 255 255
255 255 255
255 255 255
255 255 255
255 255 255
255 255 255
255 255 255
255 255 255
255 255 255
255 218 255
255 255 255
255 255 255
255 255 255
255 255 255
255 255 255
255 255 255
255 255 255
255 255 255
255 255 255
255 255 255
255 255 255
255 255 255
255 255 255
255 255 255
255 255 255
255 255 255
255 255 255
255 255 255
255 255 255
255 255 255
255 255 255
255 255 255
255 255 255
255 255 255
255 255 255
255 255 255
255 255 255
255 255 255
255 255 255
255 255 255
218 218 170
218 218 255
218 218 255
218 218 255
182 182 170
182 182 170
218 218 255
218 218 255
218 182 255
182 182 170
218 218 255
218 218 255
218 182 170
255 218 255
218 218 170
255 255 255
255 255 255
255 255 255
255 255 255
255 255 255
255 255 255
255 255 255
255 255 255
255 255 255
255 255 255
255 255 255
255 255 255
255 255 255
255 255 255
255 255 255
255 255 255
255 255 255
255 255 255
255 255 255
255 255 255
255 255 255
255 255 255
255 255 255
255 255 255
255 255 255
255 255 255
255 255 255
255 255 255
255 255 255
255 255 255
255 218 255
255 218 170
255 255 170
255 255 255
255 255 255
255 255 255
255 255 255
255 255 255
255 255 255
255 255 255
255 255 255
255 255 255
255 255 255
255 255 255
255 255 255
255 255 255
255 255 255
255 255 255
255 255 255
255 255 255
255 255 255
255 255 255
255 255 255
255 255 255
255 255 255
255 255 255
255 255 255
255 255 255
255 255 255
255 255 255
255 255 255
255 218 255
255 255 255
255 255 255
255 255 255
255 255 255
255 255 255
255 255 255
255 255 255
255 255 255
255 255 255
255 255 255
255 255 255
255 255 255
255 255 255
255 255 255
255 255 255
255 255 255
255 255 255
255 255 255
255 255 255
255 255 255
255 255 255
255 255 255
255 255 255
255 255 255
255 255 255
255 255 255
255 255 255
255 255 255
255 255 255
255 255 255
255 218 255
255 255 255
255 255 255
255 255 255
255 255 255
255 255 255
255 255 255
255 255 255
255 255 255
255 255 255
255 255 255
255 255 255
255 255 255
255 255 255
255 255 255
255 255 255
255 255 255
255 255 255
255 255 255
255 255 255
255 255 255
255 255 255
255 255 255
255 255 255
255 255 255
255 255 255
255 255 255
255 255 255
255 255 255
255 255 255
255 255 255
255 218 255
255 255 255
255 255 255
255 255 255
255 255 255
255 255 255
255 255 255
255 255 255
255 255 255
255 255 255
255 255 255
255 255 255
255 255 255
255 255 255
255 255 255
255 255 255
255 255 255
255 255 255
255 255 255
255 255 255
255 255 255
255 255 255
255 255 255
255 255 255
255 255 255
255 255 255
255 255 255
255 255 255
255 255 255
255 255 255
255 255 255
255 218 255
255 255 255
255 255 255
255 255 255
255 255 255
255 255 255
255 255 255
255 255 255
255 255 255
255 255 255
255 255 255
255 255 255
255 255 255
255 255 255
255 255 255
255 255 255
255 255 255
255 255 255
255 255 255
255 255 255
255 255 255
255 255 255
255 255 255
255 255 255
255 255 255
255 255 255
255 255 255
255 255 255
255 255 255
255 255 255
255 255 255
218 182 170
182 182 170
182 182 170
182 182 170
182 182 170
182 182 170
182 182 170
182 182 170
182 182 170
182 182 170
182 182 170
182 182 170
182 182 170
182 182 170
145 145 170
145 145 170
145 145 170
145 145 170
145 145 170
145 145 170
145 145 170
145 145 170
145 145 170
145 145 170
145 145 170
145 145 170
145 145 170
145 145 170
145 145 170
145 145 170
145 145 170
145 145 170
145 145 170
145 145 170
145 145 170
145 145 170
145 145 170
145 145 170
145 145 170
145 145 170
145 145 170
145 145 170
145 145 170
145 145 170
145 145 170
145 145 85
145 145 170
145 145 170
145 145 170
145 145 170
145 145 170
145 145 170
145 145 170
145 145 170
145 145 170
145 145 170
145 145 170
145 145 170
145 145 170
145 145 170
145 145 170
145 145 170
145 145 170
145 145 170
145 145 170
145 145 170
145 145 170
145 145 170
145 145 170
145 145 170
145 145 170
145 145 170
145 145 170
145 145 170
145 145 170
145 145 170
145 145 85
145 145 170
145 145 170
145 145 170
145 145 170
145 145 170
145 145 170
145 145 170
145 145 170
145 145 170
145 145 170
145 145 170
145 145 170
145 145 170
145 145 170
145 145 170
145 145 170
145 145 170
145 145 170
145 145 170
145 145 170
145 145 170
145 145 170
145 145 170
145 145 170
145 145 170
145 145 170
145 145 170
145 145 170
145 145 170
145 145 170
145 145 85
145 145 170
145 145 170
145 145 170
145 145 170
145 145 170
145 145 170
145 145 170
145 145 170
145 145 170
145 145 170
145 145 170
145 145 170
145 145 170
145 145 170
145 145 170
145 145 170
145 145 170
145 145 170
145 145 170
145 145 170
145 145 170
145 145 170
145 145 170
145 145 170
145 145 170
145 145 170
145 145 170
145 145 170
145 145 170
145 145 170
145 145 85
145 145 170
145 145 170
145 145 170
145 145 170
145 145 170
145 145 170
145 145 170
145 145 170
145 145 170
145 145 170
145 145 170
145 145 170
145 145 170
145 145 170
145 145 170
145 145 170
145 145 170
145 145 170
145 145 170
145 145 170
145 145 170
145 145 170
145 145 170
145 145 170
145 145 170
145 145 170
145 145 170
145 145 170
145 145 170
145 145 170
145 145 85
145 145 170
145 145 170
145 145 170
145 145 170
145 145 170
145 145 170
145 145 170
145 145 170
145 145 170
145 145 170
145 145 170
145 145 170
145 145 170
145 145 170
145 145 170
145 145 170
145 145 170
145 145 170
145 145 170
145 145 170
145 145 170
145 145 170
145 145 170
145 145 170
145 145 170
145 145 170
145 145 170
145 145 170
145 145 170
145 145 170
145 109 85
